P3
400 224
255
222 160 145
222 160 145
222 160 145
222 160 145
222 160 144
222 160 144
222 160 144
222 160 144
222 160 144
222 160 144
222 160 144
222 160 144
222 161 144
222 161 144
222 161 144
222 161 144
222 161 143
223 161 143
223 161 143
223 161 143
223 161 143
223 161 143
223 161 143
223 162 143
223 162 143
223 162 143
223 162 142
223 162 142
223 162 142
223 162 142
223 162 142
223 162 142
223 162 142
224 162 142
224 163 142
224 163 142
224 163 142
224 163 141
224 163 141
224 163 141
224 163 141
224 163 141
224 163 141
224 163 141
224 164 141
224 164 141
224 164 141
224 164 140
225 164 140
225 164 140
225 164 140
225 164 140
225 164 140
225 164 140
225 165 140
225 165 140
225 165 140
225 165 139
225 165 139
225 165 139
225 165 139
225 165 139
226 165 139
226 165 139
226 166 139
226 166 139
226 166 139
226 166 138
226 166 138
226 166 138
226 166 138
226 166 138
226 166 138
226 166 138
226 167 138
226 167 138
227 167 137
227 167 137
227 167 137
227 167 137
227 167 137
227 167 137
227 167 137
227 168 137
227 168 137
227 168 136
227 168 136
227 168 136
227 168 136
227 168 136
228 168 136
228 168 136
228 168 136
228 169 136
228 169 135
228 169 135
228 169 135
228 169 135
228 169 135
228 169 135
228 169 135
228 169 135
228 170 135
228 170 135
229 170 134
229 170 134
229 170 134
229 170 134
229 170 134
229 170 134
229 170 134
229 170 134
229 171 134
229 171 133
229 171 133
229 171 133
229 171 133
229 171 133
230 171 133
230 171 133
230 171 133
230 171 133
230 172 133
230 172 132
230 172 132
230 172 132
230 172 132
230 172 132
230 172 132
230 172 132
230 172 132
230 172 132
230 172 132
230 173 132
231 173 131
231 173 131
231 173 131
231 173 131
231 173 131
231 173 131
231 173 131
231 173 131
231 173 131
231 173 131
231 174 131
231 174 130
231 174 130
231 174 130
231 174 130
231 174 130
231 174 130
232 174 130
232 174 130
232 174 130
232 174 130
232 174 130
232 174 130
232 174 130
232 175 129
232 175 129
232 175 129
232 175 129
232 175 129
232 175 129
232 175 129
232 175 129
232 175 129
232 175 129
232 175 129
232 175 129
232 175 129
232 175 129
232 175 129
232 175 129
232 175 129
232 175 129
232 175 129
233 176 128
233 176 128
233 176 128
233 176 128
233 176 128
233 176 128
233 176 128
233 176 128
233 176 128
233 176 128
233 176 128
233 176 128
233 176 128
233 176 128
233 176 128
233 176 128
233 176 128
233 176 128
233 176 128
233 176 128
233 176 128
233 176 128
233 176 128
233 176 128
233 176 128
233 176 128
233 176 128
233 176 128
233 176 128
233 176 128
233 176 128
233 176 128
233 176 128
233 176 128
233 176 128
233 176 128
233 176 128
233 176 128
233 176 128
233 176 128
233 176 128
233 176 128
233 176 128
233 176 128
233 176 128
233 176 128
233 176 129
232 175 129
232 175 129
232 175 129
232 175 129
232 175 129
232 175 129
232 175 129
232 175 129
232 175 129
232 175 129
232 175 129
232 175 129
232 175 129
232 175 129
232 175 129
232 175 129
232 175 129
232 175 129
232 174 130
232 174 130
232 174 130
232 174 130
232 174 130
232 174 130
232 174 130
231 174 130
231 174 130
231 174 130
231 174 130
231 174 130
231 174 130
231 174 131
231 173 131
231 173 131
231 173 131
231 173 131
231 173 131
231 173 131
231 173 131
231 173 131
231 173 131
231 173 131
230 173 132
230 172 132
230 172 132
230 172 132
230 172 132
230 172 132
230 172 132
230 172 132
230 172 132
230 172 132
230 172 132
230 172 133
230 171 133
230 171 133
230 171 133
229 171 133
229 171 133
229 171 133
229 171 133
229 171 133
229 171 133
229 171 134
229 170 134
229 170 134
229 170 134
229 170 134
229 170 134
229 170 134
229 170 134
229 170 134
228 170 135
228 170 135
228 169 135
228 169 135
228 169 135
228 169 135
228 169 135
228 169 135
228 169 135
228 169 136
228 169 136
228 168 136
228 168 136
228 168 136
227 168 136
227 168 136
227 168 136
227 168 136
227 168 136
227 168 137
227 167 137
227 167 137
227 167 137
227 167 137
227 167 137
227 167 137
227 167 137
227 167 137
226 167 138
226 167 138
226 166 138
226 166 138
226 166 138
226 166 138
226 166 138
226 166 138
226 166 138
226 166 138
226 166 139
226 166 139
226 165 139
225 165 139
225 165 139
225 165 139
225 165 139
225 165 139
225 165 139
225 165 140
225 165 140
225 164 140
225 164 140
225 164 140
225 164 140
225 164 140
225 164 140
225 164 140
224 164 140
224 164 141
224 164 141
224 164 141
224 163 141
224 163 141
224 163 141
224 163 141
224 163 141
224 163 141
224 163 141
224 163 142
224 163 142
224 163 142
224 162 142
223 162 142
223 162 142
223 162 142
223 162 142
223 162 142
223 162 142
223 162 143
223 162 143
223 162 143
223 162 143
223 161 143
223 161 143
223 161 143
223 161 143
223 161 143
223 161 143
222 161 143
222 161 144
222 161 144
222 161 144
222 161 144
222 160 144
222 160 144
222 160 144
222 160 144
222 160 144
222 160 144
222 160 144
222 160 144
222 160 145
222 160 145
222 160 145
222 160 145
221 159 145
221 159 145
222 160 145
222 160 145
222 160 145
222 160 145
222 160 145
222 160 144
222 160 144
222 160 144
222 160 144
222 160 144
222 160 144
222 160 144
222 161 144
222 161 144
222 161 144
222 161 144
222 161 143
223 161 143
223 161 143
223 161 143
223 161 143
223 161 143
223 161 143
223 162 143
223 162 143
223 162 143
223 162 143
223 162 142
223 162 142
223 162 142
223 162 142
223 162 142
223 162 142
224 162 142
224 163 142
224 163 142
224 163 142
224 163 141
224 163 141
224 163 141
224 163 141
224 163 141
224 163 141
224 163 141
224 163 141
224 164 141
224 164 141
224 164 140
225 164 140
225 164 140
225 164 140
225 164 140
225 164 140
225 164 140
225 165 140
225 165 140
225 165 140
225 165 139
225 165 139
225 165 139
225 165 139
225 165 139
225 165 139
226 165 139
226 166 139
226 166 139
226 166 138
226 166 138
226 166 138
226 166 138
226 166 138
226 166 138
226 166 138
226 166 138
226 167 138
226 167 138
226 167 137
227 167 137
227 167 137
227 167 137
227 167 137
227 167 137
227 167 137
227 168 137
227 168 137
227 168 136
227 168 136
227 168 136
227 168 136
227 168 136
228 168 136
228 168 136
228 168 136
228 169 136
228 169 136
228 169 135
228 169 135
228 169 135
228 169 135
228 169 135
228 169 135
228 169 135
228 170 135
228 170 135
229 170 134
229 170 134
229 170 134
229 170 134
229 170 134
229 170 134
229 170 134
229 170 134
229 171 134
229 171 133
229 171 133
229 171 133
229 171 133
229 171 133
229 171 133
230 171 133
230 171 133
230 171 133
230 172 133
230 172 132
230 172 132
230 172 132
230 172 132
230 172 132
230 172 132
230 172 132
230 172 132
230 172 132
230 172 132
230 173 132
231 173 131
231 173 131
231 173 131
231 173 131
231 173 131
231 173 131
231 173 131
231 173 131
231 173 131
231 173 131
231 173 131
231 174 131
231 174 130
231 174 130
231 174 130
231 174 130
231 174 130
231 174 130
232 174 130
232 174 130
232 174 130
232 174 130
232 174 130
232 174 130
232 174 130
232 175 130
232 175 129
232 175 129
232 175 129
232 175 129
232 175 129
232 175 129
232 175 129
232 175 129
232 175 129
232 175 129
232 175 129
232 175 129
232 175 129
232 175 129
232 175 129
232 175 129
232 175 129
232 175 129
232 175 129
232 175 129
233 176 129
233 176 128
233 176 128
233 176 128
233 176 128
233 176 128
233 176 128
233 176 128
233 176 128
233 176 128
233 176 128
233 176 128
233 176 128
233 176 128
233 176 128
233 176 128
233 176 128
233 176 128
233 176 128
233 176 128
233 176 128
233 176 128
233 176 128
233 176 128
233 176 128
233 176 128
233 176 128
233 176 128
233 176 128
233 176 128
233 176 128
233 176 128
233 176 128
233 176 128
233 176 128
233 176 129
232 175 129
232 175 129
232 175 129
232 175 129
232 175 129
232 175 129
232 175 129
232 175 129
232 175 129
232 175 129
232 175 129
232 175 129
232 175 129
232 175 129
232 175 129
232 175 129
232 175 129
232 175 129
232 175 129
232 175 129
232 175 130
232 174 130
232 174 130
232 174 130
232 174 130
232 174 130
232 174 130
232 174 130
231 174 130
231 174 130
231 174 130
231 174 130
231 174 130
231 174 130
231 174 131
231 173 131
231 173 131
231 173 131
231 173 131
231 173 131
231 173 131
231 173 131
231 173 131
231 173 131
231 173 131
231 173 131
230 173 132
230 172 132
230 172 132
230 172 132
230 172 132
230 172 132
230 172 132
230 172 132
230 172 132
230 172 132
230 172 132
230 172 133
230 171 133
230 171 133
230 171 133
230 171 133
229 171 133
229 171 133
229 171 133
229 171 133
229 171 133
229 171 134
229 170 134
229 170 134
229 170 134
229 170 134
229 170 134
229 170 134
229 170 134
229 170 134
228 170 135
228 169 135
228 169 135
228 169 135
228 169 135
228 169 135
228 169 135
228 169 135
228 169 135
228 169 135
228 169 136
228 168 136
228 168 136
228 168 136
227 168 136
227 168 136
227 168 136
227 168 136
227 168 136
227 168 137
227 168 137
227 167 137
227 167 137
227 167 137
227 167 137
227 167 137
227 167 137
227 167 137
226 167 138
226 167 138
226 166 138
226 166 138
226 166 138
226 166 138
226 166 138
226 166 138
226 166 138
226 166 138
226 166 139
226 166 139
226 165 139
225 165 139
225 165 139
225 165 139
225 165 139
225 165 139
225 165 139
225 165 140
225 165 140
225 164 140
225 164 140
225 164 140
225 164 140
225 164 140
225 164 140
225 164 140
224 164 140
224 164 141
224 164 141
224 164 141
224 163 141
224 163 141
224 163 141
224 163 141
224 163 141
224 163 141
224 163 141
224 163 142
224 163 142
224 163 142
224 162 142
223 162 142
223 162 142
223 162 142
223 162 142
223 162 142
223 162 142
223 162 143
223 162 143
223 162 143
223 162 143
223 161 143
223 161 143
223 161 143
223 161 143
223 161 143
223 161 143
222 161 143
222 161 144
222 161 144
222 161 144
222 161 144
222 160 144
222 160 144
222 160 144
222 160 144
222 160 144
222 160 144
222 160 144
222 160 145
222 160 145
222 160 145
222 160 145
221 159 145
221 159 145
221 159 145
221 159 145
221 159 145
221 159 145
221 159 145
221 159 145
222 160 145
222 160 145
222 160 145
222 160 145
222 160 144
222 160 144
222 160 144
222 160 144
222 160 144
222 160 144
222 160 144
222 161 144
222 161 144
222 161 144
222 161 144
222 161 143
222 161 143
223 161 143
223 161 143
223 161 143
223 161 143
223 161 143
223 161 143
223 162 143
223 162 143
223 162 143
223 162 142
223 162 142
223 162 142
223 162 142
223 162 142
223 162 142
224 162 142
224 163 142
224 163 142
224 163 142
224 163 141
224 163 141
224 163 141
224 163 141
224 163 141
224 163 141
224 163 141
224 164 141
224 164 141
224 164 141
224 164 140
225 164 140
225 164 140
225 164 140
225 164 140
225 164 140
225 164 140
225 164 140
225 165 140
225 165 140
225 165 139
225 165 139
225 165 139
225 165 139
225 165 139
225 165 139
226 165 139
226 166 139
226 166 139
226 166 139
226 166 138
226 166 138
226 166 138
226 166 138
226 166 138
226 166 138
226 166 138
226 167 138
226 167 138
226 167 137
227 167 137
227 167 137
227 167 137
227 167 137
227 167 137
227 167 137
227 167 137
227 168 137
227 168 136
227 168 136
227 168 136
227 168 136
227 168 136
228 168 136
228 168 136
228 168 136
228 169 136
228 169 136
228 169 135
228 169 135
228 169 135
228 169 135
228 169 135
228 169 135
228 169 135
228 170 135
228 170 135
229 170 134
229 170 134
229 170 134
229 170 134
229 170 134
229 170 134
229 170 134
229 170 134
229 171 134
229 171 134
229 171 133
229 171 133
229 171 133
229 171 133
229 171 133
230 171 133
230 171 133
230 171 133
230 171 133
230 172 132
230 172 132
230 172 132
230 172 132
230 172 132
230 172 132
230 172 132
230 172 132
230 172 132
230 172 132
230 173 132
231 173 131
231 173 131
231 173 131
231 173 131
231 173 131
231 173 131
231 173 131
231 173 131
231 173 131
231 173 131
231 173 131
231 173 131
231 174 130
231 174 130
231 174 130
231 174 130
231 174 130
231 174 130
231 174 130
232 174 130
232 174 130
232 174 130
232 174 130
232 174 130
232 174 130
232 174 130
232 175 130
232 175 129
232 175 129
232 175 129
232 175 129
232 175 129
232 175 129
232 175 129
232 175 129
232 175 129
232 175 129
232 175 129
232 175 129
232 175 129
232 175 129
232 175 129
232 175 129
232 175 129
232 175 129
232 175 129
232 175 129
232 175 129
232 175 129
232 175 129
232 175 129
232 175 129
232 175 129
233 176 129
233 176 129
233 176 128
233 176 128
233 176 128
233 176 128
233 176 128
233 176 128
233 176 128
233 176 128
233 176 128
233 176 128
233 176 128
233 176 128
233 176 128
233 176 128
233 176 128
233 176 129
232 175 129
232 175 129
232 175 129
232 175 129
232 175 129
232 175 129
232 175 129
232 175 129
232 175 129
232 175 129
232 175 129
232 175 129
232 175 129
232 175 129
232 175 129
232 175 129
232 175 129
232 175 129
232 175 129
232 175 129
232 175 129
232 175 129
232 175 129
232 175 129
232 175 129
232 175 129
232 175 130
232 174 130
232 174 130
232 174 130
232 174 130
232 174 130
232 174 130
232 174 130
231 174 130
231 174 130
231 174 130
231 174 130
231 174 130
231 174 130
231 174 130
231 173 131
231 173 131
231 173 131
231 173 131
231 173 131
231 173 131
231 173 131
231 173 131
231 173 131
231 173 131
231 173 131
231 173 131
230 173 132
230 172 132
230 172 132
230 172 132
230 172 132
230 172 132
230 172 132
230 172 132
230 172 132
230 172 132
230 172 133
230 172 133
230 171 133
230 171 133
230 171 133
229 171 133
229 171 133
229 171 133
229 171 133
229 171 133
229 171 134
229 171 134
229 170 134
229 170 134
229 170 134
229 170 134
229 170 134
229 170 134
229 170 134
229 170 134
228 170 135
228 170 135
228 169 135
228 169 135
228 169 135
228 169 135
228 169 135
228 169 135
228 169 135
228 169 136
228 169 136
228 168 136
228 168 136
228 168 136
227 168 136
227 168 136
227 168 136
227 168 136
227 168 136
227 168 137
227 167 137
227 167 137
227 167 137
227 167 137
227 167 137
227 167 137
227 167 137
226 167 137
226 167 138
226 167 138
226 166 138
226 166 138
226 166 138
226 166 138
226 166 138
226 166 138
226 166 138
226 166 139
226 166 139
226 166 139
226 165 139
225 165 139
225 165 139
225 165 139
225 165 139
225 165 139
225 165 139
225 165 140
225 165 140
225 164 140
225 164 140
225 164 140
225 164 140
225 164 140
225 164 140
225 164 140
224 164 140
224 164 141
224 164 141
224 163 141
224 163 141
224 163 141
224 163 141
224 163 141
224 163 141
224 163 141
224 163 141
224 163 142
224 163 142
224 163 142
224 162 142
223 162 142
223 162 142
223 162 142
223 162 142
223 162 142
223 162 142
223 162 143
223 162 143
223 162 143
223 161 143
223 161 143
223 161 143
223 161 143
223 161 143
223 161 143
222 161 143
222 161 143
222 161 144
222 161 144
222 161 144
222 161 144
222 160 144
222 160 144
222 160 144
222 160 144
222 160 144
222 160 144
222 160 144
222 160 145
222 160 145
222 160 145
222 160 145
221 159 145
221 159 145
221 159 145
221 159 145
221 159 145
221 159 145
221 159 145
221 159 145
221 159 145
221 159 145
221 159 145
221 159 145
222 160 145
222 160 145
222 160 145
222 160 145
222 160 144
222 160 144
222 160 144
222 160 144
222 160 144
222 160 144
222 160 144
222 160 144
222 161 144
222 161 144
222 161 144
222 161 144
222 161 143
223 161 143
223 161 143
223 161 143
223 161 143
223 161 143
223 161 143
223 162 143
223 162 143
223 162 143
223 162 142
223 162 142
223 162 142
223 162 142
223 162 142
223 162 142
223 162 142
224 163 142
224 163 142
224 163 142
224 163 141
224 163 141
224 163 141
224 163 141
224 163 141
224 163 141
224 163 141
224 163 141
224 164 141
224 164 141
224 164 140
225 164 140
225 164 140
225 164 140
225 164 140
225 164 140
225 164 140
225 164 140
225 165 140
225 165 140
225 165 139
225 165 139
225 165 139
225 165 139
225 165 139
225 165 139
226 165 139
226 166 139
226 166 139
226 166 139
226 166 138
226 166 138
226 166 138
226 166 138
226 166 138
226 166 138
226 166 138
226 167 138
226 167 138
226 167 137
227 167 137
227 167 137
227 167 137
227 167 137
227 167 137
227 167 137
227 168 137
227 168 137
227 168 136
227 168 136
227 168 136
227 168 136
227 168 136
228 168 136
228 168 136
228 168 136
228 169 136
228 169 136
228 169 135
228 169 135
228 169 135
228 169 135
228 169 135
228 169 135
228 169 135
228 169 135
228 170 135
229 170 134
229 170 134
229 170 134
229 170 134
229 170 134
229 170 134
229 170 134
229 170 134
229 171 134
229 171 134
229 171 133
229 171 133
229 171 133
229 171 133
229 171 133
230 171 133
230 171 133
230 171 133
230 171 133
230 172 133
230 172 132
230 172 132
230 172 132
230 172 132
230 172 132
230 172 132
230 172 132
230 172 132
230 172 132
230 172 132
230 173 132
231 173 131
231 173 131
231 173 131
231 173 131
231 173 131
231 173 131
231 173 131
231 173 131
231 173 131
231 173 131
231 173 131
231 174 131
231 174 130
231 174 130
231 174 130
231 174 130
231 174 130
231 174 130
231 174 130
232 174 130
232 174 130
232 174 130
232 174 130
232 174 130
232 174 130
232 174 130
232 174 130
232 175 130
232 175 129
232 175 129
232 175 129
232 175 129
232 175 129
232 175 129
232 175 129
232 175 129
232 175 129
232 175 129
232 175 129
232 175 129
232 175 129
232 175 129
232 175 129
232 175 129
232 175 129
232 175 129
232 175 129
232 175 129
232 175 129
232 175 129
232 175 129
232 175 129
232 175 129
232 175 129
232 175 129
232 175 129
232 175 129
232 175 129
232 175 129
232 175 129
232 175 129
232 175 129
232 175 129
232 175 129
232 175 129
232 175 129
232 175 129
232 175 129
232 175 129
232 175 129
232 175 129
232 175 129
232 175 129
232 175 129
232 175 129
232 175 129
232 175 129
232 175 129
232 175 129
232 175 129
232 175 129
232 175 129
232 175 129
232 175 129
232 175 129
232 175 129
232 175 129
232 175 129
232 175 129
232 175 129
232 175 130
232 174 130
232 174 130
232 174 130
232 174 130
232 174 130
232 174 130
232 174 130
232 174 130
231 174 130
231 174 130
231 174 130
231 174 130
231 174 130
231 174 130
231 174 130
231 174 131
231 173 131
231 173 131
231 173 131
231 173 131
231 173 131
231 173 131
231 173 131
231 173 131
231 173 131
231 173 131
231 173 131
230 173 132
230 172 132
230 172 132
230 172 132
230 172 132
230 172 132
230 172 132
230 172 132
230 172 132
230 172 132
230 172 132
230 172 133
230 171 133
230 171 133
230 171 133
230 171 133
229 171 133
229 171 133
229 171 133
229 171 133
229 171 133
229 171 134
229 171 134
229 170 134
229 170 134
229 170 134
229 170 134
229 170 134
229 170 134
229 170 134
229 170 134
228 170 135
228 169 135
228 169 135
228 169 135
228 169 135
228 169 135
228 169 135
228 169 135
228 169 135
228 169 136
228 169 136
228 168 136
228 168 136
228 168 136
227 168 136
227 168 136
227 168 136
227 168 136
227 168 136
227 168 137
227 167 137
227 167 137
227 167 137
227 167 137
227 167 137
227 167 137
227 167 137
226 167 137
226 167 138
226 167 138
226 166 138
226 166 138
226 166 138
226 166 138
226 166 138
226 166 138
226 166 138
226 166 139
226 166 139
226 166 139
226 165 139
225 165 139
225 165 139
225 165 139
225 165 139
225 165 139
225 165 139
225 165 140
225 165 140
225 164 140
225 164 140
225 164 140
225 164 140
225 164 140
225 164 140
224 164 140
224 164 140
224 164 141
224 164 141
224 163 141
224 163 141
224 163 141
224 163 141
224 163 141
224 163 141
224 163 141
224 163 141
224 163 142
224 163 142
224 163 142
223 162 142
223 162 142
223 162 142
223 162 142
223 162 142
223 162 142
223 162 142
223 162 143
223 162 143
223 162 143
223 161 143
223 161 143
223 161 143
223 161 143
223 161 143
223 161 143
222 161 143
222 161 143
222 161 144
222 161 144
222 161 144
222 160 144
222 160 144
222 160 144
222 160 144
222 160 144
222 160 144
222 160 144
222 160 144
222 160 145
222 160 145
222 160 145
222 160 145
221 159 145
221 159 145
221 159 145
221 159 145
221 159 145
221 159 145
221 159 145
221 159 146
221 159 146
221 159 145
221 159 145
221 159 145
221 159 145
221 159 145
221 159 145
221 159 145
221 159 145
222 160 145
222 160 145
222 160 145
222 160 145
222 160 144
222 160 144
222 160 144
222 160 144
222 160 144
222 160 144
222 160 144
222 161 144
222 161 144
222 161 144
222 161 144
222 161 143
223 161 143
223 161 143
223 161 143
223 161 143
223 161 143
223 161 143
223 162 143
223 162 143
223 162 143
223 162 143
223 162 142
223 162 142
223 162 142
223 162 142
223 162 142
223 162 142
224 162 142
224 163 142
224 163 142
224 163 142
224 163 141
224 163 141
224 163 141
224 163 141
224 163 141
224 163 141
224 163 141
224 164 141
224 164 141
224 164 141
225 164 140
225 164 140
225 164 140
225 164 140
225 164 140
225 164 140
225 164 140
225 165 140
225 165 140
225 165 139
225 165 139
225 165 139
225 165 139
225 165 139
225 165 139
226 165 139
226 165 139
226 166 139
226 166 139
226 166 138
226 166 138
226 166 138
226 166 138
226 166 138
226 166 138
226 166 138
226 167 138
226 167 138
226 167 137
227 167 137
227 167 137
227 167 137
227 167 137
227 167 137
227 167 137
227 167 137
227 168 137
227 168 136
227 168 136
227 168 136
227 168 136
227 168 136
227 168 136
228 168 136
228 168 136
228 169 136
228 169 136
228 169 135
228 169 135
228 169 135
228 169 135
228 169 135
228 169 135
228 169 135
228 169 135
228 170 135
228 170 134
229 170 134
229 170 134
229 170 134
229 170 134
229 170 134
229 170 134
229 170 134
229 170 134
229 171 134
229 171 133
229 171 133
229 171 133
229 171 133
229 171 133
230 171 133
230 171 133
230 171 133
230 171 133
230 172 133
230 172 132
230 172 132
230 172 132
230 172 132
230 172 132
230 172 132
230 172 132
230 172 132
230 172 132
230 172 132
230 173 132
231 173 131
231 173 131
231 173 131
231 173 131
231 173 131
231 173 131
231 173 131
231 173 131
231 173 131
231 173 131
231 173 131
231 173 131
231 174 131
231 174 130
231 174 130
231 174 130
231 174 130
231 174 130
231 174 130
231 174 130
231 174 130
232 174 130
232 174 130
232 174 130
232 174 130
232 174 130
232 174 130
232 174 130
232 174 130
232 175 130
232 175 129
232 175 129
232 175 129
232 175 129
232 175 129
232 175 129
232 175 129
232 175 129
232 175 129
232 175 129
232 175 129
232 175 129
232 175 129
232 175 129
232 175 129
232 175 129
232 175 129
232 175 129
232 175 129
232 175 129
232 175 129
232 175 129
232 175 129
232 175 129
232 175 129
232 175 129
232 175 129
232 175 129
232 175 129
232 175 129
232 175 129
232 175 129
232 175 129
232 175 129
232 175 129
232 175 129
232 175 129
232 175 129
232 175 129
232 175 129
232 175 129
232 175 129
232 175 129
232 175 129
232 175 129
232 175 129
232 175 129
232 175 129
232 175 129
232 175 129
232 175 129
232 175 129
232 175 129
232 175 129
232 175 130
232 174 130
232 174 130
232 174 130
232 174 130
232 174 130
232 174 130
232 174 130
232 174 130
231 174 130
231 174 130
231 174 130
231 174 130
231 174 130
231 174 130
231 174 130
231 174 130
231 174 131
231 173 131
231 173 131
231 173 131
231 173 131
231 173 131
231 173 131
231 173 131
231 173 131
231 173 131
231 173 131
231 173 131
230 173 131
230 173 132
230 172 132
230 172 132
230 172 132
230 172 132
230 172 132
230 172 132
230 172 132
230 172 132
230 172 132
230 172 132
230 172 133
230 171 133
230 171 133
230 171 133
230 171 133
229 171 133
229 171 133
229 171 133
229 171 133
229 171 133
229 171 134
229 170 134
229 170 134
229 170 134
229 170 134
229 170 134
229 170 134
229 170 134
229 170 134
229 170 134
228 170 135
228 169 135
228 169 135
228 169 135
228 169 135
228 169 135
228 169 135
228 169 135
228 169 135
228 169 136
228 169 136
228 168 136
228 168 136
227 168 136
227 168 136
227 168 136
227 168 136
227 168 136
227 168 136
227 168 137
227 167 137
227 167 137
227 167 137
227 167 137
227 167 137
227 167 137
227 167 137
226 167 137
226 167 138
226 167 138
226 166 138
226 166 138
226 166 138
226 166 138
226 166 138
226 166 138
226 166 138
226 166 139
226 166 139
226 166 139
226 165 139
225 165 139
225 165 139
225 165 139
225 165 139
225 165 139
225 165 139
225 165 140
225 165 140
225 164 140
225 164 140
225 164 140
225 164 140
225 164 140
225 164 140
224 164 140
224 164 141
224 164 141
224 164 141
224 163 141
224 163 141
224 163 141
224 163 141
224 163 141
224 163 141
224 163 141
224 163 142
224 163 142
224 163 142
224 162 142
223 162 142
223 162 142
223 162 142
223 162 142
223 162 142
223 162 142
223 162 143
223 162 143
223 162 143
223 162 143
223 161 143
223 161 143
223 161 143
223 161 143
223 161 143
223 161 143
222 161 143
222 161 144
222 161 144
222 161 144
222 161 144
222 160 144
222 160 144
222 160 144
222 160 144
222 160 144
222 160 144
222 160 144
222 160 145
222 160 145
222 160 145
222 160 145
222 160 145
221 159 145
221 159 145
221 159 145
221 159 145
221 159 145
221 159 145
221 159 145
221 159 146
221 159 146
221 159 146
221 159 146
221 159 146
221 159 146
221 159 145
221 159 145
221 159 145
221 159 145
221 159 145
221 159 145
221 159 145
221 159 145
222 160 145
222 160 145
222 160 145
222 160 145
222 160 144
222 160 144
222 160 144
222 160 144
222 160 144
222 160 144
222 160 144
222 161 144
222 161 144
222 161 144
222 161 144
222 161 143
223 161 143
223 161 143
223 161 143
223 161 143
223 161 143
223 161 143
223 162 143
223 162 143
223 162 143
223 162 143
223 162 142
223 162 142
223 162 142
223 162 142
223 162 142
223 162 142
224 162 142
224 163 142
224 163 142
224 163 142
224 163 141
224 163 141
224 163 141
224 163 141
224 163 141
224 163 141
224 163 141
224 164 141
224 164 141
224 164 141
224 164 140
225 164 140
225 164 140
225 164 140
225 164 140
225 164 140
225 164 140
225 165 140
225 165 140
225 165 139
225 165 139
225 165 139
225 165 139
225 165 139
225 165 139
226 165 139
226 165 139
226 166 139
226 166 139
226 166 138
226 166 138
226 166 138
226 166 138
226 166 138
226 166 138
226 166 138
226 167 138
226 167 138
226 167 137
227 167 137
227 167 137
227 167 137
227 167 137
227 167 137
227 167 137
227 167 137
227 168 137
227 168 136
227 168 136
227 168 136
227 168 136
227 168 136
227 168 136
228 168 136
228 168 136
228 169 136
228 169 136
228 169 135
228 169 135
228 169 135
228 169 135
228 169 135
228 169 135
228 169 135
228 169 135
228 170 135
228 170 134
229 170 134
229 170 134
229 170 134
229 170 134
229 170 134
229 170 134
229 170 134
229 170 134
229 171 134
229 171 133
229 171 133
229 171 133
229 171 133
229 171 133
230 171 133
230 171 133
230 171 133
230 171 133
230 172 133
230 172 133
230 172 132
230 172 132
230 172 132
230 172 132
230 172 132
230 172 132
230 172 132
230 172 132
230 172 132
230 172 132
230 173 132
231 173 131
231 173 131
231 173 131
231 173 131
231 173 131
231 173 131
231 173 131
231 173 131
231 173 131
231 173 131
231 173 131
231 173 131
231 174 131
231 174 130
231 174 130
231 174 130
231 174 130
231 174 130
231 174 130
231 174 130
231 174 130
232 174 130
232 174 130
232 174 130
232 174 130
232 174 130
232 174 130
232 174 130
232 174 130
232 174 130
232 174 130
232 175 130
232 175 129
232 175 129
232 175 129
232 175 129
232 175 129
232 175 129
232 175 129
232 175 129
232 175 129
232 175 129
232 175 129
232 175 129
232 175 129
232 175 129
232 175 129
232 175 129
232 175 129
232 175 129
232 175 129
232 175 129
232 175 129
232 175 129
232 175 129
232 175 129
232 175 129
232 175 129
232 175 129
232 175 129
232 175 129
232 175 129
232 175 129
232 175 129
232 175 129
232 175 129
232 175 129
232 175 129
232 175 129
232 175 129
232 175 129
232 175 129
232 175 129
232 175 129
232 175 129
232 175 129
232 175 130
232 174 130
232 174 130
232 174 130
232 174 130
232 174 130
232 174 130
232 174 130
232 174 130
232 174 130
231 174 130
231 174 130
231 174 130
231 174 130
231 174 130
231 174 130
231 174 130
231 174 130
231 174 130
231 174 131
231 173 131
231 173 131
231 173 131
231 173 131
231 173 131
231 173 131
231 173 131
231 173 131
231 173 131
231 173 131
231 173 131
231 173 131
230 173 132
230 172 132
230 172 132
230 172 132
230 172 132
230 172 132
230 172 132
230 172 132
230 172 132
230 172 132
230 172 132
230 172 133
230 172 133
230 171 133
230 171 133
230 171 133
230 171 133
229 171 133
229 171 133
229 171 133
229 171 133
229 171 133
229 171 134
229 170 134
229 170 134
229 170 134
229 170 134
229 170 134
229 170 134
229 170 134
229 170 134
228 170 134
228 170 135
228 169 135
228 169 135
228 169 135
228 169 135
228 169 135
228 169 135
228 169 135
228 169 135
228 169 136
228 169 136
228 168 136
228 168 136
228 168 136
227 168 136
227 168 136
227 168 136
227 168 136
227 168 136
227 168 137
227 167 137
227 167 137
227 167 137
227 167 137
227 167 137
227 167 137
227 167 137
226 167 137
226 167 138
226 167 138
226 166 138
226 166 138
226 166 138
226 166 138
226 166 138
226 166 138
226 166 138
226 166 139
226 166 139
226 165 139
226 165 139
225 165 139
225 165 139
225 165 139
225 165 139
225 165 139
225 165 139
225 165 140
225 165 140
225 164 140
225 164 140
225 164 140
225 164 140
225 164 140
225 164 140
224 164 140
224 164 141
224 164 141
224 164 141
224 163 141
224 163 141
224 163 141
224 163 141
224 163 141
224 163 141
224 163 141
224 163 142
224 163 142
224 163 142
224 162 142
223 162 142
223 162 142
223 162 142
223 162 142
223 162 142
223 162 142
223 162 143
223 162 143
223 162 143
223 162 143
223 161 143
223 161 143
223 161 143
223 161 143
223 161 143
223 161 143
222 161 143
222 161 144
222 161 144
222 161 144
222 161 144
222 160 144
222 160 144
222 160 144
222 160 144
222 160 144
222 160 144
222 160 144
222 160 145
222 160 145
222 160 145
222 160 145
221 159 145
221 159 145
221 159 145
221 159 145
221 159 145
221 159 145
221 159 145
221 159 146
221 159 146
221 159 146
221 159 146
221 159 146
221 158 146
221 158 146
221 159 146
221 159 146
221 159 146
221 159 146
221 159 146
221 159 145
221 159 145
221 159 145
221 159 145
221 159 145
221 159 145
221 159 145
222 160 145
222 160 145
222 160 145
222 160 145
222 160 144
222 160 144
222 160 144
222 160 144
222 160 144
222 160 144
222 160 144
222 160 144
222 161 144
222 161 144
222 161 144
222 161 143
222 161 143
223 161 143
223 161 143
223 161 143
223 161 143
223 161 143
223 161 143
223 162 143
223 162 143
223 162 143
223 162 142
223 162 142
223 162 142
223 162 142
223 162 142
223 162 142
224 162 142
224 163 142
224 163 142
224 163 142
224 163 141
224 163 141
224 163 141
224 163 141
224 163 141
224 163 141
224 163 141
224 164 141
224 164 141
224 164 141
224 164 140
225 164 140
225 164 140
225 164 140
225 164 140
225 164 140
225 164 140
225 165 140
225 165 140
225 165 140
225 165 139
225 165 139
225 165 139
225 165 139
225 165 139
226 165 139
226 165 139
226 166 139
226 166 139
226 166 138
226 166 138
226 166 138
226 166 138
226 166 138
226 166 138
226 166 138
226 167 138
226 167 138
226 167 137
227 167 137
227 167 137
227 167 137
227 167 137
227 167 137
227 167 137
227 167 137
227 168 137
227 168 137
227 168 136
227 168 136
227 168 136
227 168 136
227 168 136
228 168 136
228 168 136
228 169 136
228 169 136
228 169 135
228 169 135
228 169 135
228 169 135
228 169 135
228 169 135
228 169 135
228 169 135
228 170 135
228 170 135
229 170 134
229 170 134
229 170 134
229 170 134
229 170 134
229 170 134
229 170 134
229 170 134
229 171 134
229 171 133
229 171 133
229 171 133
229 171 133
229 171 133
229 171 133
230 171 133
230 171 133
230 171 133
230 171 133
230 172 133
230 172 132
230 172 132
230 172 132
230 172 132
230 172 132
230 172 132
230 172 132
230 172 132
230 172 132
230 172 132
230 172 132
230 173 132
231 173 131
231 173 131
231 173 131
231 173 131
231 173 131
231 173 131
231 173 131
231 173 131
231 173 131
231 173 131
231 173 131
231 173 131
231 173 131
231 174 131
231 174 130
231 174 130
231 174 130
231 174 130
231 174 130
231 174 130
231 174 130
231 174 130
232 174 130
232 174 130
232 174 130
232 174 130
232 174 130
232 174 130
232 174 130
232 174 130
232 174 130
232 174 130
232 174 130
232 174 130
232 174 130
232 175 130
232 175 129
232 175 129
232 175 129
232 175 129
232 175 129
232 175 129
232 175 129
232 175 129
232 175 129
232 175 129
232 175 129
232 175 129
232 175 129
232 175 129
232 175 129
232 175 129
232 175 129
232 175 129
232 175 129
232 175 129
232 175 129
232 175 129
232 175 129
232 175 129
232 175 129
232 175 129
232 175 129
232 175 129
232 175 129
232 175 129
232 175 130
232 175 130
232 174 130
232 174 130
232 174 130
232 174 130
232 174 130
232 174 130
232 174 130
232 174 130
232 174 130
232 174 130
232 174 130
232 174 130
231 174 130
231 174 130
231 174 130
231 174 130
231 174 130
231 174 130
231 174 130
231 174 130
231 174 131
231 173 131
231 173 131
231 173 131
231 173 131
231 173 131
231 173 131
231 173 131
231 173 131
231 173 131
231 173 131
231 173 131
231 173 131
231 173 131
230 173 132
230 172 132
230 172 132
230 172 132
230 172 132
230 172 132
230 172 132
230 172 132
230 172 132
230 172 132
230 172 132
230 172 132
230 172 133
230 171 133
230 171 133
230 171 133
230 171 133
229 171 133
229 171 133
229 171 133
229 171 133
229 171 133
229 171 134
229 171 134
229 170 134
229 170 134
229 170 134
229 170 134
229 170 134
229 170 134
229 170 134
229 170 134
228 170 134
228 170 135
228 169 135
228 169 135
228 169 135
228 169 135
228 169 135
228 169 135
228 169 135
228 169 135
228 169 136
228 169 136
228 168 136
228 168 136
227 168 136
227 168 136
227 168 136
227 168 136
227 168 136
227 168 137
227 168 137
227 167 137
227 167 137
227 167 137
227 167 137
227 167 137
227 167 137
227 167 137
226 167 137
226 167 138
226 167 138
226 166 138
226 166 138
226 166 138
226 166 138
226 166 138
226 166 138
226 166 138
226 166 139
226 166 139
226 165 139
226 165 139
225 165 139
225 165 139
225 165 139
225 165 139
225 165 139
225 165 140
225 165 140
225 165 140
225 164 140
225 164 140
225 164 140
225 164 140
225 164 140
225 164 140
224 164 140
224 164 141
224 164 141
224 164 141
224 163 141
224 163 141
224 163 141
224 163 141
224 163 141
224 163 141
224 163 141
224 163 142
224 163 142
224 163 142
224 162 142
223 162 142
223 162 142
223 162 142
223 162 142
223 162 142
223 162 142
223 162 143
223 162 143
223 162 143
223 161 143
223 161 143
223 161 143
223 161 143
223 161 143
223 161 143
222 161 143
222 161 143
222 161 144
222 161 144
222 161 144
222 160 144
222 160 144
222 160 144
222 160 144
222 160 144
222 160 144
222 160 144
222 160 144
222 160 145
222 160 145
222 160 145
222 160 145
221 159 145
221 159 145
221 159 145
221 159 145
221 159 145
221 159 145
221 159 145
221 159 146
221 159 146
221 159 146
221 159 146
221 159 146
221 158 146
221 158 146
221 158 146
221 158 146
221 158 146
221 158 146
221 158 146
221 159 146
221 159 146
221 159 146
221 159 146
221 159 145
221 159 145
221 159 145
221 159 145
221 159 145
221 159 145
221 159 145
221 159 145
222 160 145
222 160 145
222 160 145
222 160 145
222 160 144
222 160 144
222 160 144
222 160 144
222 160 144
222 160 144
222 160 144
222 161 144
222 161 144
222 161 144
222 161 144
222 161 143
223 161 143
223 161 143
223 161 143
223 161 143
223 161 143
223 161 143
223 162 143
223 162 143
223 162 143
223 162 142
223 162 142
223 162 142
223 162 142
223 162 142
223 162 142
224 162 142
224 163 142
224 163 142
224 163 142
224 163 141
224 163 141
224 163 141
224 163 141
224 163 141
224 163 141
224 163 141
224 164 141
224 164 141
224 164 141
224 164 140
225 164 140
225 164 140
225 164 140
225 164 140
225 164 140
225 164 140
225 165 140
225 165 140
225 165 140
225 165 139
225 165 139
225 165 139
225 165 139
225 165 139
226 165 139
226 165 139
226 166 139
226 166 139
226 166 138
226 166 138
226 166 138
226 166 138
226 166 138
226 166 138
226 166 138
226 167 138
226 167 138
226 167 137
227 167 137
227 167 137
227 167 137
227 167 137
227 167 137
227 167 137
227 167 137
227 168 137
227 168 137
227 168 136
227 168 136
227 168 136
227 168 136
227 168 136
228 168 136
228 168 136
228 169 136
228 169 136
228 169 135
228 169 135
228 169 135
228 169 135
228 169 135
228 169 135
228 169 135
228 169 135
228 170 135
228 170 135
229 170 134
229 170 134
229 170 134
229 170 134
229 170 134
229 170 134
229 170 134
229 170 134
229 171 134
229 171 134
229 171 133
229 171 133
229 171 133
229 171 133
229 171 133
230 171 133
230 171 133
230 171 133
230 171 133
230 172 133
230 172 133
230 172 132
230 172 132
230 172 132
230 172 132
230 172 132
230 172 132
230 172 132
230 172 132
230 172 132
230 172 132
230 173 132
230 173 132
231 173 131
231 173 131
231 173 131
231 173 131
231 173 131
231 173 131
231 173 131
231 173 131
231 173 131
231 173 131
231 173 131
231 173 131
231 173 131
231 174 131
231 174 131
231 174 130
231 174 130
231 174 130
231 174 130
231 174 130
231 174 130
231 174 130
231 174 130
231 174 130
232 174 130
232 174 130
232 174 130
232 174 130
232 174 130
232 174 130
232 174 130
232 174 130
232 174 130
232 174 130
232 174 130
232 174 130
232 174 130
232 174 130
232 174 130
232 174 130
232 174 130
232 174 130
232 175 130
232 175 130
232 175 130
232 175 130
232 175 130
232 175 130
232 175 130
232 175 130
232 175 130
232 175 130
232 175 130
232 175 130
232 175 130
232 174 130
232 174 130
232 174 130
232 174 130
232 174 130
232 174 130
232 174 130
232 174 130
232 174 130
232 174 130
232 174 130
232 174 130
232 174 130
232 174 130
232 174 130
232 174 130
231 174 130
231 174 130
231 174 130
231 174 130
231 174 130
231 174 130
231 174 130
231 174 130
231 174 130
231 174 130
231 174 131
231 174 131
231 173 131
231 173 131
231 173 131
231 173 131
231 173 131
231 173 131
231 173 131
231 173 131
231 173 131
231 173 131
231 173 131
231 173 131
231 173 131
230 173 132
230 172 132
230 172 132
230 172 132
230 172 132
230 172 132
230 172 132
230 172 132
230 172 132
230 172 132
230 172 132
230 172 132
230 172 132
230 172 133
230 171 133
230 171 133
230 171 133
230 171 133
229 171 133
229 171 133
229 171 133
229 171 133
229 171 133
229 171 134
229 171 134
229 170 134
229 170 134
229 170 134
229 170 134
229 170 134
229 170 134
229 170 134
229 170 134
228 170 135
228 170 135
228 169 135
228 169 135
228 169 135
228 169 135
228 169 135
228 169 135
228 169 135
228 169 135
228 169 136
228 169 136
228 168 136
228 168 136
227 168 136
227 168 136
227 168 136
227 168 136
227 168 136
227 168 137
227 168 137
227 167 137
227 167 137
227 167 137
227 167 137
227 167 137
227 167 137
227 167 137
226 167 137
226 167 138
226 166 138
226 166 138
226 166 138
226 166 138
226 166 138
226 166 138
226 166 138
226 166 138
226 166 139
226 166 139
226 165 139
226 165 139
225 165 139
225 165 139
225 165 139
225 165 139
225 165 139
225 165 140
225 165 140
225 165 140
225 164 140
225 164 140
225 164 140
225 164 140
225 164 140
225 164 140
224 164 140
224 164 141
224 164 141
224 164 141
224 163 141
224 163 141
224 163 141
224 163 141
224 163 141
224 163 141
224 163 141
224 163 142
224 163 142
224 163 142
224 162 142
223 162 142
223 162 142
223 162 142
223 162 142
223 162 142
223 162 142
223 162 143
223 162 143
223 162 143
223 161 143
223 161 143
223 161 143
223 161 143
223 161 143
223 161 143
222 161 143
222 161 144
222 161 144
222 161 144
222 161 144
222 160 144
222 160 144
222 160 144
222 160 144
222 160 144
222 160 144
222 160 144
222 160 145
222 160 145
222 160 145
222 160 145
221 159 145
221 159 145
221 159 145
221 159 145
221 159 145
221 159 145
221 159 145
221 159 145
221 159 146
221 159 146
221 159 146
221 159 146
221 158 146
221 158 146
221 158 146
221 158 146
221 158 146
220 158 146
220 158 146
221 158 146
221 158 146
221 158 146
221 158 146
221 158 146
221 159 146
221 159 146
221 159 146
221 159 146
221 159 146
221 159 145
221 159 145
221 159 145
221 159 145
221 159 145
221 159 145
221 159 145
222 160 145
222 160 145
222 160 145
222 160 145
222 160 144
222 160 144
222 160 144
222 160 144
222 160 144
222 160 144
222 160 144
222 161 144
222 161 144
222 161 144
222 161 144
222 161 143
223 161 143
223 161 143
223 161 143
223 161 143
223 161 143
223 161 143
223 162 143
223 162 143
223 162 143
223 162 142
223 162 142
223 162 142
223 162 142
223 162 142
223 162 142
223 162 142
224 162 142
224 163 142
224 163 142
224 163 142
224 163 141
224 163 141
224 163 141
224 163 141
224 163 141
224 163 141
224 164 141
224 164 141
224 164 141
224 164 140
225 164 140
225 164 140
225 164 140
225 164 140
225 164 140
225 164 140
225 164 140
225 165 140
225 165 140
225 165 139
225 165 139
225 165 139
225 165 139
225 165 139
226 165 139
226 165 139
226 166 139
226 166 139
226 166 138
226 166 138
226 166 138
226 166 138
226 166 138
226 166 138
226 166 138
226 166 138
226 167 138
226 167 138
227 167 137
227 167 137
227 167 137
227 167 137
227 167 137
227 167 137
227 167 137
227 168 137
227 168 137
227 168 136
227 168 136
227 168 136
227 168 136
227 168 136
228 168 136
228 168 136
228 168 136
228 169 136
228 169 135
228 169 135
228 169 135
228 169 135
228 169 135
228 169 135
228 169 135
228 169 135
228 169 135
228 170 135
229 170 134
229 170 134
229 170 134
229 170 134
229 170 134
229 170 134
229 170 134
229 170 134
229 170 134
229 171 134
229 171 133
229 171 133
229 171 133
229 171 133
229 171 133
229 171 133
230 171 133
230 171 133
230 171 133
230 171 133
230 172 133
230 172 132
230 172 132
230 172 132
230 172 132
230 172 132
230 172 132
230 172 132
230 172 132
230 172 132
230 172 132
230 172 132
230 173 132
230 173 132
231 173 131
231 173 131
231 173 131
231 173 131
231 173 131
231 173 131
231 173 131
231 173 131
231 173 131
231 173 131
231 173 131
231 173 131
231 173 131
231 173 131
231 174 131
231 174 131
231 174 130
231 174 130
231 174 130
231 174 130
231 174 130
231 174 130
231 174 130
231 174 130
231 174 130
231 174 130
231 174 130
231 174 130
232 174 130
232 174 130
232 174 130
232 174 130
232 174 130
232 174 130
232 174 130
232 174 130
232 174 130
232 174 130
232 174 130
232 174 130
232 174 130
232 174 130
232 174 130
232 174 130
232 174 130
232 174 130
232 174 130
232 174 130
232 174 130
232 174 130
232 174 130
232 174 130
232 174 130
232 174 130
232 174 130
232 174 130
232 174 130
232 174 130
232 174 130
232 174 130
232 174 130
232 174 130
231 174 130
231 174 130
231 174 130
231 174 130
231 174 130
231 174 130
231 174 130
231 174 130
231 174 130
231 174 130
231 174 130
231 174 130
231 174 131
231 174 131
231 173 131
231 173 131
231 173 131
231 173 131
231 173 131
231 173 131
231 173 131
231 173 131
231 173 131
231 173 131
231 173 131
231 173 131
231 173 131
231 173 131
230 173 132
230 172 132
230 172 132
230 172 132
230 172 132
230 172 132
230 172 132
230 172 132
230 172 132
230 172 132
230 172 132
230 172 132
230 172 132
230 172 133
230 171 133
230 171 133
230 171 133
230 171 133
229 171 133
229 171 133
229 171 133
229 171 133
229 171 133
229 171 133
229 171 134
229 170 134
229 170 134
229 170 134
229 170 134
229 170 134
229 170 134
229 170 134
229 170 134
229 170 134
228 170 135
228 169 135
228 169 135
228 169 135
228 169 135
228 169 135
228 169 135
228 169 135
228 169 135
228 169 135
228 169 136
228 168 136
228 168 136
228 168 136
227 168 136
227 168 136
227 168 136
227 168 136
227 168 136
227 168 137
227 168 137
227 167 137
227 167 137
227 167 137
227 167 137
227 167 137
227 167 137
227 167 137
226 167 138
226 167 138
226 166 138
226 166 138
226 166 138
226 166 138
226 166 138
226 166 138
226 166 138
226 166 138
226 166 139
226 166 139
226 165 139
226 165 139
225 165 139
225 165 139
225 165 139
225 165 139
225 165 139
225 165 140
225 165 140
225 165 140
225 164 140
225 164 140
225 164 140
225 164 140
225 164 140
225 164 140
224 164 140
224 164 141
224 164 141
224 163 141
224 163 141
224 163 141
224 163 141
224 163 141
224 163 141
224 163 141
224 163 141
224 163 142
224 163 142
224 162 142
223 162 142
223 162 142
223 162 142
223 162 142
223 162 142
223 162 142
223 162 142
223 162 143
223 162 143
223 162 143
223 161 143
223 161 143
223 161 143
223 161 143
223 161 143
223 161 143
222 161 143
222 161 144
222 161 144
222 161 144
222 161 144
222 160 144
222 160 144
222 160 144
222 160 144
222 160 144
222 160 144
222 160 144
222 160 145
222 160 145
222 160 145
222 160 145
221 159 145
221 159 145
221 159 145
221 159 145
221 159 145
221 159 145
221 159 145
221 159 146
221 159 146
221 159 146
221 159 146
221 159 146
221 158 146
221 158 146
221 158 146
221 158 146
221 158 146
220 158 146
220 158 146
220 158 147
220 158 147
220 158 146
220 158 146
221 158 146
221 158 146
221 158 146
221 158 146
221 158 146
221 158 146
221 159 146
221 159 146
221 159 146
221 159 146
221 159 145
221 159 145
221 159 145
221 159 145
221 159 145
221 159 145
221 159 145
221 159 145
222 160 145
222 160 145
222 160 145
222 160 145
222 160 144
222 160 144
222 160 144
222 160 144
222 160 144
222 160 144
222 160 144
222 161 144
222 161 144
222 161 144
222 161 143
222 161 143
223 161 143
223 161 143
223 161 143
223 161 143
223 161 143
223 161 143
223 162 143
223 162 143
223 162 143
223 162 142
223 162 142
223 162 142
223 162 142
223 162 142
223 162 142
224 162 142
224 163 142
224 163 142
224 163 142
224 163 141
224 163 141
224 163 141
224 163 141
224 163 141
224 163 141
224 163 141
224 164 141
224 164 141
224 164 141
225 164 140
225 164 140
225 164 140
225 164 140
225 164 140
225 164 140
225 164 140
225 165 140
225 165 140
225 165 139
225 165 139
225 165 139
225 165 139
225 165 139
225 165 139
226 165 139
226 166 139
226 166 139
226 166 138
226 166 138
226 166 138
226 166 138
226 166 138
226 166 138
226 166 138
226 166 138
226 167 138
226 167 138
227 167 137
227 167 137
227 167 137
227 167 137
227 167 137
227 167 137
227 167 137
227 168 137
227 168 137
227 168 136
227 168 136
227 168 136
227 168 136
227 168 136
228 168 136
228 168 136
228 168 136
228 169 136
228 169 136
228 169 135
228 169 135
228 169 135
228 169 135
228 169 135
228 169 135
228 169 135
228 169 135
228 170 135
228 170 134
229 170 134
229 170 134
229 170 134
229 170 134
229 170 134
229 170 134
229 170 134
229 170 134
229 171 134
229 171 134
229 171 133
229 171 133
229 171 133
229 171 133
229 171 133
230 171 133
230 171 133
230 171 133
230 171 133
230 171 133
230 172 133
230 172 132
230 172 132
230 172 132
230 172 132
230 172 132
230 172 132
230 172 132
230 172 132
230 172 132
230 172 132
230 172 132
230 172 132
230 173 132
231 173 131
231 173 131
231 173 131
231 173 131
231 173 131
231 173 131
231 173 131
231 173 131
231 173 131
231 173 131
231 173 131
231 173 131
231 173 131
231 173 131
231 173 131
231 173 131
231 174 131
231 174 131
231 174 130
231 174 130
231 174 130
231 174 130
231 174 130
231 174 130
231 174 130
231 174 130
231 174 130
231 174 130
231 174 130
231 174 130
231 174 130
231 174 130
231 174 130
231 174 130
232 174 130
232 174 130
232 174 130
232 174 130
232 174 130
232 174 130
232 174 130
232 174 130
232 174 130
232 174 130
232 174 130
232 174 130
232 174 130
232 174 130
232 174 130
232 174 130
231 174 130
231 174 130
231 174 130
231 174 130
231 174 130
231 174 130
231 174 130
231 174 130
231 174 130
231 174 130
231 174 130
231 174 130
231 174 130
231 174 130
231 174 130
231 174 130
231 174 131
231 174 131
231 173 131
231 173 131
231 173 131
231 173 131
231 173 131
231 173 131
231 173 131
231 173 131
231 173 131
231 173 131
231 173 131
231 173 131
231 173 131
231 173 131
231 173 131
231 173 131
230 173 132
230 173 132
230 172 132
230 172 132
230 172 132
230 172 132
230 172 132
230 172 132
230 172 132
230 172 132
230 172 132
230 172 132
230 172 132
230 172 133
230 172 133
230 171 133
230 171 133
230 171 133
230 171 133
229 171 133
229 171 133
229 171 133
229 171 133
229 171 133
229 171 134
229 171 134
229 170 134
229 170 134
229 170 134
229 170 134
229 170 134
229 170 134
229 170 134
229 170 134
228 170 134
228 170 135
228 169 135
228 169 135
228 169 135
228 169 135
228 169 135
228 169 135
228 169 135
228 169 135
228 169 136
228 169 136
228 168 136
228 168 136
228 168 136
227 168 136
227 168 136
227 168 136
227 168 136
227 168 136
227 168 137
227 168 137
227 167 137
227 167 137
227 167 137
227 167 137
227 167 137
227 167 137
227 167 137
226 167 138
226 167 138
226 166 138
226 166 138
226 166 138
226 166 138
226 166 138
226 166 138
226 166 138
226 166 138
226 166 139
226 166 139
226 165 139
226 165 139
225 165 139
225 165 139
225 165 139
225 165 139
225 165 139
225 165 140
225 165 140
225 164 140
225 164 140
225 164 140
225 164 140
225 164 140
225 164 140
225 164 140
224 164 141
224 164 141
224 164 141
224 163 141
224 163 141
224 163 141
224 163 141
224 163 141
224 163 141
224 163 141
224 163 142
224 163 142
224 163 142
224 162 142
223 162 142
223 162 142
223 162 142
223 162 142
223 162 142
223 162 142
223 162 143
223 162 143
223 162 143
223 162 143
223 161 143
223 161 143
223 161 143
223 161 143
223 161 143
222 161 143
222 161 143
222 161 144
222 161 144
222 161 144
222 160 144
222 160 144
222 160 144
222 160 144
222 160 144
222 160 144
222 160 144
222 160 144
222 160 145
222 160 145
222 160 145
221 159 145
221 159 145
221 159 145
221 159 145
221 159 145
221 159 145
221 159 145
221 159 145
221 159 146
221 159 146
221 159 146
221 159 146
221 158 146
221 158 146
221 158 146
221 158 146
221 158 146
221 158 146
220 158 146
220 158 146
220 158 147
220 158 147
220 158 147
220 158 147
220 158 147
220 158 147
220 158 147
220 158 146
220 158 146
221 158 146
221 158 146
221 158 146
221 158 146
221 158 146
221 159 146
221 159 146
221 159 146
221 159 146
221 159 146
221 159 145
221 159 145
221 159 145
221 159 145
221 159 145
221 159 145
221 159 145
222 160 145
222 160 145
222 160 145
222 160 145
222 160 144
222 160 144
222 160 144
222 160 144
222 160 144
222 160 144
222 160 144
222 161 144
222 161 144
222 161 144
222 161 144
222 161 143
223 161 143
223 161 143
223 161 143
223 161 143
223 161 143
223 161 143
223 162 143
223 162 143
223 162 143
223 162 142
223 162 142
223 162 142
223 162 142
223 162 142
223 162 142
224 162 142
224 163 142
224 163 142
224 163 142
224 163 141
224 163 141
224 163 141
224 163 141
224 163 141
224 163 141
224 163 141
224 164 141
224 164 141
224 164 141
224 164 140
225 164 140
225 164 140
225 164 140
225 164 140
225 164 140
225 164 140
225 165 140
225 165 140
225 165 139
225 165 139
225 165 139
225 165 139
225 165 139
225 165 139
226 165 139
226 166 139
226 166 139
226 166 139
226 166 138
226 166 138
226 166 138
226 166 138
226 166 138
226 166 138
226 166 138
226 167 138
226 167 138
227 167 137
227 167 137
227 167 137
227 167 137
227 167 137
227 167 137
227 167 137
227 168 137
227 168 137
227 168 136
227 168 136
227 168 136
227 168 136
227 168 136
228 168 136
228 168 136
228 168 136
228 169 136
228 169 136
228 169 135
228 169 135
228 169 135
228 169 135
228 169 135
228 169 135
228 169 135
228 169 135
228 170 135
228 170 135
229 170 134
229 170 134
229 170 134
229 170 134
229 170 134
229 170 134
229 170 134
229 170 134
229 170 134
229 171 134
229 171 133
229 171 133
229 171 133
229 171 133
229 171 133
229 171 133
230 171 133
230 171 133
230 171 133
230 171 133
230 172 133
230 172 133
230 172 132
230 172 132
230 172 132
230 172 132
230 172 132
230 172 132
230 172 132
230 172 132
230 172 132
230 172 132
230 172 132
230 172 132
230 173 132
231 173 131
231 173 131
231 173 131
231 173 131
231 173 131
231 173 131
231 173 131
231 173 131
231 173 131
231 173 131
231 173 131
231 173 131
231 173 131
231 173 131
231 173 131
231 173 131
231 173 131
231 173 131
231 174 131
231 174 131
231 174 130
231 174 130
231 174 130
231 174 130
231 174 130
231 174 130
231 174 130
231 174 130
231 174 130
231 174 130
231 174 130
231 174 130
231 174 130
231 174 130
231 174 130
231 174 130
231 174 130
231 174 130
231 174 130
231 174 130
231 174 130
231 174 130
231 174 130
231 174 130
231 174 130
231 174 130
231 174 130
231 174 130
231 174 130
231 174 130
231 174 130
231 174 130
231 174 130
231 174 130
231 174 130
231 174 130
231 174 130
231 174 130
231 174 131
231 174 131
231 173 131
231 173 131
231 173 131
231 173 131
231 173 131
231 173 131
231 173 131
231 173 131
231 173 131
231 173 131
231 173 131
231 173 131
231 173 131
231 173 131
231 173 131
231 173 131
231 173 131
231 173 131
230 173 132
230 172 132
230 172 132
230 172 132
230 172 132
230 172 132
230 172 132
230 172 132
230 172 132
230 172 132
230 172 132
230 172 132
230 172 132
230 172 133
230 172 133
230 171 133
230 171 133
230 171 133
230 171 133
229 171 133
229 171 133
229 171 133
229 171 133
229 171 133
229 171 133
229 171 134
229 170 134
229 170 134
229 170 134
229 170 134
229 170 134
229 170 134
229 170 134
229 170 134
229 170 134
228 170 135
228 170 135
228 169 135
228 169 135
228 169 135
228 169 135
228 169 135
228 169 135
228 169 135
228 169 135
228 169 136
228 169 136
228 168 136
228 168 136
228 168 136
227 168 136
227 168 136
227 168 136
227 168 136
227 168 136
227 168 137
227 168 137
227 167 137
227 167 137
227 167 137
227 167 137
227 167 137
227 167 137
226 167 137
226 167 138
226 167 138
226 166 138
226 166 138
226 166 138
226 166 138
226 166 138
226 166 138
226 166 138
226 166 139
226 166 139
226 166 139
226 165 139
225 165 139
225 165 139
225 165 139
225 165 139
225 165 139
225 165 139
225 165 140
225 165 140
225 164 140
225 164 140
225 164 140
225 164 140
225 164 140
225 164 140
224 164 140
224 164 141
224 164 141
224 164 141
224 163 141
224 163 141
224 163 141
224 163 141
224 163 141
224 163 141
224 163 141
224 163 142
224 163 142
224 163 142
224 162 142
223 162 142
223 162 142
223 162 142
223 162 142
223 162 142
223 162 142
223 162 143
223 162 143
223 162 143
223 161 143
223 161 143
223 161 143
223 161 143
223 161 143
223 161 143
222 161 143
222 161 144
222 161 144
222 161 144
222 161 144
222 160 144
222 160 144
222 160 144
222 160 144
222 160 144
222 160 144
222 160 144
222 160 145
222 160 145
222 160 145
222 160 145
221 159 145
221 159 145
221 159 145
221 159 145
221 159 145
221 159 145
221 159 145
221 159 146
221 159 146
221 159 146
221 159 146
221 159 146
221 158 146
221 158 146
221 158 146
221 158 146
221 158 146
220 158 146
220 158 146
220 158 147
220 158 147
220 158 147
220 158 147
220 158 147
220 157 147
220 157 147
220 157 147
220 158 147
220 158 147
220 158 147
220 158 147
220 158 147
220 158 146
221 158 146
221 158 146
221 158 146
221 158 146
221 158 146
221 158 146
221 159 146
221 159 146
221 159 146
221 159 146
221 159 145
221 159 145
221 159 145
221 159 145
221 159 145
221 159 145
221 159 145
222 160 145
222 160 145
222 160 145
222 160 145
222 160 144
222 160 144
222 160 144
222 160 144
222 160 144
222 160 144
222 160 144
222 161 144
222 161 144
222 161 144
222 161 144
222 161 143
223 161 143
223 161 143
223 161 143
223 161 143
223 161 143
223 161 143
223 162 143
223 162 143
223 162 143
223 162 142
223 162 142
223 162 142
223 162 142
223 162 142
223 162 142
224 162 142
224 163 142
224 163 142
224 163 142
224 163 141
224 163 141
224 163 141
224 163 141
224 163 141
224 163 141
224 163 141
224 164 141
224 164 141
224 164 141
224 164 140
225 164 140
225 164 140
225 164 140
225 164 140
225 164 140
225 164 140
225 165 140
225 165 140
225 165 139
225 165 139
225 165 139
225 165 139
225 165 139
225 165 139
226 165 139
226 165 139
226 166 139
226 166 139
226 166 138
226 166 138
226 166 138
226 166 138
226 166 138
226 166 138
226 166 138
226 167 138
226 167 138
226 167 137
227 167 137
227 167 137
227 167 137
227 167 137
227 167 137
227 167 137
227 167 137
227 168 137
227 168 137
227 168 136
227 168 136
227 168 136
227 168 136
227 168 136
228 168 136
228 168 136
228 169 136
228 169 136
228 169 135
228 169 135
228 169 135
228 169 135
228 169 135
228 169 135
228 169 135
228 169 135
228 170 135
228 170 135
229 170 134
229 170 134
229 170 134
229 170 134
229 170 134
229 170 134
229 170 134
229 170 134
229 170 134
229 171 134
229 171 134
229 171 133
229 171 133
229 171 133
229 171 133
229 171 133
229 171 133
230 171 133
230 171 133
230 171 133
230 171 133
230 172 133
230 172 133
230 172 132
230 172 132
230 172 132
230 172 132
230 172 132
230 172 132
230 172 132
230 172 132
230 172 132
230 172 132
230 172 132
230 172 132
230 173 132
230 173 132
231 173 131
231 173 131
231 173 131
231 173 131
231 173 131
231 173 131
231 173 131
231 173 131
231 173 131
231 173 131
231 173 131
231 173 131
231 173 131
231 173 131
231 173 131
231 173 131
231 173 131
231 173 131
231 173 131
231 173 131
231 173 131
231 173 131
231 174 131
231 174 131
231 174 131
231 174 131
231 174 130
231 174 130
231 174 130
231 174 130
231 174 130
231 174 130
231 174 130
231 174 130
231 174 130
231 174 130
231 174 130
231 174 130
231 174 130
231 174 130
231 174 130
231 174 130
231 174 130
231 174 130
231 174 131
231 174 131
231 174 131
231 174 131
231 173 131
231 173 131
231 173 131
231 173 131
231 173 131
231 173 131
231 173 131
231 173 131
231 173 131
231 173 131
231 173 131
231 173 131
231 173 131
231 173 131
231 173 131
231 173 131
231 173 131
231 173 131
231 173 131
231 173 131
231 173 131
231 173 131
230 173 132
230 172 132
230 172 132
230 172 132
230 172 132
230 172 132
230 172 132
230 172 132
230 172 132
230 172 132
230 172 132
230 172 132
230 172 132
230 172 132
230 172 133
230 172 133
230 171 133
230 171 133
230 171 133
230 171 133
229 171 133
229 171 133
229 171 133
229 171 133
229 171 133
229 171 133
229 171 134
229 171 134
229 170 134
229 170 134
229 170 134
229 170 134
229 170 134
229 170 134
229 170 134
229 170 134
228 170 134
228 170 135
228 170 135
228 169 135
228 169 135
228 169 135
228 169 135
228 169 135
228 169 135
228 169 135
228 169 135
228 169 136
228 169 136
228 168 136
228 168 136
227 168 136
227 168 136
227 168 136
227 168 136
227 168 136
227 168 137
227 168 137
227 167 137
227 167 137
227 167 137
227 167 137
227 167 137
227 167 137
227 167 137
226 167 137
226 167 138
226 167 138
226 166 138
226 166 138
226 166 138
226 166 138
226 166 138
226 166 138
226 166 138
226 166 139
226 166 139
226 165 139
226 165 139
225 165 139
225 165 139
225 165 139
225 165 139
225 165 139
225 165 139
225 165 140
225 165 140
225 164 140
225 164 140
225 164 140
225 164 140
225 164 140
225 164 140
224 164 140
224 164 141
224 164 141
224 164 141
224 163 141
224 163 141
224 163 141
224 163 141
224 163 141
224 163 141
224 163 141
224 163 142
224 163 142
224 163 142
224 162 142
223 162 142
223 162 142
223 162 142
223 162 142
223 162 142
223 162 142
223 162 143
223 162 143
223 162 143
223 161 143
223 161 143
223 161 143
223 161 143
223 161 143
223 161 143
222 161 143
222 161 144
222 161 144
222 161 144
222 160 144
222 160 144
222 160 144
222 160 144
222 160 144
222 160 144
222 160 144
222 160 144
222 160 145
222 160 145
222 160 145
221 159 145
221 159 145
221 159 145
221 159 145
221 159 145
221 159 145
221 159 145
221 159 145
221 159 146
221 159 146
221 159 146
221 159 146
221 158 146
221 158 146
221 158 146
221 158 146
221 158 146
221 158 146
220 158 146
220 158 146
220 158 147
220 158 147
220 158 147
220 158 147
220 157 147
220 157 147
220 157 147
220 157 147
220 157 147
220 157 147
220 157 147
220 157 147
220 158 147
220 158 147
220 158 147
220 158 147
220 158 147
220 158 146
220 158 146
221 158 146
221 158 146
221 158 146
221 158 146
221 158 146
221 159 146
221 159 146
221 159 146
221 159 146
221 159 146
221 159 145
221 159 145
221 159 145
221 159 145
221 159 145
221 159 145
221 159 145
222 160 145
222 160 145
222 160 145
222 160 145
222 160 144
222 160 144
222 160 144
222 160 144
222 160 144
222 160 144
222 160 144
222 161 144
222 161 144
222 161 144
222 161 143
222 161 143
223 161 143
223 161 143
223 161 143
223 161 143
223 161 143
223 161 143
223 162 143
223 162 143
223 162 143
223 162 142
223 162 142
223 162 142
223 162 142
223 162 142
223 162 142
224 162 142
224 163 142
224 163 142
224 163 142
224 163 141
224 163 141
224 163 141
224 163 141
224 163 141
224 163 141
224 163 141
224 164 141
224 164 141
224 164 140
225 164 140
225 164 140
225 164 140
225 164 140
225 164 140
225 164 140
225 165 140
225 165 140
225 165 140
225 165 139
225 165 139
225 165 139
225 165 139
225 165 139
226 165 139
226 165 139
226 166 139
226 166 139
226 166 138
226 166 138
226 166 138
226 166 138
226 166 138
226 166 138
226 166 138
226 166 138
226 167 138
226 167 137
227 167 137
227 167 137
227 167 137
227 167 137
227 167 137
227 167 137
227 167 137
227 168 137
227 168 137
227 168 136
227 168 136
227 168 136
227 168 136
227 168 136
228 168 136
228 168 136
228 168 136
228 169 136
228 169 135
228 169 135
228 169 135
228 169 135
228 169 135
228 169 135
228 169 135
228 169 135
228 169 135
228 170 135
228 170 135
229 170 134
229 170 134
229 170 134
229 170 134
229 170 134
229 170 134
229 170 134
229 170 134
229 170 134
229 171 134
229 171 133
229 171 133
229 171 133
229 171 133
229 171 133
229 171 133
229 171 133
230 171 133
230 171 133
230 171 133
230 171 133
230 171 133
230 172 133
230 172 132
230 172 132
230 172 132
230 172 132
230 172 132
230 172 132
230 172 132
230 172 132
230 172 132
230 172 132
230 172 132
230 172 132
230 172 132
230 172 132
230 173 132
231 173 131
231 173 131
231 173 131
231 173 131
231 173 131
231 173 131
231 173 131
231 173 131
231 173 131
231 173 131
231 173 131
231 173 131
231 173 131
231 173 131
231 173 131
231 173 131
231 173 131
231 173 131
231 173 131
231 173 131
231 173 131
231 173 131
231 173 131
231 173 131
231 173 131
231 173 131
231 173 131
231 173 131
231 173 131
231 173 131
231 173 131
231 173 131
231 173 131
231 173 131
231 173 131
231 173 131
231 173 131
231 173 131
231 173 131
231 173 131
231 173 131
231 173 131
231 173 131
231 173 131
231 173 131
231 173 131
231 173 131
231 173 131
231 173 131
231 173 131
231 173 131
231 173 131
231 173 131
231 173 131
231 173 131
231 173 131
231 173 131
231 173 131
231 173 131
231 173 131
231 173 131
231 173 131
230 173 132
230 173 132
230 172 132
230 172 132
230 172 132
230 172 132
230 172 132
230 172 132
230 172 132
230 172 132
230 172 132
230 172 132
230 172 132
230 172 132
230 172 132
230 172 133
230 172 133
230 171 133
230 171 133
230 171 133
230 171 133
229 171 133
229 171 133
229 171 133
229 171 133
229 171 133
229 171 133
229 171 133
229 171 134
229 170 134
229 170 134
229 170 134
229 170 134
229 170 134
229 170 134
229 170 134
229 170 134
229 170 134
228 170 135
228 170 135
228 169 135
228 169 135
228 169 135
228 169 135
228 169 135
228 169 135
228 169 135
228 169 135
228 169 136
228 169 136
228 168 136
228 168 136
228 168 136
227 168 136
227 168 136
227 168 136
227 168 136
227 168 136
227 168 137
227 168 137
227 167 137
227 167 137
227 167 137
227 167 137
227 167 137
227 167 137
227 167 137
226 167 138
226 167 138
226 167 138
226 166 138
226 166 138
226 166 138
226 166 138
226 166 138
226 166 138
226 166 138
226 166 139
226 166 139
226 165 139
226 165 139
225 165 139
225 165 139
225 165 139
225 165 139
225 165 139
225 165 140
225 165 140
225 165 140
225 164 140
225 164 140
225 164 140
225 164 140
225 164 140
225 164 140
224 164 140
224 164 141
224 164 141
224 163 141
224 163 141
224 163 141
224 163 141
224 163 141
224 163 141
224 163 141
224 163 142
224 163 142
224 163 142
224 162 142
223 162 142
223 162 142
223 162 142
223 162 142
223 162 142
223 162 142
223 162 143
223 162 143
223 162 143
223 161 143
223 161 143
223 161 143
223 161 143
223 161 143
223 161 143
222 161 143
222 161 143
222 161 144
222 161 144
222 161 144
222 160 144
222 160 144
222 160 144
222 160 144
222 160 144
222 160 144
222 160 144
222 160 145
222 160 145
222 160 145
222 160 145
221 159 145
221 159 145
221 159 145
221 159 145
221 159 145
221 159 145
221 159 145
221 159 146
221 159 146
221 159 146
221 159 146
221 159 146
221 158 146
221 158 146
221 158 146
221 158 146
221 158 146
220 158 146
220 158 146
220 158 147
220 158 147
220 158 147
220 158 147
220 158 147
220 157 147
220 157 147
220 157 147
220 157 147
220 157 147
220 157 147
220 157 147
220 157 147
220 157 147
220 157 147
220 157 147
220 157 147
220 157 147
220 158 147
220 158 147
220 158 147
220 158 147
220 158 147
220 158 146
221 158 146
221 158 146
221 158 146
221 158 146
221 158 146
221 158 146
221 159 146
221 159 146
221 159 146
221 159 146
221 159 145
221 159 145
221 159 145
221 159 145
221 159 145
221 159 145
221 159 145
222 160 145
222 160 145
222 160 145
222 160 145
222 160 144
222 160 144
222 160 144
222 160 144
222 160 144
222 160 144
222 160 144
222 161 144
222 161 144
222 161 144
222 161 144
222 161 143
223 161 143
223 161 143
223 161 143
223 161 143
223 161 143
223 161 143
223 162 143
223 162 143
223 162 143
223 162 142
223 162 142
223 162 142
223 162 142
223 162 142
223 162 142
224 162 142
224 163 142
224 163 142
224 163 142
224 163 141
224 163 141
224 163 141
224 163 141
224 163 141
224 163 141
224 163 141
224 164 141
224 164 141
224 164 140
225 164 140
225 164 140
225 164 140
225 164 140
225 164 140
225 164 140
225 164 140
225 165 140
225 165 140
225 165 139
225 165 139
225 165 139
225 165 139
225 165 139
225 165 139
226 165 139
226 166 139
226 166 139
226 166 138
226 166 138
226 166 138
226 166 138
226 166 138
226 166 138
226 166 138
226 166 138
226 167 138
226 167 138
227 167 137
227 167 137
227 167 137
227 167 137
227 167 137
227 167 137
227 167 137
227 168 137
227 168 137
227 168 136
227 168 136
227 168 136
227 168 136
227 168 136
227 168 136
228 168 136
228 168 136
228 169 136
228 169 136
228 169 135
228 169 135
228 169 135
228 169 135
228 169 135
228 169 135
228 169 135
228 169 135
228 169 135
228 170 135
228 170 134
229 170 134
229 170 134
229 170 134
229 170 134
229 170 134
229 170 134
229 170 134
229 170 134
229 170 134
229 171 134
229 171 133
229 171 133
229 171 133
229 171 133
229 171 133
229 171 133
229 171 133
230 171 133
230 171 133
230 171 133
230 171 133
230 172 133
230 172 133
230 172 132
230 172 132
230 172 132
230 172 132
230 172 132
230 172 132
230 172 132
230 172 132
230 172 132
230 172 132
230 172 132
230 172 132
230 172 132
230 172 132
230 172 132
230 173 132
230 173 132
231 173 131
231 173 131
231 173 131
231 173 131
231 173 131
231 173 131
231 173 131
231 173 131
231 173 131
231 173 131
231 173 131
231 173 131
231 173 131
231 173 131
231 173 131
231 173 131
231 173 131
231 173 131
231 173 131
231 173 131
231 173 131
231 173 131
231 173 131
231 173 131
231 173 131
231 173 131
231 173 131
231 173 131
231 173 131
231 173 131
231 173 131
231 173 131
231 173 131
231 173 131
231 173 131
231 173 131
231 173 131
231 173 131
231 173 131
231 173 131
231 173 131
231 173 131
231 173 131
231 173 131
231 173 131
231 173 131
231 173 131
231 173 131
231 173 131
231 173 131
231 173 131
231 173 131
230 173 132
230 173 132
230 172 132
230 172 132
230 172 132
230 172 132
230 172 132
230 172 132
230 172 132
230 172 132
230 172 132
230 172 132
230 172 132
230 172 132
230 172 132
230 172 132
230 172 132
230 172 133
230 172 133
230 171 133
230 171 133
230 171 133
230 171 133
229 171 133
229 171 133
229 171 133
229 171 133
229 171 133
229 171 133
229 171 133
229 171 134
229 170 134
229 170 134
229 170 134
229 170 134
229 170 134
229 170 134
229 170 134
229 170 134
229 170 134
228 170 134
228 170 135
228 169 135
228 169 135
228 169 135
228 169 135
228 169 135
228 169 135
228 169 135
228 169 135
228 169 135
228 169 136
228 169 136
228 168 136
228 168 136
227 168 136
227 168 136
227 168 136
227 168 136
227 168 136
227 168 136
227 168 137
227 168 137
227 167 137
227 167 137
227 167 137
227 167 137
227 167 137
227 167 137
227 167 137
226 167 138
226 167 138
226 166 138
226 166 138
226 166 138
226 166 138
226 166 138
226 166 138
226 166 138
226 166 138
226 166 139
226 166 139
226 165 139
226 165 139
225 165 139
225 165 139
225 165 139
225 165 139
225 165 139
225 165 140
225 165 140
225 164 140
225 164 140
225 164 140
225 164 140
225 164 140
225 164 140
225 164 140
224 164 141
224 164 141
224 164 141
224 163 141
224 163 141
224 163 141
224 163 141
224 163 141
224 163 141
224 163 141
224 163 142
224 163 142
224 163 142
224 162 142
223 162 142
223 162 142
223 162 142
223 162 142
223 162 142
223 162 142
223 162 143
223 162 143
223 162 143
223 161 143
223 161 143
223 161 143
223 161 143
223 161 143
223 161 143
222 161 143
222 161 144
222 161 144
222 161 144
222 161 144
222 160 144
222 160 144
222 160 144
222 160 144
222 160 144
222 160 144
222 160 144
222 160 145
222 160 145
222 160 145
222 160 145
221 159 145
221 159 145
221 159 145
221 159 145
221 159 145
221 159 145
221 159 145
221 159 146
221 159 146
221 159 146
221 159 146
221 158 146
221 158 146
221 158 146
221 158 146
221 158 146
221 158 146
220 158 146
220 158 147
220 158 147
220 158 147
220 158 147
220 158 147
220 157 147
220 157 147
220 157 147
220 157 147
220 157 147
220 157 147
220 157 147
220 157 148
220 157 148
220 157 148
220 157 148
220 157 147
220 157 147
220 157 147
220 157 147
220 157 147
220 157 147
220 157 147
220 158 147
220 158 147
220 158 147
220 158 147
220 158 147
220 158 146
220 158 146
221 158 146
221 158 146
221 158 146
221 158 146
221 158 146
221 158 146
221 159 146
221 159 146
221 159 146
221 159 146
221 159 145
221 159 145
221 159 145
221 159 145
221 159 145
221 159 145
221 159 145
222 160 145
222 160 145
222 160 145
222 160 145
222 160 144
222 160 144
222 160 144
222 160 144
222 160 144
222 160 144
222 160 144
222 161 144
222 161 144
222 161 144
222 161 143
223 161 143
223 161 143
223 161 143
223 161 143
223 161 143
223 161 143
223 162 143
223 162 143
223 162 143
223 162 142
223 162 142
223 162 142
223 162 142
223 162 142
223 162 142
224 162 142
224 163 142
224 163 142
224 163 142
224 163 141
224 163 141
224 163 141
224 163 141
224 163 141
224 163 141
224 163 141
224 164 141
224 164 141
224 164 141
224 164 140
225 164 140
225 164 140
225 164 140
225 164 140
225 164 140
225 164 140
225 165 140
225 165 140
225 165 139
225 165 139
225 165 139
225 165 139
225 165 139
225 165 139
226 165 139
226 166 139
226 166 139
226 166 139
226 166 138
226 166 138
226 166 138
226 166 138
226 166 138
226 166 138
226 166 138
226 167 138
226 167 138
226 167 137
227 167 137
227 167 137
227 167 137
227 167 137
227 167 137
227 167 137
227 167 137
227 168 137
227 168 137
227 168 136
227 168 136
227 168 136
227 168 136
227 168 136
228 168 136
228 168 136
228 168 136
228 169 136
228 169 135
228 169 135
228 169 135
228 169 135
228 169 135
228 169 135
228 169 135
228 169 135
228 169 135
228 170 135
228 170 135
229 170 134
229 170 134
229 170 134
229 170 134
229 170 134
229 170 134
229 170 134
229 170 134
229 170 134
229 170 134
229 171 134
229 171 133
229 171 133
229 171 133
229 171 133
229 171 133
229 171 133
229 171 133
230 171 133
230 171 133
230 171 133
230 171 133
230 171 133
230 172 133
230 172 132
230 172 132
230 172 132
230 172 132
230 172 132
230 172 132
230 172 132
230 172 132
230 172 132
230 172 132
230 172 132
230 172 132
230 172 132
230 172 132
230 172 132
230 172 132
230 172 132
230 173 132
230 173 132
231 173 131
231 173 131
231 173 131
231 173 131
231 173 131
231 173 131
231 173 131
231 173 131
231 173 131
231 173 131
231 173 131
231 173 131
231 173 131
231 173 131
231 173 131
231 173 131
231 173 131
231 173 131
231 173 131
231 173 131
231 173 131
231 173 131
231 173 131
231 173 131
231 173 131
231 173 131
231 173 131
231 173 131
231 173 131
231 173 131
231 173 131
231 173 131
231 173 131
231 173 131
231 173 131
231 173 131
231 173 131
231 173 131
231 173 131
231 173 131
231 173 131
230 173 132
230 173 132
230 173 132
230 172 132
230 172 132
230 172 132
230 172 132
230 172 132
230 172 132
230 172 132
230 172 132
230 172 132
230 172 132
230 172 132
230 172 132
230 172 132
230 172 132
230 172 132
230 172 132
230 172 133
230 172 133
230 171 133
230 171 133
230 171 133
230 171 133
230 171 133
229 171 133
229 171 133
229 171 133
229 171 133
229 171 133
229 171 133
229 171 133
229 171 134
229 170 134
229 170 134
229 170 134
229 170 134
229 170 134
229 170 134
229 170 134
229 170 134
229 170 134
229 170 134
228 170 135
228 170 135
228 169 135
228 169 135
228 169 135
228 169 135
228 169 135
228 169 135
228 169 135
228 169 135
228 169 135
228 169 136
228 168 136
228 168 136
228 168 136
227 168 136
227 168 136
227 168 136
227 168 136
227 168 136
227 168 137
227 168 137
227 167 137
227 167 137
227 167 137
227 167 137
227 167 137
227 167 137
227 167 137
226 167 137
226 167 138
226 167 138
226 166 138
226 166 138
226 166 138
226 166 138
226 166 138
226 166 138
226 166 138
226 166 139
226 166 139
226 166 139
226 165 139
225 165 139
225 165 139
225 165 139
225 165 139
225 165 139
225 165 139
225 165 140
225 165 140
225 164 140
225 164 140
225 164 140
225 164 140
225 164 140
225 164 140
224 164 140
224 164 141
224 164 141
224 164 141
224 163 141
224 163 141
224 163 141
224 163 141
224 163 141
224 163 141
224 163 141
224 163 142
224 163 142
224 163 142
224 162 142
223 162 142
223 162 142
223 162 142
223 162 142
223 162 142
223 162 142
223 162 143
223 162 143
223 162 143
223 161 143
223 161 143
223 161 143
223 161 143
223 161 143
223 161 143
222 161 143
222 161 144
222 161 144
222 161 144
222 160 144
222 160 144
222 160 144
222 160 144
222 160 144
222 160 144
222 160 144
222 160 145
222 160 145
222 160 145
222 160 145
221 159 145
221 159 145
221 159 145
221 159 145
221 159 145
221 159 145
221 159 145
221 159 146
221 159 146
221 159 146
221 159 146
221 159 146
221 158 146
221 158 146
221 158 146
221 158 146
221 158 146
220 158 146
220 158 146
220 158 147
220 158 147
220 158 147
220 158 147
220 157 147
220 157 147
220 157 147
220 157 147
220 157 147
220 157 147
220 157 147
220 157 147
220 157 148
220 157 148
220 157 148
219 156 148
219 157 148
220 157 148
220 157 148
220 157 148
220 157 148
220 157 147
220 157 147
220 157 147
220 157 147
220 157 147
220 157 147
220 157 147
220 158 147
220 158 147
220 158 147
220 158 147
220 158 147
220 158 146
220 158 146
221 158 146
221 158 146
221 158 146
221 158 146
221 158 146
221 159 146
221 159 146
221 159 146
221 159 146
221 159 145
221 159 145
221 159 145
221 159 145
221 159 145
221 159 145
221 159 145
222 160 145
222 160 145
222 160 145
222 160 145
222 160 144
222 160 144
222 160 144
222 160 144
222 160 144
222 160 144
222 160 144
222 161 144
222 161 144
222 161 144
222 161 144
222 161 143
223 161 143
223 161 143
223 161 143
223 161 143
223 161 143
223 161 143
223 162 143
223 162 143
223 162 143
223 162 142
223 162 142
223 162 142
223 162 142
223 162 142
223 162 142
224 162 142
224 163 142
224 163 142
224 163 142
224 163 141
224 163 141
224 163 141
224 163 141
224 163 141
224 163 141
224 164 141
224 164 141
224 164 141
224 164 140
225 164 140
225 164 140
225 164 140
225 164 140
225 164 140
225 164 140
225 165 140
225 165 140
225 165 140
225 165 139
225 165 139
225 165 139
225 165 139
225 165 139
226 165 139
226 165 139
226 166 139
226 166 139
226 166 138
226 166 138
226 166 138
226 166 138
226 166 138
226 166 138
226 166 138
226 167 138
226 167 138
226 167 137
227 167 137
227 167 137
227 167 137
227 167 137
227 167 137
227 167 137
227 167 137
227 168 137
227 168 137
227 168 136
227 168 136
227 168 136
227 168 136
227 168 136
228 168 136
228 168 136
228 168 136
228 169 136
228 169 136
228 169 135
228 169 135
228 169 135
228 169 135
228 169 135
228 169 135
228 169 135
228 169 135
228 169 135
228 170 135
228 170 135
229 170 134
229 170 134
229 170 134
229 170 134
229 170 134
229 170 134
229 170 134
229 170 134
229 170 134
229 170 134
229 171 134
229 171 133
229 171 133
229 171 133
229 171 133
229 171 133
229 171 133
229 171 133
230 171 133
230 171 133
230 171 133
230 171 133
230 171 133
230 171 133
230 172 133
230 172 132
230 172 132
230 172 132
230 172 132
230 172 132
230 172 132
230 172 132
230 172 132
230 172 132
230 172 132
230 172 132
230 172 132
230 172 132
230 172 132
230 172 132
230 172 132
230 172 132
230 172 132
230 172 132
230 172 132
230 173 132
230 173 132
230 173 132
230 173 132
231 173 131
231 173 131
231 173 131
231 173 131
231 173 131
231 173 131
231 173 131
231 173 131
231 173 131
231 173 131
231 173 131
231 173 131
231 173 131
231 173 131
231 173 131
231 173 131
231 173 131
231 173 131
231 173 131
231 173 131
231 173 131
231 173 131
231 173 131
231 173 131
230 173 132
230 173 132
230 173 132
230 173 132
230 172 132
230 172 132
230 172 132
230 172 132
230 172 132
230 172 132
230 172 132
230 172 132
230 172 132
230 172 132
230 172 132
230 172 132
230 172 132
230 172 132
230 172 132
230 172 132
230 172 132
230 172 132
230 172 132
230 172 132
230 172 133
230 171 133
230 171 133
230 171 133
230 171 133
230 171 133
230 171 133
229 171 133
229 171 133
229 171 133
229 171 133
229 171 133
229 171 133
229 171 133
229 171 134
229 170 134
229 170 134
229 170 134
229 170 134
229 170 134
229 170 134
229 170 134
229 170 134
229 170 134
229 170 134
228 170 134
228 170 135
228 169 135
228 169 135
228 169 135
228 169 135
228 169 135
228 169 135
228 169 135
228 169 135
228 169 135
228 169 136
228 169 136
228 168 136
228 168 136
228 168 136
227 168 136
227 168 136
227 168 136
227 168 136
227 168 136
227 168 137
227 168 137
227 167 137
227 167 137
227 167 137
227 167 137
227 167 137
227 167 137
227 167 137
226 167 137
226 167 138
226 167 138
226 166 138
226 166 138
226 166 138
226 166 138
226 166 138
226 166 138
226 166 138
226 166 139
226 166 139
226 165 139
226 165 139
225 165 139
225 165 139
225 165 139
225 165 139
225 165 139
225 165 140
225 165 140
225 165 140
225 164 140
225 164 140
225 164 140
225 164 140
225 164 140
225 164 140
224 164 140
224 164 141
224 164 141
224 164 141
224 163 141
224 163 141
224 163 141
224 163 141
224 163 141
224 163 141
224 163 142
224 163 142
224 163 142
224 162 142
223 162 142
223 162 142
223 162 142
223 162 142
223 162 142
223 162 142
223 162 143
223 162 143
223 162 143
223 162 143
223 161 143
223 161 143
223 161 143
223 161 143
223 161 143
222 161 143
222 161 144
222 161 144
222 161 144
222 161 144
222 160 144
222 160 144
222 160 144
222 160 144
222 160 144
222 160 144
222 160 144
222 160 145
222 160 145
222 160 145
222 160 145
221 159 145
221 159 145
221 159 145
221 159 145
221 159 145
221 159 145
221 159 145
221 159 146
221 159 146
221 159 146
221 159 146
221 158 146
221 158 146
221 158 146
221 158 146
221 158 146
220 158 146
220 158 146
220 158 147
220 158 147
220 158 147
220 158 147
220 158 147
220 157 147
220 157 147
220 157 147
220 157 147
220 157 147
220 157 147
220 157 147
220 157 148
220 157 148
220 157 148
220 157 148
219 157 148
219 156 148
219 156 148
219 156 148
219 156 148
219 157 148
220 157 148
220 157 148
220 157 148
220 157 148
220 157 147
220 157 147
220 157 147
220 157 147
220 157 147
220 157 147
220 157 147
220 157 147
220 158 147
220 158 147
220 158 147
220 158 147
220 158 146
220 158 146
221 158 146
221 158 146
221 158 146
221 158 146
221 158 146
221 158 146
221 159 146
221 159 146
221 159 146
221 159 146
221 159 145
221 159 145
221 159 145
221 159 145
221 159 145
221 159 145
221 159 145
222 160 145
222 160 145
222 160 145
222 160 145
222 160 144
222 160 144
222 160 144
222 160 144
222 160 144
222 160 144
222 161 144
222 161 144
222 161 144
222 161 144
222 161 143
223 161 143
223 161 143
223 161 143
223 161 143
223 161 143
223 161 143
223 162 143
223 162 143
223 162 143
223 162 142
223 162 142
223 162 142
223 162 142
223 162 142
223 162 142
224 162 142
224 163 142
224 163 142
224 163 142
224 163 141
224 163 141
224 163 141
224 163 141
224 163 141
224 163 141
224 163 141
224 164 141
224 164 141
224 164 140
225 164 140
225 164 140
225 164 140
225 164 140
225 164 140
225 164 140
225 164 140
225 165 140
225 165 140
225 165 139
225 165 139
225 165 139
225 165 139
225 165 139
226 165 139
226 165 139
226 166 139
226 166 139
226 166 138
226 166 138
226 166 138
226 166 138
226 166 138
226 166 138
226 166 138
226 166 138
226 167 138
226 167 138
227 167 137
227 167 137
227 167 137
227 167 137
227 167 137
227 167 137
227 167 137
227 167 137
227 168 137
227 168 136
227 168 136
227 168 136
227 168 136
227 168 136
227 168 136
228 168 136
228 168 136
228 168 136
228 169 136
228 169 135
228 169 135
228 169 135
228 169 135
228 169 135
228 169 135
228 169 135
228 169 135
228 169 135
228 169 135
228 170 135
228 170 134
229 170 134
229 170 134
229 170 134
229 170 134
229 170 134
229 170 134
229 170 134
229 170 134
229 170 134
229 170 134
229 171 134
229 171 133
229 171 133
229 171 133
229 171 133
229 171 133
229 171 133
229 171 133
229 171 133
230 171 133
230 171 133
230 171 133
230 171 133
230 171 133
230 171 133
230 172 133
230 172 133
230 172 132
230 172 132
230 172 132
230 172 132
230 172 132
230 172 132
230 172 132
230 172 132
230 172 132
230 172 132
230 172 132
230 172 132
230 172 132
230 172 132
230 172 132
230 172 132
230 172 132
230 172 132
230 172 132
230 172 132
230 172 132
230 172 132
230 172 132
230 172 132
230 172 132
230 172 132
230 172 132
230 172 132
230 172 132
230 172 132
230 172 132
230 172 132
230 172 132
230 172 132
230 172 132
230 172 132
230 172 132
230 172 132
230 172 132
230 172 132
230 172 132
230 172 132
230 172 132
230 172 132
230 172 132
230 172 132
230 172 132
230 172 132
230 172 132
230 172 132
230 172 132
230 172 132
230 172 132
230 172 132
230 172 132
230 172 132
230 172 132
230 172 132
230 172 132
230 172 132
230 172 132
230 172 132
230 172 132
230 172 133
230 171 133
230 171 133
230 171 133
230 171 133
230 171 133
230 171 133
229 171 133
229 171 133
229 171 133
229 171 133
229 171 133
229 171 133
229 171 133
229 171 134
229 171 134
229 170 134
229 170 134
229 170 134
229 170 134
229 170 134
229 170 134
229 170 134
229 170 134
229 170 134
229 170 134
228 170 134
228 170 135
228 169 135
228 169 135
228 169 135
228 169 135
228 169 135
228 169 135
228 169 135
228 169 135
228 169 135
228 169 136
228 169 136
228 168 136
228 168 136
228 168 136
227 168 136
227 168 136
227 168 136
227 168 136
227 168 136
227 168 136
227 168 137
227 167 137
227 167 137
227 167 137
227 167 137
227 167 137
227 167 137
227 167 137
227 167 137
226 167 138
226 167 138
226 166 138
226 166 138
226 166 138
226 166 138
226 166 138
226 166 138
226 166 138
226 166 138
226 166 139
226 166 139
226 165 139
226 165 139
225 165 139
225 165 139
225 165 139
225 165 139
225 165 139
225 165 140
225 165 140
225 164 140
225 164 140
225 164 140
225 164 140
225 164 140
225 164 140
225 164 140
224 164 141
224 164 141
224 164 141
224 163 141
224 163 141
224 163 141
224 163 141
224 163 141
224 163 141
224 163 141
224 163 142
224 163 142
224 163 142
224 162 142
223 162 142
223 162 142
223 162 142
223 162 142
223 162 142
223 162 142
223 162 143
223 162 143
223 162 143
223 161 143
223 161 143
223 161 143
223 161 143
223 161 143
223 161 143
222 161 143
222 161 144
222 161 144
222 161 144
222 160 144
222 160 144
222 160 144
222 160 144
222 160 144
222 160 144
222 160 144
222 160 145
222 160 145
222 160 145
222 160 145
221 159 145
221 159 145
221 159 145
221 159 145
221 159 145
221 159 145
221 159 145
221 159 146
221 159 146
221 159 146
221 159 146
221 158 146
221 158 146
221 158 146
221 158 146
221 158 146
221 158 146
220 158 146
220 158 147
220 158 147
220 158 147
220 158 147
220 158 147
220 157 147
220 157 147
220 157 147
220 157 147
220 157 147
220 157 147
220 157 147
220 157 148
220 157 148
220 157 148
220 157 148
220 157 148
219 157 148
219 156 148
219 156 148
219 156 148
219 156 148
219 156 148
219 156 148
219 156 148
219 156 148
219 156 148
219 157 148
220 157 148
220 157 148
220 157 148
220 157 148
220 157 147
220 157 147
220 157 147
220 157 147
220 157 147
220 157 147
220 157 147
220 158 147
220 158 147
220 158 147
220 158 147
220 158 147
220 158 146
220 158 146
221 158 146
221 158 146
221 158 146
221 158 146
221 158 146
221 159 146
221 159 146
221 159 146
221 159 146
221 159 145
221 159 145
221 159 145
221 159 145
221 159 145
221 159 145
221 159 145
222 160 145
222 160 145
222 160 145
222 160 145
222 160 144
222 160 144
222 160 144
222 160 144
222 160 144
222 160 144
222 160 144
222 161 144
222 161 144
222 161 144
222 161 144
222 161 143
223 161 143
223 161 143
223 161 143
223 161 143
223 161 143
223 162 143
223 162 143
223 162 143
223 162 143
223 162 142
223 162 142
223 162 142
223 162 142
223 162 142
224 162 142
224 163 142
224 163 142
224 163 142
224 163 141
224 163 141
224 163 141
224 163 141
224 163 141
224 163 141
224 163 141
224 164 141
224 164 141
224 164 141
224 164 140
225 164 140
225 164 140
225 164 140
225 164 140
225 164 140
225 164 140
225 165 140
225 165 140
225 165 139
225 165 139
225 165 139
225 165 139
225 165 139
225 165 139
226 165 139
226 165 139
226 166 139
226 166 139
226 166 138
226 166 138
226 166 138
226 166 138
226 166 138
226 166 138
226 166 138
226 167 138
226 167 138
226 167 137
227 167 137
227 167 137
227 167 137
227 167 137
227 167 137
227 167 137
227 167 137
227 168 137
227 168 137
227 168 136
227 168 136
227 168 136
227 168 136
227 168 136
228 168 136
228 168 136
228 168 136
228 169 136
228 169 136
228 169 135
228 169 135
228 169 135
228 169 135
228 169 135
228 169 135
228 169 135
228 169 135
228 169 135
228 170 135
228 170 135
228 170 134
229 170 134
229 170 134
229 170 134
229 170 134
229 170 134
229 170 134
229 170 134
229 170 134
229 170 134
229 170 134
229 171 134
229 171 134
229 171 133
229 171 133
229 171 133
229 171 133
229 171 133
229 171 133
229 171 133
229 171 133
230 171 133
230 171 133
230 171 133
230 171 133
230 171 133
230 171 133
230 172 133
230 172 133
230 172 132
230 172 132
230 172 132
230 172 132
230 172 132
230 172 132
230 172 132
230 172 132
230 172 132
230 172 132
230 172 132
230 172 132
230 172 132
230 172 132
230 172 132
230 172 132
230 172 132
230 172 132
230 172 132
230 172 132
230 172 132
230 172 132
230 172 132
230 172 132
230 172 132
230 172 132
230 172 132
230 172 132
230 172 132
230 172 132
230 172 132
230 172 132
230 172 132
230 172 132
230 172 132
230 172 132
230 172 132
230 172 132
230 172 132
230 172 132
230 172 132
230 172 132
230 172 132
230 172 132
230 172 132
230 172 132
230 172 132
230 172 132
230 172 132
230 172 132
230 172 132
230 172 132
230 172 132
230 172 132
230 172 133
230 172 133
230 171 133
230 171 133
230 171 133
230 171 133
230 171 133
230 171 133
229 171 133
229 171 133
229 171 133
229 171 133
229 171 133
229 171 133
229 171 133
229 171 133
229 171 134
229 171 134
229 170 134
229 170 134
229 170 134
229 170 134
229 170 134
229 170 134
229 170 134
229 170 134
229 170 134
229 170 134
229 170 134
228 170 135
228 170 135
228 169 135
228 169 135
228 169 135
228 169 135
228 169 135
228 169 135
228 169 135
228 169 135
228 169 135
228 169 136
228 169 136
228 168 136
228 168 136
228 168 136
227 168 136
227 168 136
227 168 136
227 168 136
227 168 136
227 168 137
227 168 137
227 167 137
227 167 137
227 167 137
227 167 137
227 167 137
227 167 137
227 167 137
226 167 137
226 167 138
226 167 138
226 166 138
226 166 138
226 166 138
226 166 138
226 166 138
226 166 138
226 166 138
226 166 139
226 166 139
226 166 139
226 165 139
225 165 139
225 165 139
225 165 139
225 165 139
225 165 139
225 165 139
225 165 140
225 165 140
225 164 140
225 164 140
225 164 140
225 164 140
225 164 140
225 164 140
224 164 140
224 164 141
224 164 141
224 164 141
224 163 141
224 163 141
224 163 141
224 163 141
224 163 141
224 163 141
224 163 141
224 163 142
224 163 142
224 163 142
223 162 142
223 162 142
223 162 142
223 162 142
223 162 142
223 162 142
223 162 142
223 162 143
223 162 143
223 162 143
223 161 143
223 161 143
223 161 143
223 161 143
223 161 143
222 161 143
222 161 143
222 161 144
222 161 144
222 161 144
222 160 144
222 160 144
222 160 144
222 160 144
222 160 144
222 160 144
222 160 144
222 160 145
222 160 145
222 160 145
222 160 145
221 159 145
221 159 145
221 159 145
221 159 145
221 159 145
221 159 145
221 159 145
221 159 146
221 159 146
221 159 146
221 159 146
221 158 146
221 158 146
221 158 146
221 158 146
221 158 146
220 158 146
220 158 146
220 158 147
220 158 147
220 158 147
220 158 147
220 158 147
220 157 147
220 157 147
220 157 147
220 157 147
220 157 147
220 157 147
220 157 147
220 157 148
220 157 148
220 157 148
220 157 148
219 157 148
219 156 148
219 156 148
219 156 148
219 156 148
219 156 148
219 156 148
219 156 149
219 156 148
219 156 148
219 156 148
219 156 148
219 156 148
219 156 148
219 156 148
219 156 148
219 157 148
220 157 148
220 157 148
220 157 148
220 157 148
220 157 147
220 157 147
220 157 147
220 157 147
220 157 147
220 157 147
220 157 147
220 158 147
220 158 147
220 158 147
220 158 147
220 158 147
220 158 146
221 158 146
221 158 146
221 158 146
221 158 146
221 158 146
221 158 146
221 159 146
221 159 146
221 159 146
221 159 146
221 159 145
221 159 145
221 159 145
221 159 145
221 159 145
221 159 145
221 159 145
222 160 145
222 160 145
222 160 145
222 160 145
222 160 144
222 160 144
222 160 144
222 160 144
222 160 144
222 160 144
222 161 144
222 161 144
222 161 144
222 161 144
222 161 143
223 161 143
223 161 143
223 161 143
223 161 143
223 161 143
223 161 143
223 162 143
223 162 143
223 162 143
223 162 142
223 162 142
223 162 142
223 162 142
223 162 142
223 162 142
224 162 142
224 163 142
224 163 142
224 163 142
224 163 141
224 163 141
224 163 141
224 163 141
224 163 141
224 163 141
224 164 141
224 164 141
224 164 141
224 164 140
225 164 140
225 164 140
225 164 140
225 164 140
225 164 140
225 164 140
225 165 140
225 165 140
225 165 140
225 165 139
225 165 139
225 165 139
225 165 139
225 165 139
226 165 139
226 165 139
226 166 139
226 166 139
226 166 138
226 166 138
226 166 138
226 166 138
226 166 138
226 166 138
226 166 138
226 166 138
226 167 138
226 167 138
227 167 137
227 167 137
227 167 137
227 167 137
227 167 137
227 167 137
227 167 137
227 167 137
227 168 137
227 168 137
227 168 136
227 168 136
227 168 136
227 168 136
227 168 136
228 168 136
228 168 136
228 168 136
228 169 136
228 169 136
228 169 135
228 169 135
228 169 135
228 169 135
228 169 135
228 169 135
228 169 135
228 169 135
228 169 135
228 170 135
228 170 135
228 170 134
229 170 134
229 170 134
229 170 134
229 170 134
229 170 134
229 170 134
229 170 134
229 170 134
229 170 134
229 170 134
229 170 134
229 171 134
229 171 133
229 171 133
229 171 133
229 171 133
229 171 133
229 171 133
229 171 133
229 171 133
229 171 133
230 171 133
230 171 133
230 171 133
230 171 133
230 171 133
230 171 133
230 171 133
230 171 133
230 172 133
230 172 133
230 172 133
230 172 132
230 172 132
230 172 132
230 172 132
230 172 132
230 172 132
230 172 132
230 172 132
230 172 132
230 172 132
230 172 132
230 172 132
230 172 132
230 172 132
230 172 132
230 172 132
230 172 132
230 172 132
230 172 132
230 172 132
230 172 132
230 172 132
230 172 132
230 172 132
230 172 132
230 172 132
230 172 132
230 172 132
230 172 132
230 172 132
230 172 132
230 172 132
230 172 132
230 172 132
230 172 132
230 172 132
230 172 132
230 172 132
230 172 132
230 172 132
230 172 133
230 172 133
230 172 133
230 172 133
230 171 133
230 171 133
230 171 133
230 171 133
230 171 133
230 171 133
230 171 133
229 171 133
229 171 133
229 171 133
229 171 133
229 171 133
229 171 133
229 171 133
229 171 133
229 171 133
229 171 134
229 170 134
229 170 134
229 170 134
229 170 134
229 170 134
229 170 134
229 170 134
229 170 134
229 170 134
229 170 134
229 170 134
228 170 134
228 170 135
228 170 135
228 169 135
228 169 135
228 169 135
228 169 135
228 169 135
228 169 135
228 169 135
228 169 135
228 169 135
228 169 136
228 169 136
228 168 136
228 168 136
228 168 136
227 168 136
227 168 136
227 168 136
227 168 136
227 168 136
227 168 137
227 168 137
227 167 137
227 167 137
227 167 137
227 167 137
227 167 137
227 167 137
227 167 137
227 167 137
226 167 138
226 167 138
226 166 138
226 166 138
226 166 138
226 166 138
226 166 138
226 166 138
226 166 138
226 166 138
226 166 139
226 166 139
226 165 139
226 165 139
225 165 139
225 165 139
225 165 139
225 165 139
225 165 139
225 165 140
225 165 140
225 165 140
225 164 140
225 164 140
225 164 140
225 164 140
225 164 140
225 164 140
224 164 140
224 164 141
224 164 141
224 163 141
224 163 141
224 163 141
224 163 141
224 163 141
224 163 141
224 163 141
224 163 142
224 163 142
224 163 142
224 162 142
223 162 142
223 162 142
223 162 142
223 162 142
223 162 142
223 162 142
223 162 143
223 162 143
223 162 143
223 161 143
223 161 143
223 161 143
223 161 143
223 161 143
223 161 143
222 161 143
222 161 144
222 161 144
222 161 144
222 160 144
222 160 144
222 160 144
222 160 144
222 160 144
222 160 144
222 160 144
222 160 145
222 160 145
222 160 145
222 160 145
221 159 145
221 159 145
221 159 145
221 159 145
221 159 145
221 159 145
221 159 145
221 159 146
221 159 146
221 159 146
221 159 146
221 158 146
221 158 146
221 158 146
221 158 146
221 158 146
221 158 146
220 158 146
220 158 147
220 158 147
220 158 147
220 158 147
220 158 147
220 157 147
220 157 147
220 157 147
220 157 147
220 157 147
220 157 147
220 157 147
220 157 148
220 157 148
220 157 148
220 157 148
219 157 148
219 156 148
219 156 148
219 156 148
219 156 148
219 156 148
219 156 148
219 156 148
219 156 148
219 156 149
219 156 149
219 156 149
219 156 149
219 156 149
219 156 148
219 156 148
219 156 148
219 156 148
219 156 148
219 156 148
219 156 148
219 156 148
219 157 148
220 157 148
220 157 148
220 157 148
220 157 148
220 157 147
220 157 147
220 157 147
220 157 147
220 157 147
220 157 147
220 157 147
220 158 147
220 158 147
220 158 147
220 158 147
220 158 146
220 158 146
221 158 146
221 158 146
221 158 146
221 158 146
221 158 146
221 159 146
221 159 146
221 159 146
221 159 146
221 159 145
221 159 145
221 159 145
221 159 145
221 159 145
221 159 145
221 159 145
222 160 145
222 160 145
222 160 145
222 160 145
222 160 144
222 160 144
222 160 144
222 160 144
222 160 144
222 160 144
222 160 144
222 161 144
222 161 144
222 161 144
222 161 144
222 161 143
223 161 143
223 161 143
223 161 143
223 161 143
223 161 143
223 162 143
223 162 143
223 162 143
223 162 143
223 162 142
223 162 142
223 162 142
223 162 142
223 162 142
224 162 142
224 163 142
224 163 142
224 163 142
224 163 141
224 163 141
224 163 141
224 163 141
224 163 141
224 163 141
224 163 141
224 164 141
224 164 141
224 164 140
224 164 140
225 164 140
225 164 140
225 164 140
225 164 140
225 164 140
225 164 140
225 165 140
225 165 140
225 165 139
225 165 139
225 165 139
225 165 139
225 165 139
225 165 139
226 165 139
226 166 139
226 166 139
226 166 139
226 166 138
226 166 138
226 166 138
226 166 138
226 166 138
226 166 138
226 166 138
226 167 138
226 167 138
226 167 137
227 167 137
227 167 137
227 167 137
227 167 137
227 167 137
227 167 137
227 167 137
227 168 137
227 168 137
227 168 136
227 168 136
227 168 136
227 168 136
227 168 136
227 168 136
228 168 136
228 168 136
228 168 136
228 169 136
228 169 136
228 169 135
228 169 135
228 169 135
228 169 135
228 169 135
228 169 135
228 169 135
228 169 135
228 169 135
228 169 135
228 170 135
228 170 134
229 170 134
229 170 134
229 170 134
229 170 134
229 170 134
229 170 134
229 170 134
229 170 134
229 170 134
229 170 134
229 170 134
229 170 134
229 171 134
229 171 134
229 171 133
229 171 133
229 171 133
229 171 133
229 171 133
229 171 133
229 171 133
229 171 133
229 171 133
230 171 133
230 171 133
230 171 133
230 171 133
230 171 133
230 171 133
230 171 133
230 171 133
230 171 133
230 172 133
230 172 133
230 172 133
230 172 133
230 172 133
230 172 133
230 172 132
230 172 132
230 172 132
230 172 132
230 172 132
230 172 132
230 172 132
230 172 132
230 172 132
230 172 132
230 172 132
230 172 132
230 172 132
230 172 132
230 172 132
230 172 132
230 172 132
230 172 132
230 172 132
230 172 132
230 172 132
230 172 132
230 172 132
230 172 133
230 172 133
230 172 133
230 172 133
230 171 133
230 171 133
230 171 133
230 171 133
230 171 133
230 171 133
230 171 133
230 171 133
230 171 133
230 171 133
229 171 133
229 171 133
229 171 133
229 171 133
229 171 133
229 171 133
229 171 133
229 171 133
229 171 133
229 171 133
229 171 134
229 171 134
229 170 134
229 170 134
229 170 134
229 170 134
229 170 134
229 170 134
229 170 134
229 170 134
229 170 134
229 170 134
229 170 134
228 170 134
228 170 135
228 169 135
228 169 135
228 169 135
228 169 135
228 169 135
228 169 135
228 169 135
228 169 135
228 169 135
228 169 135
228 169 136
228 169 136
228 168 136
228 168 136
228 168 136
227 168 136
227 168 136
227 168 136
227 168 136
227 168 136
227 168 136
227 168 137
227 168 137
227 167 137
227 167 137
227 167 137
227 167 137
227 167 137
227 167 137
227 167 137
226 167 137
226 167 138
226 167 138
226 166 138
226 166 138
226 166 138
226 166 138
226 166 138
226 166 138
226 166 138
226 166 139
226 166 139
226 166 139
226 165 139
225 165 139
225 165 139
225 165 139
225 165 139
225 165 139
225 165 139
225 165 140
225 165 140
225 165 140
225 164 140
225 164 140
225 164 140
225 164 140
225 164 140
224 164 140
224 164 141
224 164 141
224 164 141
224 163 141
224 163 141
224 163 141
224 163 141
224 163 141
224 163 141
224 163 141
224 163 142
224 163 142
224 163 142
224 162 142
223 162 142
223 162 142
223 162 142
223 162 142
223 162 142
223 162 142
223 162 143
223 162 143
223 162 143
223 161 143
223 161 143
223 161 143
223 161 143
223 161 143
222 161 143
222 161 143
222 161 144
222 161 144
222 161 144
222 160 144
222 160 144
222 160 144
222 160 144
222 160 144
222 160 144
222 160 144
222 160 145
222 160 145
222 160 145
222 160 145
221 159 145
221 159 145
221 159 145
221 159 145
221 159 145
221 159 145
221 159 146
221 159 146
221 159 146
221 159 146
221 159 146
221 158 146
221 158 146
221 158 146
221 158 146
221 158 146
220 158 146
220 158 147
220 158 147
220 158 147
220 158 147
220 158 147
220 157 147
220 157 147
220 157 147
220 157 147
220 157 147
220 157 147
220 157 147
220 157 148
220 157 148
220 157 148
220 157 148
219 157 148
219 156 148
219 156 148
219 156 148
219 156 148
219 156 148
219 156 148
219 156 148
219 156 148
219 156 149
219 156 149
219 156 149
219 156 149
219 155 149
219 156 149
219 156 149
219 156 149
219 156 149
219 156 149
219 156 149
219 156 148
219 156 148
219 156 148
219 156 148
219 156 148
219 156 148
219 156 148
219 157 148
220 157 148
220 157 148
220 157 148
220 157 148
220 157 147
220 157 147
220 157 147
220 157 147
220 157 147
220 157 147
220 157 147
220 158 147
220 158 147
220 158 147
220 158 147
220 158 147
220 158 146
220 158 146
221 158 146
221 158 146
221 158 146
221 158 146
221 158 146
221 159 146
221 159 146
221 159 146
221 159 146
221 159 145
221 159 145
221 159 145
221 159 145
221 159 145
221 159 145
221 159 145
222 160 145
222 160 145
222 160 145
222 160 145
222 160 144
222 160 144
222 160 144
222 160 144
222 160 144
222 160 144
222 161 144
222 161 144
222 161 144
222 161 144
222 161 143
223 161 143
223 161 143
223 161 143
223 161 143
223 161 143
223 161 143
223 162 143
223 162 143
223 162 143
223 162 142
223 162 142
223 162 142
223 162 142
223 162 142
223 162 142
224 162 142
224 163 142
224 163 142
224 163 141
224 163 141
224 163 141
224 163 141
224 163 141
224 163 141
224 163 141
224 163 141
224 164 141
224 164 141
224 164 140
225 164 140
225 164 140
225 164 140
225 164 140
225 164 140
225 164 140
225 165 140
225 165 140
225 165 139
225 165 139
225 165 139
225 165 139
225 165 139
225 165 139
226 165 139
226 165 139
226 166 139
226 166 139
226 166 138
226 166 138
226 166 138
226 166 138
226 166 138
226 166 138
226 166 138
226 166 138
226 167 138
226 167 138
227 167 137
227 167 137
227 167 137
227 167 137
227 167 137
227 167 137
227 167 137
227 167 137
227 168 137
227 168 137
227 168 136
227 168 136
227 168 136
227 168 136
227 168 136
227 168 136
228 168 136
228 168 136
228 168 136
228 169 136
228 169 136
228 169 135
228 169 135
228 169 135
228 169 135
228 169 135
228 169 135
228 169 135
228 169 135
228 169 135
228 169 135
228 170 135
228 170 135
229 170 134
229 170 134
229 170 134
229 170 134
229 170 134
229 170 134
229 170 134
229 170 134
229 170 134
229 170 134
229 170 134
229 170 134
229 170 134
229 171 134
229 171 134
229 171 133
229 171 133
229 171 133
229 171 133
229 171 133
229 171 133
229 171 133
229 171 133
229 171 133
229 171 133
229 171 133
229 171 133
230 171 133
230 171 133
230 171 133
230 171 133
230 171 133
230 171 133
230 171 133
230 171 133
230 171 133
230 171 133
230 171 133
230 171 133
230 171 133
230 171 133
230 171 133
230 171 133
230 171 133
230 171 133
230 172 133
230 171 133
230 171 133
230 171 133
230 171 133
230 171 133
230 171 133
230 171 133
230 171 133
230 171 133
230 171 133
230 171 133
230 171 133
230 171 133
230 171 133
230 171 133
230 171 133
230 171 133
230 171 133
230 171 133
230 171 133
229 171 133
229 171 133
229 171 133
229 171 133
229 171 133
229 171 133
229 171 133
229 171 133
229 171 133
229 171 133
229 171 133
229 171 134
229 171 134
229 170 134
229 170 134
229 170 134
229 170 134
229 170 134
229 170 134
229 170 134
229 170 134
229 170 134
229 170 134
229 170 134
229 170 134
229 170 134
228 170 135
228 170 135
228 169 135
228 169 135
228 169 135
228 169 135
228 169 135
228 169 135
228 169 135
228 169 135
228 169 135
228 169 135
228 169 136
228 169 136
228 168 136
228 168 136
228 168 136
227 168 136
227 168 136
227 168 136
227 168 136
227 168 136
227 168 136
227 168 137
227 168 137
227 167 137
227 167 137
227 167 137
227 167 137
227 167 137
227 167 137
227 167 137
227 167 137
226 167 138
226 167 138
226 166 138
226 166 138
226 166 138
226 166 138
226 166 138
226 166 138
226 166 138
226 166 138
226 166 139
226 166 139
226 165 139
226 165 139
225 165 139
225 165 139
225 165 139
225 165 139
225 165 139
225 165 139
225 165 140
225 165 140
225 164 140
225 164 140
225 164 140
225 164 140
225 164 140
225 164 140
224 164 140
224 164 141
224 164 141
224 164 141
224 163 141
224 163 141
224 163 141
224 163 141
224 163 141
224 163 141
224 163 142
224 163 142
224 163 142
224 162 142
223 162 142
223 162 142
223 162 142
223 162 142
223 162 142
223 162 142
223 162 143
223 162 143
223 162 143
223 161 143
223 161 143
223 161 143
223 161 143
223 161 143
223 161 143
222 161 143
222 161 144
222 161 144
222 161 144
222 160 144
222 160 144
222 160 144
222 160 144
222 160 144
222 160 144
222 160 144
222 160 145
222 160 145
222 160 145
222 160 145
221 159 145
221 159 145
221 159 145
221 159 145
221 159 145
221 159 145
221 159 145
221 159 146
221 159 146
221 159 146
221 159 146
221 158 146
221 158 146
221 158 146
221 158 146
221 158 146
220 158 146
220 158 146
220 158 147
220 158 147
220 158 147
220 158 147
220 157 147
220 157 147
220 157 147
220 157 147
220 157 147
220 157 147
220 157 147
220 157 147
220 157 148
220 157 148
220 157 148
220 157 148
219 157 148
219 156 148
219 156 148
219 156 148
219 156 148
219 156 148
219 156 148
219 156 148
219 156 149
219 156 149
219 156 149
219 156 149
219 156 149
219 156 149
219 155 149
219 155 149
219 155 149
219 155 149
219 155 149
219 156 149
219 156 149
219 156 149
219 156 149
219 156 149
219 156 149
219 156 148
219 156 148
219 156 148
219 156 148
219 156 148
219 156 148
219 156 148
219 157 148
220 157 148
220 157 148
220 157 148
220 157 148
220 157 147
220 157 147
220 157 147
220 157 147
220 157 147
220 157 147
220 157 147
220 158 147
220 158 147
220 158 147
220 158 147
220 158 147
220 158 146
221 158 146
221 158 146
221 158 146
221 158 146
221 158 146
221 158 146
221 159 146
221 159 146
221 159 146
221 159 146
221 159 145
221 159 145
221 159 145
221 159 145
221 159 145
221 159 145
222 160 145
222 160 145
222 160 145
222 160 145
222 160 144
222 160 144
222 160 144
222 160 144
222 160 144
222 160 144
222 160 144
222 161 144
222 161 144
222 161 144
222 161 143
222 161 143
223 161 143
223 161 143
223 161 143
223 161 143
223 161 143
223 162 143
223 162 143
223 162 143
223 162 142
223 162 142
223 162 142
223 162 142
223 162 142
223 162 142
224 162 142
224 163 142
224 163 142
224 163 142
224 163 141
224 163 141
224 163 141
224 163 141
224 163 141
224 163 141
224 163 141
224 164 141
224 164 141
224 164 140
224 164 140
225 164 140
225 164 140
225 164 140
225 164 140
225 164 140
225 164 140
225 165 140
225 165 140
225 165 139
225 165 139
225 165 139
225 165 139
225 165 139
225 165 139
226 165 139
226 166 139
226 166 139
226 166 139
226 166 138
226 166 138
226 166 138
226 166 138
226 166 138
226 166 138
226 166 138
226 167 138
226 167 138
226 167 137
227 167 137
227 167 137
227 167 137
227 167 137
227 167 137
227 167 137
227 167 137
227 167 137
227 168 137
227 168 137
227 168 136
227 168 136
227 168 136
227 168 136
227 168 136
227 168 136
228 168 136
228 168 136
228 168 136
228 169 136
228 169 136
228 169 135
228 169 135
228 169 135
228 169 135
228 169 135
228 169 135
228 169 135
228 169 135
228 169 135
228 169 135
228 169 135
228 170 135
228 170 135
229 170 134
229 170 134
229 170 134
229 170 134
229 170 134
229 170 134
229 170 134
229 170 134
229 170 134
229 170 134
229 170 134
229 170 134
229 170 134
229 171 134
229 171 134
229 171 134
229 171 133
229 171 133
229 171 133
229 171 133
229 171 133
229 171 133
229 171 133
229 171 133
229 171 133
229 171 133
229 171 133
229 171 133
229 171 133
229 171 133
229 171 133
229 171 133
230 171 133
230 171 133
230 171 133
230 171 133
230 171 133
230 171 133
230 171 133
230 171 133
230 171 133
230 171 133
230 171 133
230 171 133
230 171 133
230 171 133
230 171 133
230 171 133
230 171 133
230 171 133
230 171 133
230 171 133
229 171 133
229 171 133
229 171 133
229 171 133
229 171 133
229 171 133
229 171 133
229 171 133
229 171 133
229 171 133
229 171 133
229 171 133
229 171 133
229 171 133
229 171 133
229 171 133
229 171 134
229 171 134
229 171 134
229 170 134
229 170 134
229 170 134
229 170 134
229 170 134
229 170 134
229 170 134
229 170 134
229 170 134
229 170 134
229 170 134
229 170 134
229 170 134
228 170 134
228 170 135
228 170 135
228 169 135
228 169 135
228 169 135
228 169 135
228 169 135
228 169 135
228 169 135
228 169 135
228 169 135
228 169 135
228 169 136
228 169 136
228 168 136
228 168 136
228 168 136
227 168 136
227 168 136
227 168 136
227 168 136
227 168 136
227 168 136
227 168 137
227 168 137
227 167 137
227 167 137
227 167 137
227 167 137
227 167 137
227 167 137
227 167 137
227 167 137
226 167 137
226 167 138
226 167 138
226 166 138
226 166 138
226 166 138
226 166 138
226 166 138
226 166 138
226 166 138
226 166 139
226 166 139
226 166 139
226 165 139
225 165 139
225 165 139
225 165 139
225 165 139
225 165 139
225 165 139
225 165 140
225 165 140
225 164 140
225 164 140
225 164 140
225 164 140
225 164 140
225 164 140
225 164 140
224 164 140
224 164 141
224 164 141
224 163 141
224 163 141
224 163 141
224 163 141
224 163 141
224 163 141
224 163 141
224 163 142
224 163 142
224 163 142
224 162 142
223 162 142
223 162 142
223 162 142
223 162 142
223 162 142
223 162 142
223 162 143
223 162 143
223 162 143
223 161 143
223 161 143
223 161 143
223 161 143
223 161 143
222 161 143
222 161 143
222 161 144
222 161 144
222 161 144
222 160 144
222 160 144
222 160 144
222 160 144
222 160 144
222 160 144
222 160 144
222 160 145
222 160 145
222 160 145
221 159 145
221 159 145
221 159 145
221 159 145
221 159 145
221 159 145
221 159 145
221 159 146
221 159 146
221 159 146
221 159 146
221 158 146
221 158 146
221 158 146
221 158 146
221 158 146
221 158 146
220 158 146
220 158 147
220 158 147
220 158 147
220 158 147
220 158 147
220 157 147
220 157 147
220 157 147
220 157 147
220 157 147
220 157 147
220 157 147
220 157 148
220 157 148
220 157 148
220 157 148
219 157 148
219 156 148
219 156 148
219 156 148
219 156 148
219 156 148
219 156 148
219 156 148
219 156 149
219 156 149
219 156 149
219 156 149
219 156 149
219 156 149
219 155 149
219 155 149
219 155 149
219 155 149
218 155 149
218 155 149
219 155 149
219 155 149
219 155 149
219 155 149
219 155 149
219 156 149
219 156 149
219 156 149
219 156 149
219 156 149
219 156 149
219 156 148
219 156 148
219 156 148
219 156 148
219 156 148
219 156 148
219 156 148
219 157 148
220 157 148
220 157 148
220 157 148
220 157 148
220 157 147
220 157 147
220 157 147
220 157 147
220 157 147
220 157 147
220 157 147
220 158 147
220 158 147
220 158 147
220 158 147
220 158 146
220 158 146
221 158 146
221 158 146
221 158 146
221 158 146
221 158 146
221 159 146
221 159 146
221 159 146
221 159 146
221 159 145
221 159 145
221 159 145
221 159 145
221 159 145
221 159 145
221 159 145
222 160 145
222 160 145
222 160 145
222 160 145
222 160 144
222 160 144
222 160 144
222 160 144
222 160 144
222 160 144
222 161 144
222 161 144
222 161 144
222 161 144
222 161 143
223 161 143
223 161 143
223 161 143
223 161 143
223 161 143
223 161 143
223 162 143
223 162 143
223 162 143
223 162 142
223 162 142
223 162 142
223 162 142
223 162 142
223 162 142
224 162 142
224 163 142
224 163 142
224 163 142
224 163 141
224 163 141
224 163 141
224 163 141
224 163 141
224 163 141
224 164 141
224 164 141
224 164 141
224 164 140
225 164 140
225 164 140
225 164 140
225 164 140
225 164 140
225 164 140
225 165 140
225 165 140
225 165 140
225 165 139
225 165 139
225 165 139
225 165 139
225 165 139
226 165 139
226 165 139
226 166 139
226 166 139
226 166 138
226 166 138
226 166 138
226 166 138
226 166 138
226 166 138
226 166 138
226 166 138
226 167 138
226 167 138
226 167 137
227 167 137
227 167 137
227 167 137
227 167 137
227 167 137
227 167 137
227 167 137
227 168 137
227 168 137
227 168 137
227 168 136
227 168 136
227 168 136
227 168 136
227 168 136
227 168 136
228 168 136
228 168 136
228 168 136
228 169 136
228 169 136
228 169 135
228 169 135
228 169 135
228 169 135
228 169 135
228 169 135
228 169 135
228 169 135
228 169 135
228 169 135
228 169 135
228 170 135
228 170 135
228 170 134
229 170 134
229 170 134
229 170 134
229 170 134
229 170 134
229 170 134
229 170 134
229 170 134
229 170 134
229 170 134
229 170 134
229 170 134
229 170 134
229 170 134
229 170 134
229 171 134
229 171 134
229 171 134
229 171 134
229 171 133
229 171 133
229 171 133
229 171 133
229 171 133
229 171 133
229 171 133
229 171 133
229 171 133
229 171 133
229 171 133
229 171 133
229 171 133
229 171 133
229 171 133
229 171 133
229 171 133
229 171 133
229 171 133
229 171 133
229 171 133
229 171 133
229 171 133
229 171 133
229 171 133
229 171 133
229 171 133
229 171 133
229 171 133
229 171 133
229 171 133
229 171 133
229 171 133
229 171 133
229 171 133
229 171 133
229 171 133
229 171 133
229 171 134
229 171 134
229 171 134
229 171 134
229 170 134
229 170 134
229 170 134
229 170 134
229 170 134
229 170 134
229 170 134
229 170 134
229 170 134
229 170 134
229 170 134
229 170 134
229 170 134
229 170 134
229 170 134
228 170 134
228 170 135
228 170 135
228 169 135
228 169 135
228 169 135
228 169 135
228 169 135
228 169 135
228 169 135
228 169 135
228 169 135
228 169 135
228 169 135
228 169 136
228 169 136
228 168 136
228 168 136
228 168 136
227 168 136
227 168 136
227 168 136
227 168 136
227 168 136
227 168 136
227 168 137
227 168 137
227 168 137
227 167 137
227 167 137
227 167 137
227 167 137
227 167 137
227 167 137
227 167 137
226 167 137
226 167 138
226 167 138
226 166 138
226 166 138
226 166 138
226 166 138
226 166 138
226 166 138
226 166 138
226 166 138
226 166 139
226 166 139
226 165 139
226 165 139
225 165 139
225 165 139
225 165 139
225 165 139
225 165 139
225 165 140
225 165 140
225 165 140
225 164 140
225 164 140
225 164 140
225 164 140
225 164 140
225 164 140
224 164 140
224 164 141
224 164 141
224 164 141
224 163 141
224 163 141
224 163 141
224 163 141
224 163 141
224 163 141
224 163 141
224 163 142
224 163 142
224 162 142
223 162 142
223 162 142
223 162 142
223 162 142
223 162 142
223 162 142
223 162 143
223 162 143
223 162 143
223 161 143
223 161 143
223 161 143
223 161 143
223 161 143
223 161 143
222 161 143
222 161 144
222 161 144
222 161 144
222 160 144
222 160 144
222 160 144
222 160 144
222 160 144
222 160 144
222 160 144
222 160 145
222 160 145
222 160 145
222 160 145
221 159 145
221 159 145
221 159 145
221 159 145
221 159 145
221 159 145
221 159 145
221 159 146
221 159 146
221 159 146
221 159 146
221 158 146
221 158 146
221 158 146
221 158 146
221 158 146
220 158 146
220 158 146
220 158 147
220 158 147
220 158 147
220 158 147
220 157 147
220 157 147
220 157 147
220 157 147
220 157 147
220 157 147
220 157 147
220 157 148
220 157 148
220 157 148
220 157 148
219 157 148
219 156 148
219 156 148
219 156 148
219 156 148
219 156 148
219 156 148
219 156 148
219 156 149
219 156 149
219 156 149
219 156 149
219 156 149
219 156 149
219 155 149
219 155 149
219 155 149
219 155 149
219 155 149
218 155 149
218 155 149
218 155 150
218 155 150
218 155 150
218 155 149
218 155 149
219 155 149
219 155 149
219 155 149
219 155 149
219 155 149
219 156 149
219 156 149
219 156 149
219 156 149
219 156 149
219 156 149
219 156 148
219 156 148
219 156 148
219 156 148
219 156 148
219 156 148
219 156 148
219 157 148
220 157 148
220 157 148
220 157 148
220 157 148
220 157 147
220 157 147
220 157 147
220 157 147
220 157 147
220 157 147
220 157 147
220 158 147
220 158 147
220 158 147
220 158 147
220 158 146
220 158 146
221 158 146
221 158 146
221 158 146
221 158 146
221 158 146
221 159 146
221 159 146
221 159 146
221 159 146
221 159 145
221 159 145
221 159 145
221 159 145
221 159 145
221 159 145
221 159 145
222 160 145
222 160 145
222 160 145
222 160 145
222 160 144
222 160 144
222 160 144
222 160 144
222 160 144
222 160 144
222 161 144
222 161 144
222 161 144
222 161 143
222 161 143
223 161 143
223 161 143
223 161 143
223 161 143
223 161 143
223 162 143
223 162 143
223 162 143
223 162 142
223 162 142
223 162 142
223 162 142
223 162 142
223 162 142
224 162 142
224 163 142
224 163 142
224 163 142
224 163 141
224 163 141
224 163 141
224 163 141
224 163 141
224 163 141
224 163 141
224 164 141
224 164 141
224 164 141
224 164 140
225 164 140
225 164 140
225 164 140
225 164 140
225 164 140
225 164 140
225 165 140
225 165 140
225 165 139
225 165 139
225 165 139
225 165 139
225 165 139
225 165 139
226 165 139
226 166 139
226 166 139
226 166 139
226 166 138
226 166 138
226 166 138
226 166 138
226 166 138
226 166 138
226 166 138
226 166 138
226 167 138
226 167 138
227 167 137
227 167 137
227 167 137
227 167 137
227 167 137
227 167 137
227 167 137
227 167 137
227 168 137
227 168 137
227 168 136
227 168 136
227 168 136
227 168 136
227 168 136
227 168 136
227 168 136
228 168 136
228 168 136
228 168 136
228 169 136
228 169 136
228 169 135
228 169 135
228 169 135
228 169 135
228 169 135
228 169 135
228 169 135
228 169 135
228 169 135
228 169 135
228 169 135
228 169 135
228 170 135
228 170 135
228 170 134
229 170 134
229 170 134
229 170 134
229 170 134
229 170 134
229 170 134
229 170 134
229 170 134
229 170 134
229 170 134
229 170 134
229 170 134
229 170 134
229 170 134
229 170 134
229 170 134
229 170 134
229 170 134
229 170 134
229 171 134
229 171 134
229 171 134
229 171 134
229 171 134
229 171 133
229 171 133
229 171 133
229 171 133
229 171 133
229 171 133
229 171 133
229 171 133
229 171 133
229 171 133
229 171 133
229 171 133
229 171 133
229 171 133
229 171 133
229 171 133
229 171 133
229 171 133
229 171 133
229 171 133
229 171 134
229 171 134
229 171 134
229 171 134
229 171 134
229 170 134
229 170 134
229 170 134
229 170 134
229 170 134
229 170 134
229 170 134
229 170 134
229 170 134
229 170 134
229 170 134
229 170 134
229 170 134
229 170 134
229 170 134
229 170 134
229 170 134
229 170 134
229 170 134
228 170 135
228 170 135
228 170 135
228 169 135
228 169 135
228 169 135
228 169 135
228 169 135
228 169 135
228 169 135
228 169 135
228 169 135
228 169 135
228 169 135
228 169 135
228 169 136
228 169 136
228 168 136
228 168 136
228 168 136
227 168 136
227 168 136
227 168 136
227 168 136
227 168 136
227 168 136
227 168 136
227 168 137
227 168 137
227 167 137
227 167 137
227 167 137
227 167 137
227 167 137
227 167 137
227 167 137
227 167 137
226 167 138
226 167 138
226 166 138
226 166 138
226 166 138
226 166 138
226 166 138
226 166 138
226 166 138
226 166 138
226 166 139
226 166 139
226 166 139
226 165 139
225 165 139
225 165 139
225 165 139
225 165 139
225 165 139
225 165 139
225 165 140
225 165 140
225 164 140
225 164 140
225 164 140
225 164 140
225 164 140
225 164 140
225 164 140
224 164 141
224 164 141
224 164 141
224 163 141
224 163 141
224 163 141
224 163 141
224 163 141
224 163 141
224 163 141
224 163 142
224 163 142
224 163 142
224 162 142
223 162 142
223 162 142
223 162 142
223 162 142
223 162 142
223 162 142
223 162 143
223 162 143
223 162 143
223 161 143
223 161 143
223 161 143
223 161 143
223 161 143
222 161 143
222 161 144
222 161 144
222 161 144
222 161 144
222 160 144
222 160 144
222 160 144
222 160 144
222 160 144
222 160 144
222 160 144
222 160 145
222 160 145
222 160 145
221 159 145
221 159 145
221 159 145
221 159 145
221 159 145
221 159 145
221 159 145
221 159 146
221 159 146
221 159 146
221 159 146
221 158 146
221 158 146
221 158 146
221 158 146
221 158 146
220 158 146
220 158 146
220 158 147
220 158 147
220 158 147
220 158 147
220 157 147
220 157 147
220 157 147
220 157 147
220 157 147
220 157 147
220 157 147
220 157 147
220 157 148
220 157 148
220 157 148
219 157 148
219 156 148
219 156 148
219 156 148
219 156 148
219 156 148
219 156 148
219 156 148
219 156 149
219 156 149
219 156 149
219 156 149
219 156 149
219 156 149
219 155 149
219 155 149
219 155 149
219 155 149
219 155 149
218 155 149
218 155 149
218 155 150
218 155 150
218 155 150
218 155 150
218 155 150
218 155 150
218 155 150
218 155 150
218 155 150
218 155 149
218 155 149
219 155 149
219 155 149
219 155 149
219 155 149
219 155 149
219 156 149
219 156 149
219 156 149
219 156 149
219 156 149
219 156 149
219 156 148
219 156 148
219 156 148
219 156 148
219 156 148
219 156 148
219 157 148
219 157 148
220 157 148
220 157 148
220 157 148
220 157 147
220 157 147
220 157 147
220 157 147
220 157 147
220 157 147
220 157 147
220 158 147
220 158 147
220 158 147
220 158 147
220 158 147
220 158 146
221 158 146
221 158 146
221 158 146
221 158 146
221 158 146
221 159 146
221 159 146
221 159 146
221 159 146
221 159 146
221 159 145
221 159 145
221 159 145
221 159 145
221 159 145
221 159 145
222 160 145
222 160 145
222 160 145
222 160 145
222 160 144
222 160 144
222 160 144
222 160 144
222 160 144
222 160 144
222 160 144
222 161 144
222 161 144
222 161 144
222 161 143
223 161 143
223 161 143
223 161 143
223 161 143
223 161 143
223 161 143
223 162 143
223 162 143
223 162 143
223 162 142
223 162 142
223 162 142
223 162 142
223 162 142
223 162 142
224 162 142
224 163 142
224 163 142
224 163 141
224 163 141
224 163 141
224 163 141
224 163 141
224 163 141
224 163 141
224 164 141
224 164 141
224 164 141
224 164 140
225 164 140
225 164 140
225 164 140
225 164 140
225 164 140
225 164 140
225 165 140
225 165 140
225 165 140
225 165 139
225 165 139
225 165 139
225 165 139
225 165 139
226 165 139
226 165 139
226 166 139
226 166 139
226 166 139
226 166 138
226 166 138
226 166 138
226 166 138
226 166 138
226 166 138
226 166 138
226 167 138
226 167 138
226 167 138
227 167 137
227 167 137
227 167 137
227 167 137
227 167 137
227 167 137
227 167 137
227 167 137
227 168 137
227 168 137
227 168 136
227 168 136
227 168 136
227 168 136
227 168 136
227 168 136
227 168 136
228 168 136
228 168 136
228 168 136
228 168 136
228 169 136
228 169 136
228 169 135
228 169 135
228 169 135
228 169 135
228 169 135
228 169 135
228 169 135
228 169 135
228 169 135
228 169 135
228 169 135
228 169 135
228 170 135
228 170 135
228 170 135
228 170 134
229 170 134
229 170 134
229 170 134
229 170 134
229 170 134
229 170 134
229 170 134
229 170 134
229 170 134
229 170 134
229 170 134
229 170 134
229 170 134
229 170 134
229 170 134
229 170 134
229 170 134
229 170 134
229 170 134
229 170 134
229 170 134
229 170 134
229 170 134
229 170 134
229 170 134
229 170 134
229 170 134
229 170 134
229 170 134
229 170 134
229 170 134
229 170 134
229 170 134
229 170 134
229 170 134
229 170 134
229 170 134
229 170 134
229 170 134
229 170 134
229 170 134
229 170 134
229 170 134
229 170 134
229 170 134
229 170 134
229 170 134
229 170 134
229 170 134
229 170 134
229 170 134
229 170 134
229 170 134
229 170 134
229 170 134
229 170 134
229 170 134
229 170 134
228 170 134
228 170 135
228 170 135
228 169 135
228 169 135
228 169 135
228 169 135
228 169 135
228 169 135
228 169 135
228 169 135
228 169 135
228 169 135
228 169 135
228 169 135
228 169 135
228 169 136
228 169 136
228 169 136
228 168 136
228 168 136
228 168 136
227 168 136
227 168 136
227 168 136
227 168 136
227 168 136
227 168 136
227 168 136
227 168 137
227 168 137
227 167 137
227 167 137
227 167 137
227 167 137
227 167 137
227 167 137
227 167 137
227 167 137
226 167 138
226 167 138
226 167 138
226 166 138
226 166 138
226 166 138
226 166 138
226 166 138
226 166 138
226 166 138
226 166 139
226 166 139
226 166 139
226 165 139
226 165 139
225 165 139
225 165 139
225 165 139
225 165 139
225 165 139
225 165 140
225 165 140
225 165 140
225 164 140
225 164 140
225 164 140
225 164 140
225 164 140
225 164 140
224 164 140
224 164 141
224 164 141
224 163 141
224 163 141
224 163 141
224 163 141
224 163 141
224 163 141
224 163 141
224 163 141
224 163 142
224 163 142
224 163 142
223 162 142
223 162 142
223 162 142
223 162 142
223 162 142
223 162 142
223 162 143
223 162 143
223 162 143
223 161 143
223 161 143
223 161 143
223 161 143
223 161 143
223 161 143
222 161 143
222 161 144
222 161 144
222 161 144
222 160 144
222 160 144
222 160 144
222 160 144
222 160 144
222 160 144
222 160 144
222 160 145
222 160 145
222 160 145
222 160 145
221 159 145
221 159 145
221 159 145
221 159 145
221 159 145
221 159 145
221 159 146
221 159 146
221 159 146
221 159 146
221 159 146
221 158 146
221 158 146
221 158 146
221 158 146
221 158 146
220 158 146
220 158 147
220 158 147
220 158 147
220 158 147
220 158 147
220 157 147
220 157 147
220 157 147
220 157 147
220 157 147
220 157 147
220 157 147
220 157 148
220 157 148
220 157 148
219 157 148
219 157 148
219 156 148
219 156 148
219 156 148
219 156 148
219 156 148
219 156 148
219 156 148
219 156 149
219 156 149
219 156 149
219 156 149
219 156 149
219 155 149
219 155 149
219 155 149
219 155 149
219 155 149
218 155 149
218 155 149
218 155 150
218 155 150
218 155 150
218 155 150
218 155 150
218 155 150
218 154 150
218 154 150
218 155 150
218 155 150
218 155 150
218 155 150
218 155 150
218 155 150
218 155 150
218 155 149
218 155 149
219 155 149
219 155 149
219 155 149
219 155 149
219 155 149
219 156 149
219 156 149
219 156 149
219 156 149
219 156 149
219 156 148
219 156 148
219 156 148
219 156 148
219 156 148
219 156 148
219 156 148
219 157 148
220 157 148
220 157 148
220 157 148
220 157 148
220 157 147
220 157 147
220 157 147
220 157 147
220 157 147
220 157 147
220 157 147
220 158 147
220 158 147
220 158 147
220 158 147
220 158 147
220 158 146
221 158 146
221 158 146
221 158 146
221 158 146
221 158 146
221 159 146
221 159 146
221 159 146
221 159 146
221 159 145
221 159 145
221 159 145
221 159 145
221 159 145
221 159 145
221 159 145
222 160 145
222 160 145
222 160 145
222 160 145
222 160 144
222 160 144
222 160 144
222 160 144
222 160 144
222 160 144
222 161 144
222 161 144
222 161 144
222 161 144
222 161 143
223 161 143
223 161 143
223 161 143
223 161 143
223 161 143
223 162 143
223 162 143
223 162 143
223 162 142
223 162 142
223 162 142
223 162 142
223 162 142
223 162 142
224 162 142
224 163 142
224 163 142
224 163 142
224 163 141
224 163 141
224 163 141
224 163 141
224 163 141
224 163 141
224 163 141
224 164 141
224 164 141
224 164 141
224 164 140
225 164 140
225 164 140
225 164 140
225 164 140
225 164 140
225 164 140
225 165 140
225 165 140
225 165 139
225 165 139
225 165 139
225 165 139
225 165 139
225 165 139
226 165 139
226 165 139
226 166 139
226 166 139
226 166 138
226 166 138
226 166 138
226 166 138
226 166 138
226 166 138
226 166 138
226 166 138
226 167 138
226 167 138
226 167 138
227 167 137
227 167 137
227 167 137
227 167 137
227 167 137
227 167 137
227 167 137
227 167 137
227 167 137
227 168 137
227 168 137
227 168 136
227 168 136
227 168 136
227 168 136
227 168 136
227 168 136
228 168 136
228 168 136
228 168 136
228 168 136
228 169 136
228 169 136
228 169 136
228 169 135
228 169 135
228 169 135
228 169 135
228 169 135
228 169 135
228 169 135
228 169 135
228 169 135
228 169 135
228 169 135
228 169 135
228 169 135
228 169 135
228 170 135
228 170 135
228 170 135
228 170 134
229 170 134
229 170 134
229 170 134
229 170 134
229 170 134
229 170 134
229 170 134
229 170 134
229 170 134
229 170 134
229 170 134
229 170 134
229 170 134
229 170 134
229 170 134
229 170 134
229 170 134
229 170 134
229 170 134
229 170 134
229 170 134
229 170 134
229 170 134
229 170 134
229 170 134
229 170 134
229 170 134
229 170 134
229 170 134
229 170 134
229 170 134
229 170 134
229 170 134
229 170 134
229 170 134
229 170 134
229 170 134
229 170 134
229 170 134
229 170 134
229 170 134
229 170 134
229 170 134
229 170 134
229 170 134
229 170 134
228 170 134
228 170 135
228 170 135
228 170 135
228 169 135
228 169 135
228 169 135
228 169 135
228 169 135
228 169 135
228 169 135
228 169 135
228 169 135
228 169 135
228 169 135
228 169 135
228 169 135
228 169 135
228 169 136
228 169 136
228 169 136
228 168 136
228 168 136
228 168 136
227 168 136
227 168 136
227 168 136
227 168 136
227 168 136
227 168 136
227 168 136
227 168 137
227 168 137
227 168 137
227 167 137
227 167 137
227 167 137
227 167 137
227 167 137
227 167 137
227 167 137
227 167 137
226 167 138
226 167 138
226 167 138
226 166 138
226 166 138
226 166 138
226 166 138
226 166 138
226 166 138
226 166 138
226 166 138
226 166 139
226 166 139
226 165 139
226 165 139
225 165 139
225 165 139
225 165 139
225 165 139
225 165 139
225 165 139
225 165 140
225 165 140
225 164 140
225 164 140
225 164 140
225 164 140
225 164 140
225 164 140
224 164 140
224 164 141
224 164 141
224 164 141
224 163 141
224 163 141
224 163 141
224 163 141
224 163 141
224 163 141
224 163 141
224 163 142
224 163 142
224 163 142
224 162 142
223 162 142
223 162 142
223 162 142
223 162 142
223 162 142
223 162 143
223 162 143
223 162 143
223 162 143
223 161 143
223 161 143
223 161 143
223 161 143
223 161 143
222 161 143
222 161 144
222 161 144
222 161 144
222 161 144
222 160 144
222 160 144
222 160 144
222 160 144
222 160 144
222 160 144
222 160 145
222 160 145
222 160 145
222 160 145
221 159 145
221 159 145
221 159 145
221 159 145
221 159 145
221 159 145
221 159 145
221 159 146
221 159 146
221 159 146
221 159 146
221 158 146
221 158 146
221 158 146
221 158 146
221 158 146
220 158 146
220 158 147
220 158 147
220 158 147
220 158 147
220 158 147
220 157 147
220 157 147
220 157 147
220 157 147
220 157 147
220 157 147
220 157 147
220 157 148
220 157 148
220 157 148
219 157 148
219 157 148
219 156 148
219 156 148
219 156 148
219 156 148
219 156 148
219 156 148
219 156 148
219 156 149
219 156 149
219 156 149
219 156 149
219 156 149
219 155 149
219 155 149
219 155 149
219 155 149
219 155 149
218 155 149
218 155 149
218 155 150
218 155 150
218 155 150
218 155 150
218 155 150
218 155 150
218 155 150
218 154 150
218 154 150
218 154 150
218 154 150
218 154 150
218 154 150
218 154 150
218 154 150
218 155 150
218 155 150
218 155 150
218 155 150
218 155 150
218 155 150
218 155 149
218 155 149
219 155 149
219 155 149
219 155 149
219 155 149
219 155 149
219 156 149
219 156 149
219 156 149
219 156 149
219 156 149
219 156 148
219 156 148
219 156 148
219 156 148
219 156 148
219 156 148
219 156 148
219 157 148
220 157 148
220 157 148
220 157 148
220 157 148
220 157 147
220 157 147
220 157 147
220 157 147
220 157 147
220 157 147
220 157 147
220 158 147
220 158 147
220 158 147
220 158 147
220 158 146
220 158 146
221 158 146
221 158 146
221 158 146
221 158 146
221 158 146
221 159 146
221 159 146
221 159 146
221 159 146
221 159 145
221 159 145
221 159 145
221 159 145
221 159 145
221 159 145
222 160 145
222 160 145
222 160 145
222 160 145
222 160 144
222 160 144
222 160 144
222 160 144
222 160 144
222 160 144
222 160 144
222 161 144
222 161 144
222 161 144
222 161 143
222 161 143
223 161 143
223 161 143
223 161 143
223 161 143
223 161 143
223 162 143
223 162 143
223 162 143
223 162 142
223 162 142
223 162 142
223 162 142
223 162 142
223 162 142
224 162 142
224 163 142
224 163 142
224 163 142
224 163 141
224 163 141
224 163 141
224 163 141
224 163 141
224 163 141
224 163 141
224 164 141
224 164 141
224 164 140
225 164 140
225 164 140
225 164 140
225 164 140
225 164 140
225 164 140
225 164 140
225 165 140
225 165 140
225 165 139
225 165 139
225 165 139
225 165 139
225 165 139
225 165 139
226 165 139
226 165 139
226 166 139
226 166 139
226 166 138
226 166 138
226 166 138
226 166 138
226 166 138
226 166 138
226 166 138
226 166 138
226 167 138
226 167 138
226 167 137
227 167 137
227 167 137
227 167 137
227 167 137
227 167 137
227 167 137
227 167 137
227 167 137
227 167 137
227 168 137
227 168 137
227 168 136
227 168 136
227 168 136
227 168 136
227 168 136
227 168 136
227 168 136
228 168 136
228 168 136
228 168 136
228 168 136
228 169 136
228 169 136
228 169 136
228 169 135
228 169 135
228 169 135
228 169 135
228 169 135
228 169 135
228 169 135
228 169 135
228 169 135
228 169 135
228 169 135
228 169 135
228 169 135
228 169 135
228 169 135
228 169 135
228 170 135
228 170 135
228 170 135
228 170 135
228 170 135
228 170 134
229 170 134
229 170 134
229 170 134
229 170 134
229 170 134
229 170 134
229 170 134
229 170 134
229 170 134
229 170 134
229 170 134
229 170 134
229 170 134
229 170 134
229 170 134
229 170 134
229 170 134
229 170 134
229 170 134
229 170 134
229 170 134
229 170 134
229 170 134
229 170 134
229 170 134
229 170 134
229 170 134
229 170 134
229 170 134
229 170 134
228 170 134
228 170 134
228 170 135
228 170 135
228 170 135
228 169 135
228 169 135
228 169 135
228 169 135
228 169 135
228 169 135
228 169 135
228 169 135
228 169 135
228 169 135
228 169 135
228 169 135
228 169 135
228 169 135
228 169 135
228 169 135
228 169 135
228 169 136
228 169 136
228 169 136
228 168 136
228 168 136
228 168 136
228 168 136
227 168 136
227 168 136
227 168 136
227 168 136
227 168 136
227 168 136
227 168 136
227 168 137
227 168 137
227 167 137
227 167 137
227 167 137
227 167 137
227 167 137
227 167 137
227 167 137
227 167 137
227 167 137
226 167 138
226 167 138
226 167 138
226 166 138
226 166 138
226 166 138
226 166 138
226 166 138
226 166 138
226 166 138
226 166 138
226 166 139
226 166 139
226 165 139
226 165 139
225 165 139
225 165 139
225 165 139
225 165 139
225 165 139
225 165 139
225 165 140
225 165 140
225 164 140
225 164 140
225 164 140
225 164 140
225 164 140
225 164 140
225 164 140
224 164 140
224 164 141
224 164 141
224 163 141
224 163 141
224 163 141
224 163 141
224 163 141
224 163 141
224 163 141
224 163 142
224 163 142
224 163 142
224 162 142
223 162 142
223 162 142
223 162 142
223 162 142
223 162 142
223 162 142
223 162 143
223 162 143
223 162 143
223 161 143
223 161 143
223 161 143
223 161 143
223 161 143
222 161 143
222 161 143
222 161 144
222 161 144
222 161 144
222 160 144
222 160 144
222 160 144
222 160 144
222 160 144
222 160 144
222 160 144
222 160 145
222 160 145
222 160 145
221 159 145
221 159 145
221 159 145
221 159 145
221 159 145
221 159 145
221 159 145
221 159 146
221 159 146
221 159 146
221 159 146
221 158 146
221 158 146
221 158 146
221 158 146
221 158 146
220 158 146
220 158 146
220 158 147
220 158 147
220 158 147
220 158 147
220 157 147
220 157 147
220 157 147
220 157 147
220 157 147
220 157 147
220 157 147
220 157 148
220 157 148
220 157 148
220 157 148
219 157 148
219 156 148
219 156 148
219 156 148
219 156 148
219 156 148
219 156 148
219 156 148
219 156 149
219 156 149
219 156 149
219 156 149
219 156 149
219 155 149
219 155 149
219 155 149
219 155 149
219 155 149
218 155 149
218 155 149
218 155 150
218 155 150
218 155 150
218 155 150
218 155 150
218 155 150
218 154 150
218 154 150
218 154 150
218 154 150
218 154 150
218 154 150
218 154 151
218 154 150
218 154 150
218 154 150
218 154 150
218 154 150
218 154 150
218 154 150
218 154 150
218 155 150
218 155 150
218 155 150
218 155 150
218 155 150
218 155 150
218 155 149
218 155 149
219 155 149
219 155 149
219 155 149
219 155 149
219 155 149
219 156 149
219 156 149
219 156 149
219 156 149
219 156 149
219 156 148
219 156 148
219 156 148
219 156 148
219 156 148
219 156 148
219 156 148
219 157 148
220 157 148
220 157 148
220 157 148
220 157 148
220 157 147
220 157 147
220 157 147
220 157 147
220 157 147
220 157 147
220 157 147
220 158 147
220 158 147
220 158 147
220 158 147
220 158 146
220 158 146
221 158 146
221 158 146
221 158 146
221 158 146
221 158 146
221 159 146
221 159 146
221 159 146
221 159 146
221 159 145
221 159 145
221 159 145
221 159 145
221 159 145
221 159 145
222 160 145
222 160 145
222 160 145
222 160 145
222 160 144
222 160 144
222 160 144
222 160 144
222 160 144
222 160 144
222 160 144
222 161 144
222 161 144
222 161 144
222 161 143
223 161 143
223 161 143
223 161 143
223 161 143
223 161 143
223 162 143
223 162 143
223 162 143
223 162 143
223 162 142
223 162 142
223 162 142
223 162 142
223 162 142
223 162 142
224 163 142
224 163 142
224 163 142
224 163 141
224 163 141
224 163 141
224 163 141
224 163 141
224 163 141
224 163 141
224 164 141
224 164 141
224 164 141
224 164 140
225 164 140
225 164 140
225 164 140
225 164 140
225 164 140
225 164 140
225 165 140
225 165 140
225 165 140
225 165 139
225 165 139
225 165 139
225 165 139
225 165 139
225 165 139
226 165 139
226 166 139
226 166 139
226 166 139
226 166 138
226 166 138
226 166 138
226 166 138
226 166 138
226 166 138
226 166 138
226 166 138
226 167 138
226 167 138
226 167 138
227 167 137
227 167 137
227 167 137
227 167 137
227 167 137
227 167 137
227 167 137
227 167 137
227 167 137
227 168 137
227 168 137
227 168 137
227 168 136
227 168 136
227 168 136
227 168 136
227 168 136
227 168 136
227 168 136
228 168 136
228 168 136
228 168 136
228 168 136
228 168 136
228 169 136
228 169 136
228 169 136
228 169 135
228 169 135
228 169 135
228 169 135
228 169 135
228 169 135
228 169 135
228 169 135
228 169 135
228 169 135
228 169 135
228 169 135
228 169 135
228 169 135
228 169 135
228 169 135
228 169 135
228 169 135
228 169 135
228 169 135
228 169 135
228 170 135
228 170 135
228 170 135
228 170 135
228 170 135
228 170 135
228 170 135
228 170 135
228 170 135
228 170 135
228 170 135
228 170 135
228 170 135
228 170 135
228 170 135
228 170 135
228 170 135
228 170 135
228 170 135
228 170 135
228 170 135
228 170 135
228 170 135
228 169 135
228 169 135
228 169 135
228 169 135
228 169 135
228 169 135
228 169 135
228 169 135
228 169 135
228 169 135
228 169 135
228 169 135
228 169 135
228 169 135
228 169 135
228 169 135
228 169 135
228 169 135
228 169 135
228 169 135
228 169 135
228 169 136
228 169 136
228 168 136
228 168 136
228 168 136
228 168 136
228 168 136
227 168 136
227 168 136
227 168 136
227 168 136
227 168 136
227 168 136
227 168 136
227 168 137
227 168 137
227 168 137
227 167 137
227 167 137
227 167 137
227 167 137
227 167 137
227 167 137
227 167 137
227 167 137
227 167 137
226 167 138
226 167 138
226 167 138
226 166 138
226 166 138
226 166 138
226 166 138
226 166 138
226 166 138
226 166 138
226 166 138
226 166 139
226 166 139
226 165 139
226 165 139
225 165 139
225 165 139
225 165 139
225 165 139
225 165 139
225 165 139
225 165 140
225 165 140
225 165 140
225 164 140
225 164 140
225 164 140
225 164 140
225 164 140
225 164 140
224 164 140
224 164 141
224 164 141
224 164 141
224 163 141
224 163 141
224 163 141
224 163 141
224 163 141
224 163 141
224 163 141
224 163 142
224 163 142
224 163 142
223 162 142
223 162 142
223 162 142
223 162 142
223 162 142
223 162 142
223 162 143
223 162 143
223 162 143
223 161 143
223 161 143
223 161 143
223 161 143
223 161 143
223 161 143
222 161 143
222 161 144
222 161 144
222 161 144
222 160 144
222 160 144
222 160 144
222 160 144
222 160 144
222 160 144
222 160 144
222 160 145
222 160 145
222 160 145
222 160 145
221 159 145
221 159 145
221 159 145
221 159 145
221 159 145
221 159 145
221 159 146
221 159 146
221 159 146
221 159 146
221 158 146
221 158 146
221 158 146
221 158 146
221 158 146
220 158 146
220 158 146
220 158 147
220 158 147
220 158 147
220 158 147
220 157 147
220 157 147
220 157 147
220 157 147
220 157 147
220 157 147
220 157 147
220 157 148
220 157 148
220 157 148
220 157 148
219 157 148
219 156 148
219 156 148
219 156 148
219 156 148
219 156 148
219 156 148
219 156 148
219 156 149
219 156 149
219 156 149
219 156 149
219 156 149
219 155 149
219 155 149
219 155 149
219 155 149
219 155 149
218 155 149
218 155 149
218 155 150
218 155 150
218 155 150
218 155 150
218 155 150
218 155 150
218 155 150
218 154 150
218 154 150
218 154 150
218 154 150
218 154 150
218 154 150
218 154 151
218 154 151
218 154 151
218 154 151
218 154 151
218 154 151
218 154 150
218 154 150
218 154 150
218 154 150
218 154 150
218 154 150
218 154 150
218 154 150
218 155 150
218 155 150
218 155 150
218 155 150
218 155 150
218 155 150
218 155 149
218 155 149
219 155 149
219 155 149
219 155 149
219 155 149
219 155 149
219 156 149
219 156 149
219 156 149
219 156 149
219 156 149
219 156 148
219 156 148
219 156 148
219 156 148
219 156 148
219 156 148
219 156 148
219 157 148
220 157 148
220 157 148
220 157 148
220 157 148
220 157 147
220 157 147
220 157 147
220 157 147
220 157 147
220 157 147
220 158 147
220 158 147
220 158 147
220 158 147
220 158 147
220 158 146
221 158 146
221 158 146
221 158 146
221 158 146
221 158 146
221 159 146
221 159 146
221 159 146
221 159 146
221 159 145
221 159 145
221 159 145
221 159 145
221 159 145
221 159 145
221 159 145
222 160 145
222 160 145
222 160 145
222 160 145
222 160 144
222 160 144
222 160 144
222 160 144
222 160 144
222 160 144
222 161 144
222 161 144
222 161 144
222 161 144
222 161 143
223 161 143
223 161 143
223 161 143
223 161 143
223 161 143
223 162 143
223 162 143
223 162 143
223 162 143
223 162 142
223 162 142
223 162 142
223 162 142
223 162 142
224 162 142
224 163 142
224 163 142
224 163 142
224 163 141
224 163 141
224 163 141
224 163 141
224 163 141
224 163 141
224 163 141
224 164 141
224 164 141
224 164 141
224 164 140
225 164 140
225 164 140
225 164 140
225 164 140
225 164 140
225 164 140
225 165 140
225 165 140
225 165 140
225 165 139
225 165 139
225 165 139
225 165 139
225 165 139
225 165 139
226 165 139
226 165 139
226 166 139
226 166 139
226 166 138
226 166 138
226 166 138
226 166 138
226 166 138
226 166 138
226 166 138
226 166 138
226 166 138
226 167 138
226 167 138
226 167 137
227 167 137
227 167 137
227 167 137
227 167 137
227 167 137
227 167 137
227 167 137
227 167 137
227 167 137
227 168 137
227 168 137
227 168 137
227 168 136
227 168 136
227 168 136
227 168 136
227 168 136
227 168 136
227 168 136
227 168 136
228 168 136
228 168 136
228 168 136
228 168 136
228 168 136
228 169 136
228 169 136
228 169 136
228 169 135
228 169 135
228 169 135
228 169 135
228 169 135
228 169 135
228 169 135
228 169 135
228 169 135
228 169 135
228 169 135
228 169 135
228 169 135
228 169 135
228 169 135
228 169 135
228 169 135
228 169 135
228 169 135
228 169 135
228 169 135
228 169 135
228 169 135
228 169 135
228 169 135
228 169 135
228 169 135
228 169 135
228 169 135
228 169 135
228 169 135
228 169 135
228 169 135
228 169 135
228 169 135
228 169 135
228 169 135
228 169 135
228 169 135
228 169 135
228 169 135
228 169 135
228 169 135
228 169 135
228 169 135
228 169 135
228 169 135
228 169 135
228 169 135
228 169 135
228 169 135
228 169 135
228 169 135
228 169 135
228 169 136
228 169 136
228 169 136
228 169 136
228 168 136
228 168 136
228 168 136
228 168 136
227 168 136
227 168 136
227 168 136
227 168 136
227 168 136
227 168 136
227 168 136
227 168 136
227 168 137
227 168 137
227 168 137
227 167 137
227 167 137
227 167 137
227 167 137
227 167 137
227 167 137
227 167 137
227 167 137
227 167 137
226 167 137
226 167 138
226 167 138
226 166 138
226 166 138
226 166 138
226 166 138
226 166 138
226 166 138
226 166 138
226 166 138
226 166 138
226 166 139
226 166 139
226 166 139
226 165 139
225 165 139
225 165 139
225 165 139
225 165 139
225 165 139
225 165 139
225 165 140
225 165 140
225 165 140
225 164 140
225 164 140
225 164 140
225 164 140
225 164 140
225 164 140
224 164 140
224 164 141
224 164 141
224 164 141
224 163 141
224 163 141
224 163 141
224 163 141
224 163 141
224 163 141
224 163 141
224 163 142
224 163 142
224 163 142
224 162 142
223 162 142
223 162 142
223 162 142
223 162 142
223 162 142
223 162 142
223 162 143
223 162 143
223 162 143
223 161 143
223 161 143
223 161 143
223 161 143
223 161 143
222 161 143
222 161 144
222 161 144
222 161 144
222 161 144
222 160 144
222 160 144
222 160 144
222 160 144
222 160 144
222 160 144
222 160 145
222 160 145
222 160 145
222 160 145
221 159 145
221 159 145
221 159 145
221 159 145
221 159 145
221 159 145
221 159 145
221 159 146
221 159 146
221 159 146
221 159 146
221 158 146
221 158 146
221 158 146
221 158 146
221 158 146
220 158 146
220 158 147
220 158 147
220 158 147
220 158 147
220 158 147
220 157 147
220 157 147
220 157 147
220 157 147
220 157 147
220 157 147
220 157 148
220 157 148
220 157 148
220 157 148
219 157 148
219 156 148
219 156 148
219 156 148
219 156 148
219 156 148
219 156 148
219 156 148
219 156 149
219 156 149
219 156 149
219 156 149
219 156 149
219 155 149
219 155 149
219 155 149
219 155 149
219 155 149
218 155 149
218 155 149
218 155 150
218 155 150
218 155 150
218 155 150
218 155 150
218 155 150
218 154 150
218 154 150
218 154 150
218 154 150
218 154 150
218 154 150
218 154 150
218 154 150
218 154 151
218 154 151
218 154 151
218 154 151
217 153 151
217 154 151
217 154 151
217 154 151
218 154 151
218 154 151
218 154 151
218 154 151
218 154 150
218 154 150
218 154 150
218 154 150
218 154 150
218 154 150
218 154 150
218 155 150
218 155 150
218 155 150
218 155 150
218 155 150
218 155 150
218 155 149
218 155 149
219 155 149
219 155 149
219 155 149
219 155 149
219 155 149
219 156 149
219 156 149
219 156 149
219 156 149
219 156 149
219 156 148
219 156 148
219 156 148
219 156 148
219 156 148
219 156 148
219 156 148
219 157 148
220 157 148
220 157 148
220 157 148
220 157 148
220 157 147
220 157 147
220 157 147
220 157 147
220 157 147
220 157 147
220 158 147
220 158 147
220 158 147
220 158 147
220 158 147
220 158 146
221 158 146
221 158 146
221 158 146
221 158 146
221 158 146
221 159 146
221 159 146
221 159 146
221 159 146
221 159 145
221 159 145
221 159 145
221 159 145
221 159 145
221 159 145
221 159 145
222 160 145
222 160 145
222 160 145
222 160 144
222 160 144
222 160 144
222 160 144
222 160 144
222 160 144
222 160 144
222 161 144
222 161 144
222 161 144
222 161 143
222 161 143
223 161 143
223 161 143
223 161 143
223 161 143
223 161 143
223 162 143
223 162 143
223 162 143
223 162 142
223 162 142
223 162 142
223 162 142
223 162 142
223 162 142
224 162 142
224 163 142
224 163 142
224 163 142
224 163 141
224 163 141
224 163 141
224 163 141
224 163 141
224 163 141
224 163 141
224 164 141
224 164 141
224 164 141
224 164 140
225 164 140
225 164 140
225 164 140
225 164 140
225 164 140
225 164 140
225 165 140
225 165 140
225 165 140
225 165 139
225 165 139
225 165 139
225 165 139
225 165 139
225 165 139
226 165 139
226 165 139
226 166 139
226 166 139
226 166 138
226 166 138
226 166 138
226 166 138
226 166 138
226 166 138
226 166 138
226 166 138
226 166 138
226 167 138
226 167 138
226 167 137
227 167 137
227 167 137
227 167 137
227 167 137
227 167 137
227 167 137
227 167 137
227 167 137
227 167 137
227 167 137
227 168 137
227 168 137
227 168 137
227 168 136
227 168 136
227 168 136
227 168 136
227 168 136
227 168 136
227 168 136
227 168 136
227 168 136
228 168 136
228 168 136
228 168 136
228 168 136
228 168 136
228 169 136
228 169 136
228 169 136
228 169 136
228 169 135
228 169 135
228 169 135
228 169 135
228 169 135
228 169 135
228 169 135
228 169 135
228 169 135
228 169 135
228 169 135
228 169 135
228 169 135
228 169 135
228 169 135
228 169 135
228 169 135
228 169 135
228 169 135
228 169 135
228 169 135
228 169 135
228 169 135
228 169 135
228 169 135
228 169 135
228 169 135
228 169 135
228 169 135
228 169 135
228 169 135
228 169 135
228 169 135
228 169 135
228 169 135
228 169 135
228 169 135
228 169 135
228 169 135
228 169 135
228 169 135
228 169 136
228 169 136
228 169 136
228 169 136
228 168 136
228 168 136
228 168 136
228 168 136
228 168 136
228 168 136
227 168 136
227 168 136
227 168 136
227 168 136
227 168 136
227 168 136
227 168 136
227 168 136
227 168 136
227 168 137
227 168 137
227 168 137
227 167 137
227 167 137
227 167 137
227 167 137
227 167 137
227 167 137
227 167 137
227 167 137
227 167 137
227 167 137
226 167 138
226 167 138
226 167 138
226 166 138
226 166 138
226 166 138
226 166 138
226 166 138
226 166 138
226 166 138
226 166 138
226 166 138
226 166 139
226 166 139
226 165 139
226 165 139
225 165 139
225 165 139
225 165 139
225 165 139
225 165 139
225 165 139
225 165 140
225 165 140
225 165 140
225 164 140
225 164 140
225 164 140
225 164 140
225 164 140
225 164 140
225 164 140
224 164 141
224 164 141
224 164 141
224 163 141
224 163 141
224 163 141
224 163 141
224 163 141
224 163 141
224 163 141
224 163 142
224 163 142
224 163 142
224 162 142
223 162 142
223 162 142
223 162 142
223 162 142
223 162 142
223 162 142
223 162 143
223 162 143
223 162 143
223 161 143
223 161 143
223 161 143
223 161 143
223 161 143
222 161 143
222 161 143
222 161 144
222 161 144
222 161 144
222 160 144
222 160 144
222 160 144
222 160 144
222 160 144
222 160 144
222 160 144
222 160 145
222 160 145
222 160 145
221 159 145
221 159 145
221 159 145
221 159 145
221 159 145
221 159 145
221 159 145
221 159 146
221 159 146
221 159 146
221 159 146
221 158 146
221 158 146
221 158 146
221 158 146
221 158 146
220 158 146
220 158 147
220 158 147
220 158 147
220 158 147
220 158 147
220 157 147
220 157 147
220 157 147
220 157 147
220 157 147
220 157 147
220 157 148
220 157 148
220 157 148
220 157 148
219 157 148
219 156 148
219 156 148
219 156 148
219 156 148
219 156 148
219 156 148
219 156 148
219 156 149
219 156 149
219 156 149
219 156 149
219 156 149
219 156 149
219 155 149
219 155 149
219 155 149
219 155 149
218 155 149
218 155 149
218 155 150
218 155 150
218 155 150
218 155 150
218 155 150
218 155 150
218 154 150
218 154 150
218 154 150
218 154 150
218 154 150
218 154 150
218 154 150
218 154 151
218 154 151
218 154 151
218 154 151
217 154 151
217 154 151
217 154 151
217 153 151
217 153 151
217 153 151
217 153 151
217 153 151
217 154 151
217 154 151
217 154 151
218 154 151
218 154 151
218 154 151
218 154 151
218 154 150
218 154 150
218 154 150
218 154 150
218 154 150
218 154 150
218 154 150
218 155 150
218 155 150
218 155 150
218 155 150
218 155 150
218 155 150
218 155 149
218 155 149
219 155 149
219 155 149
219 155 149
219 155 149
219 155 149
219 156 149
219 156 149
219 156 149
219 156 149
219 156 149
219 156 148
219 156 148
219 156 148
219 156 148
219 156 148
219 156 148
219 156 148
219 157 148
220 157 148
220 157 148
220 157 148
220 157 147
220 157 147
220 157 147
220 157 147
220 157 147
220 157 147
220 157 147
220 158 147
220 158 147
220 158 147
220 158 147
220 158 146
220 158 146
221 158 146
221 158 146
221 158 146
221 158 146
221 158 146
221 159 146
221 159 146
221 159 146
221 159 146
221 159 145
221 159 145
221 159 145
221 159 145
221 159 145
221 159 145
222 160 145
222 160 145
222 160 145
222 160 145
222 160 144
222 160 144
222 160 144
222 160 144
222 160 144
222 160 144
222 160 144
222 161 144
222 161 144
222 161 144
222 161 143
223 161 143
223 161 143
223 161 143
223 161 143
223 161 143
223 161 143
223 162 143
223 162 143
223 162 143
223 162 142
223 162 142
223 162 142
223 162 142
223 162 142
223 162 142
224 162 142
224 163 142
224 163 142
224 163 142
224 163 141
224 163 141
224 163 141
224 163 141
224 163 141
224 163 141
224 163 141
224 164 141
224 164 141
224 164 140
225 164 140
225 164 140
225 164 140
225 164 140
225 164 140
225 164 140
225 164 140
225 165 140
225 165 140
225 165 140
225 165 139
225 165 139
225 165 139
225 165 139
225 165 139
225 165 139
226 165 139
226 165 139
226 166 139
226 166 139
226 166 138
226 166 138
226 166 138
226 166 138
226 166 138
226 166 138
226 166 138
226 166 138
226 166 138
226 167 138
226 167 138
226 167 138
226 167 137
227 167 137
227 167 137
227 167 137
227 167 137
227 167 137
227 167 137
227 167 137
227 167 137
227 167 137
227 167 137
227 168 137
227 168 137
227 168 137
227 168 136
227 168 136
227 168 136
227 168 136
227 168 136
227 168 136
227 168 136
227 168 136
227 168 136
227 168 136
227 168 136
228 168 136
228 168 136
228 168 136
228 168 136
228 168 136
228 168 136
228 168 136
228 169 136
228 169 136
228 169 136
228 169 136
228 169 136
228 169 136
228 169 136
228 169 135
228 169 135
228 169 135
228 169 135
228 169 135
228 169 135
228 169 135
228 169 135
228 169 135
228 169 135
228 169 135
228 169 135
228 169 135
228 169 135
228 169 135
228 169 135
228 169 135
228 169 135
228 169 135
228 169 135
228 169 135
228 169 136
228 169 136
228 169 136
228 169 136
228 169 136
228 169 136
228 168 136
228 168 136
228 168 136
228 168 136
228 168 136
228 168 136
228 168 136
227 168 136
227 168 136
227 168 136
227 168 136
227 168 136
227 168 136
227 168 136
227 168 136
227 168 136
227 168 136
227 168 136
227 168 137
227 168 137
227 168 137
227 167 137
227 167 137
227 167 137
227 167 137
227 167 137
227 167 137
227 167 137
227 167 137
227 167 137
227 167 137
226 167 137
226 167 138
226 167 138
226 167 138
226 166 138
226 166 138
226 166 138
226 166 138
226 166 138
226 166 138
226 166 138
226 166 138
226 166 138
226 166 139
226 166 139
226 165 139
226 165 139
225 165 139
225 165 139
225 165 139
225 165 139
225 165 139
225 165 139
225 165 140
225 165 140
225 165 140
225 164 140
225 164 140
225 164 140
225 164 140
225 164 140
225 164 140
225 164 140
224 164 140
224 164 141
224 164 141
224 163 141
224 163 141
224 163 141
224 163 141
224 163 141
224 163 141
224 163 141
224 163 142
224 163 142
224 163 142
224 162 142
223 162 142
223 162 142
223 162 142
223 162 142
223 162 142
223 162 142
223 162 143
223 162 143
223 162 143
223 161 143
223 161 143
223 161 143
223 161 143
223 161 143
223 161 143
222 161 143
222 161 144
222 161 144
222 161 144
222 160 144
222 160 144
222 160 144
222 160 144
222 160 144
222 160 144
222 160 144
222 160 145
222 160 145
222 160 145
221 159 145
221 159 145
221 159 145
221 159 145
221 159 145
221 159 145
221 159 145
221 159 146
221 159 146
221 159 146
221 159 146
221 158 146
221 158 146
221 158 146
221 158 146
221 158 146
220 158 146
220 158 146
220 158 147
220 158 147
220 158 147
220 158 147
220 157 147
220 157 147
220 157 147
220 157 147
220 157 147
220 157 147
220 157 147
220 157 148
220 157 148
220 157 148
219 157 148
219 156 148
219 156 148
219 156 148
219 156 148
219 156 148
219 156 148
219 156 148
219 156 149
219 156 149
219 156 149
219 156 149
219 156 149
219 155 149
219 155 149
219 155 149
219 155 149
219 155 149
218 155 149
218 155 149
218 155 150
218 155 150
218 155 150
218 155 150
218 155 150
218 155 150
218 154 150
218 154 150
218 154 150
218 154 150
218 154 150
218 154 150
218 154 150
218 154 151
218 154 151
218 154 151
218 154 151
217 154 151
217 154 151
217 154 151
217 153 151
217 153 151
217 153 151
217 153 151
217 153 151
217 153 151
217 153 151
217 153 151
217 153 151
217 153 151
217 153 151
217 154 151
217 154 151
217 154 151
218 154 151
218 154 151
218 154 151
218 154 151
218 154 150
218 154 150
218 154 150
218 154 150
218 154 150
218 154 150
218 154 150
218 155 150
218 155 150
218 155 150
218 155 150
218 155 150
218 155 150
218 155 149
218 155 149
219 155 149
219 155 149
219 155 149
219 155 149
219 155 149
219 156 149
219 156 149
219 156 149
219 156 149
219 156 149
219 156 148
219 156 148
219 156 148
219 156 148
219 156 148
219 156 148
219 157 148
220 157 148
220 157 148
220 157 148
220 157 148
220 157 147
220 157 147
220 157 147
220 157 147
220 157 147
220 157 147
220 157 147
220 158 147
220 158 147
220 158 147
220 158 147
220 158 146
220 158 146
221 158 146
221 158 146
221 158 146
221 158 146
221 158 146
221 159 146
221 159 146
221 159 146
221 159 146
221 159 145
221 159 145
221 159 145
221 159 145
221 159 145
221 159 145
222 160 145
222 160 145
222 160 145
222 160 145
222 160 144
222 160 144
222 160 144
222 160 144
222 160 144
222 160 144
222 160 144
222 161 144
222 161 144
222 161 144
222 161 143
223 161 143
223 161 143
223 161 143
223 161 143
223 161 143
223 161 143
223 162 143
223 162 143
223 162 143
223 162 142
223 162 142
223 162 142
223 162 142
223 162 142
223 162 142
224 162 142
224 163 142
224 163 142
224 163 141
224 163 141
224 163 141
224 163 141
224 163 141
224 163 141
224 163 141
224 163 141
224 164 141
224 164 141
224 164 140
225 164 140
225 164 140
225 164 140
225 164 140
225 164 140
225 164 140
225 164 140
225 165 140
225 165 140
225 165 140
225 165 139
225 165 139
225 165 139
225 165 139
225 165 139
225 165 139
226 165 139
226 165 139
226 166 139
226 166 139
226 166 139
226 166 138
226 166 138
226 166 138
226 166 138
226 166 138
226 166 138
226 166 138
226 166 138
226 166 138
226 167 138
226 167 138
226 167 138
226 167 137
227 167 137
227 167 137
227 167 137
227 167 137
227 167 137
227 167 137
227 167 137
227 167 137
227 167 137
227 167 137
227 167 137
227 168 137
227 168 137
227 168 137
227 168 137
227 168 136
227 168 136
227 168 136
227 168 136
227 168 136
227 168 136
227 168 136
227 168 136
227 168 136
227 168 136
227 168 136
227 168 136
227 168 136
228 168 136
228 168 136
228 168 136
228 168 136
228 168 136
228 168 136
228 168 136
228 168 136
228 168 136
228 168 136
228 168 136
228 168 136
228 168 136
228 168 136
228 168 136
228 168 136
228 168 136
228 168 136
228 168 136
228 168 136
228 168 136
228 168 136
228 168 136
228 168 136
228 168 136
228 168 136
228 168 136
228 168 136
228 168 136
228 168 136
228 168 136
228 168 136
227 168 136
227 168 136
227 168 136
227 168 136
227 168 136
227 168 136
227 168 136
227 168 136
227 168 136
227 168 136
227 168 136
227 168 136
227 168 136
227 168 137
227 168 137
227 168 137
227 168 137
227 167 137
227 167 137
227 167 137
227 167 137
227 167 137
227 167 137
227 167 137
227 167 137
227 167 137
227 167 137
227 167 137
226 167 137
226 167 138
226 167 138
226 167 138
226 166 138
226 166 138
226 166 138
226 166 138
226 166 138
226 166 138
226 166 138
226 166 138
226 166 138
226 166 139
226 166 139
226 166 139
226 165 139
226 165 139
225 165 139
225 165 139
225 165 139
225 165 139
225 165 139
225 165 139
225 165 140
225 165 140
225 165 140
225 164 140
225 164 140
225 164 140
225 164 140
225 164 140
225 164 140
225 164 140
224 164 140
224 164 141
224 164 141
224 163 141
224 163 141
224 163 141
224 163 141
224 163 141
224 163 141
224 163 141
224 163 142
224 163 142
224 163 142
224 162 142
223 162 142
223 162 142
223 162 142
223 162 142
223 162 142
223 162 142
223 162 143
223 162 143
223 162 143
223 161 143
223 161 143
223 161 143
223 161 143
223 161 143
223 161 143
222 161 143
222 161 144
222 161 144
222 161 144
222 160 144
222 160 144
222 160 144
222 160 144
222 160 144
222 160 144
222 160 144
222 160 145
222 160 145
222 160 145
222 160 145
221 159 145
221 159 145
221 159 145
221 159 145
221 159 145
221 159 145
221 159 146
221 159 146
221 159 146
221 159 146
221 158 146
221 158 146
221 158 146
221 158 146
221 158 146
220 158 146
220 158 146
220 158 147
220 158 147
220 158 147
220 158 147
220 157 147
220 157 147
220 157 147
220 157 147
220 157 147
220 157 147
220 157 147
220 157 148
220 157 148
220 157 148
220 157 148
219 157 148
219 156 148
219 156 148
219 156 148
219 156 148
219 156 148
219 156 148
219 156 149
219 156 149
219 156 149
219 156 149
219 156 149
219 155 149
219 155 149
219 155 149
219 155 149
219 155 149
218 155 149
218 155 149
218 155 150
218 155 150
218 155 150
218 155 150
218 155 150
218 155 150
218 154 150
218 154 150
218 154 150
218 154 150
218 154 150
218 154 150
218 154 150
218 154 151
218 154 151
218 154 151
218 154 151
217 154 151
217 154 151
217 154 151
217 153 151
217 153 151
217 153 151
217 153 151
217 153 151
217 153 151
217 153 151
217 153 152
217 153 152
217 153 152
217 153 151
217 153 151
217 153 151
217 153 151
217 153 151
217 153 151
217 153 151
217 153 151
217 154 151
217 154 151
218 154 151
218 154 151
218 154 151
218 154 151
218 154 150
218 154 150
218 154 150
218 154 150
218 154 150
218 154 150
218 154 150
218 155 150
218 155 150
218 155 150
218 155 150
218 155 150
218 155 150
218 155 149
218 155 149
219 155 149
219 155 149
219 155 149
219 155 149
219 155 149
219 156 149
219 156 149
219 156 149
219 156 149
219 156 149
219 156 148
219 156 148
219 156 148
219 156 148
219 156 148
219 156 148
219 157 148
220 157 148
220 157 148
220 157 148
220 157 148
220 157 147
220 157 147
220 157 147
220 157 147
220 157 147
220 157 147
220 157 147
220 158 147
220 158 147
220 158 147
220 158 147
220 158 146
220 158 146
221 158 146
221 158 146
221 158 146
221 158 146
221 158 146
221 159 146
221 159 146
221 159 146
221 159 145
221 159 145
221 159 145
221 159 145
221 159 145
221 159 145
221 159 145
222 160 145
222 160 145
222 160 145
222 160 145
222 160 144
222 160 144
222 160 144
222 160 144
222 160 144
222 160 144
222 161 144
222 161 144
222 161 144
222 161 144
222 161 143
223 161 143
223 161 143
223 161 143
223 161 143
223 161 143
223 162 143
223 162 143
223 162 143
223 162 142
223 162 142
223 162 142
223 162 142
223 162 142
223 162 142
224 162 142
224 163 142
224 163 142
224 163 142
224 163 141
224 163 141
224 163 141
224 163 141
224 163 141
224 163 141
224 163 141
224 164 141
224 164 141
224 164 141
224 164 140
225 164 140
225 164 140
225 164 140
225 164 140
225 164 140
225 164 140
225 164 140
225 165 140
225 165 140
225 165 140
225 165 139
225 165 139
225 165 139
225 165 139
225 165 139
225 165 139
226 165 139
226 165 139
226 166 139
226 166 139
226 166 139
226 166 138
226 166 138
226 166 138
226 166 138
226 166 138
226 166 138
226 166 138
226 166 138
226 166 138
226 166 138
226 167 138
226 167 138
226 167 138
226 167 137
227 167 137
227 167 137
227 167 137
227 167 137
227 167 137
227 167 137
227 167 137
227 167 137
227 167 137
227 167 137
227 167 137
227 167 137
227 167 137
227 168 137
227 168 137
227 168 137
227 168 137
227 168 136
227 168 136
227 168 136
227 168 136
227 168 136
227 168 136
227 168 136
227 168 136
227 168 136
227 168 136
227 168 136
227 168 136
227 168 136
227 168 136
227 168 136
227 168 136
227 168 136
227 168 136
227 168 136
227 168 136
227 168 136
227 168 136
227 168 136
227 168 136
227 168 136
227 168 136
227 168 136
227 168 136
227 168 136
227 168 136
227 168 136
227 168 136
227 168 136
227 168 136
227 168 136
227 168 136
227 168 136
227 168 136
227 168 136
227 168 136
227 168 136
227 168 136
227 168 136
227 168 136
227 168 136
227 168 136
227 168 137
227 168 137
227 168 137
227 168 137
227 167 137
227 167 137
227 167 137
227 167 137
227 167 137
227 167 137
227 167 137
227 167 137
227 167 137
227 167 137
227 167 137
227 167 137
227 167 137
226 167 137
226 167 138
226 167 138
226 167 138
226 166 138
226 166 138
226 166 138
226 166 138
226 166 138
226 166 138
226 166 138
226 166 138
226 166 138
226 166 138
226 166 139
226 166 139
226 166 139
226 165 139
226 165 139
225 165 139
225 165 139
225 165 139
225 165 139
225 165 139
225 165 139
225 165 140
225 165 140
225 165 140
225 164 140
225 164 140
225 164 140
225 164 140
225 164 140
225 164 140
225 164 140
224 164 140
224 164 141
224 164 141
224 164 141
224 163 141
224 163 141
224 163 141
224 163 141
224 163 141
224 163 141
224 163 141
224 163 142
224 163 142
224 163 142
223 162 142
223 162 142
223 162 142
223 162 142
223 162 142
223 162 142
223 162 142
223 162 143
223 162 143
223 162 143
223 161 143
223 161 143
223 161 143
223 161 143
223 161 143
222 161 143
222 161 144
222 161 144
222 161 144
222 161 144
222 160 144
222 160 144
222 160 144
222 160 144
222 160 144
222 160 144
222 160 145
222 160 145
222 160 145
222 160 145
221 159 145
221 159 145
221 159 145
221 159 145
221 159 145
221 159 145
221 159 146
221 159 146
221 159 146
221 159 146
221 158 146
221 158 146
221 158 146
221 158 146
221 158 146
220 158 146
220 158 146
220 158 147
220 158 147
220 158 147
220 158 147
220 157 147
220 157 147
220 157 147
220 157 147
220 157 147
220 157 147
220 157 147
220 157 148
220 157 148
220 157 148
220 157 148
219 157 148
219 156 148
219 156 148
219 156 148
219 156 148
219 156 148
219 156 148
219 156 149
219 156 149
219 156 149
219 156 149
219 156 149
219 155 149
219 155 149
219 155 149
219 155 149
219 155 149
218 155 149
218 155 149
218 155 150
218 155 150
218 155 150
218 155 150
218 155 150
218 155 150
218 154 150
218 154 150
218 154 150
218 154 150
218 154 150
218 154 150
218 154 150
218 154 151
218 154 151
218 154 151
218 154 151
217 154 151
217 154 151
217 153 151
217 153 151
217 153 151
217 153 151
217 153 151
217 153 151
217 153 151
217 153 151
217 153 152
217 153 152
217 153 152
217 153 152
217 153 152
217 153 152
217 153 152
217 153 152
217 153 152
217 153 152
217 153 151
217 153 151
217 153 151
217 153 151
217 153 151
217 153 151
217 153 151
217 154 151
217 154 151
218 154 151
218 154 151
218 154 151
218 154 151
218 154 150
218 154 150
218 154 150
218 154 150
218 154 150
218 154 150
218 154 150
218 155 150
218 155 150
218 155 150
218 155 150
218 155 150
218 155 150
218 155 149
218 155 149
219 155 149
219 155 149
219 155 149
219 155 149
219 155 149
219 156 149
219 156 149
219 156 149
219 156 149
219 156 149
219 156 148
219 156 148
219 156 148
219 156 148
219 156 148
219 156 148
219 157 148
219 157 148
220 157 148
220 157 148
220 157 148
220 157 147
220 157 147
220 157 147
220 157 147
220 157 147
220 157 147
220 158 147
220 158 147
220 158 147
220 158 147
220 158 147
220 158 146
220 158 146
221 158 146
221 158 146
221 158 146
221 158 146
221 159 146
221 159 146
221 159 146
221 159 146
221 159 145
221 159 145
221 159 145
221 159 145
221 159 145
221 159 145
221 159 145
222 160 145
222 160 145
222 160 145
222 160 145
222 160 144
222 160 144
222 160 144
222 160 144
222 160 144
222 160 144
222 161 144
222 161 144
222 161 144
222 161 144
222 161 143
223 161 143
223 161 143
223 161 143
223 161 143
223 161 143
223 162 143
223 162 143
223 162 143
223 162 142
223 162 142
223 162 142
223 162 142
223 162 142
223 162 142
224 162 142
224 163 142
224 163 142
224 163 142
224 163 141
224 163 141
224 163 141
224 163 141
224 163 141
224 163 141
224 163 141
224 164 141
224 164 141
224 164 141
224 164 140
225 164 140
225 164 140
225 164 140
225 164 140
225 164 140
225 164 140
225 164 140
225 165 140
225 165 140
225 165 140
225 165 139
225 165 139
225 165 139
225 165 139
225 165 139
225 165 139
225 165 139
226 165 139
226 165 139
226 166 139
226 166 139
226 166 139
226 166 138
226 166 138
226 166 138
226 166 138
226 166 138
226 166 138
226 166 138
226 166 138
226 166 138
226 166 138
226 167 138
226 167 138
226 167 138
226 167 138
226 167 137
227 167 137
227 167 137
227 167 137
227 167 137
227 167 137
227 167 137
227 167 137
227 167 137
227 167 137
227 167 137
227 167 137
227 167 137
227 167 137
227 167 137
227 168 137
227 168 137
227 168 137
227 168 137
227 168 137
227 168 137
227 168 137
227 168 136
227 168 136
227 168 136
227 168 136
227 168 136
227 168 136
227 168 136
227 168 136
227 168 136
227 168 136
227 168 136
227 168 136
227 168 136
227 168 136
227 168 136
227 168 136
227 168 136
227 168 136
227 168 136
227 168 136
227 168 136
227 168 136
227 168 136
227 168 136
227 168 136
227 168 136
227 168 136
227 168 136
227 168 136
227 168 137
227 168 137
227 168 137
227 168 137
227 168 137
227 167 137
227 167 137
227 167 137
227 167 137
227 167 137
227 167 137
227 167 137
227 167 137
227 167 137
227 167 137
227 167 137
227 167 137
227 167 137
227 167 137
227 167 137
226 167 137
226 167 138
226 167 138
226 167 138
226 166 138
226 166 138
226 166 138
226 166 138
226 166 138
226 166 138
226 166 138
226 166 138
226 166 138
226 166 138
226 166 138
226 166 139
226 166 139
226 166 139
226 165 139
226 165 139
225 165 139
225 165 139
225 165 139
225 165 139
225 165 139
225 165 139
225 165 139
225 165 140
225 165 140
225 165 140
225 164 140
225 164 140
225 164 140
225 164 140
225 164 140
225 164 140
225 164 140
224 164 140
224 164 141
224 164 141
224 164 141
224 163 141
224 163 141
224 163 141
224 163 141
224 163 141
224 163 141
224 163 141
224 163 142
224 163 142
224 163 142
224 162 142
223 162 142
223 162 142
223 162 142
223 162 142
223 162 142
223 162 142
223 162 143
223 162 143
223 162 143
223 161 143
223 161 143
223 161 143
223 161 143
223 161 143
222 161 143
222 161 143
222 161 144
222 161 144
222 161 144
222 160 144
222 160 144
222 160 144
222 160 144
222 160 144
222 160 144
222 160 144
222 160 145
222 160 145
222 160 145
221 159 145
221 159 145
221 159 145
221 159 145
221 159 145
221 159 145
221 159 145
221 159 146
221 159 146
221 159 146
221 158 146
221 158 146
221 158 146
221 158 146
221 158 146
221 158 146
220 158 146
220 158 147
220 158 147
220 158 147
220 158 147
220 157 147
220 157 147
220 157 147
220 157 147
220 157 147
220 157 147
220 157 147
220 157 148
220 157 148
220 157 148
220 157 148
219 157 148
219 156 148
219 156 148
219 156 148
219 156 148
219 156 148
219 156 148
219 156 149
219 156 149
219 156 149
219 156 149
219 156 149
219 155 149
219 155 149
219 155 149
219 155 149
219 155 149
218 155 149
218 155 149
218 155 150
218 155 150
218 155 150
218 155 150
218 155 150
218 155 150
218 154 150
218 154 150
218 154 150
218 154 150
218 154 150
218 154 150
218 154 150
218 154 151
218 154 151
218 154 151
218 154 151
217 154 151
217 154 151
217 153 151
217 153 151
217 153 151
217 153 151
217 153 151
217 153 151
217 153 151
217 153 152
217 153 152
217 153 152
217 153 152
217 153 152
217 153 152
217 153 152
217 152 152
217 152 152
217 152 152
217 153 152
217 153 152
217 153 152
217 153 152
217 153 152
217 153 152
217 153 152
217 153 151
217 153 151
217 153 151
217 153 151
217 153 151
217 153 151
217 153 151
217 154 151
217 154 151
217 154 151
218 154 151
218 154 151
218 154 151
218 154 150
218 154 150
218 154 150
218 154 150
218 154 150
218 154 150
218 154 150
218 155 150
218 155 150
218 155 150
218 155 150
218 155 150
218 155 150
218 155 149
218 155 149
219 155 149
219 155 149
219 155 149
219 155 149
219 155 149
219 156 149
219 156 149
219 156 149
219 156 149
219 156 149
219 156 148
219 156 148
219 156 148
219 156 148
219 156 148
219 156 148
219 157 148
220 157 148
220 157 148
220 157 148
220 157 148
220 157 147
220 157 147
220 157 147
220 157 147
220 157 147
220 157 147
220 157 147
220 158 147
220 158 147
220 158 147
220 158 147
220 158 146
220 158 146
221 158 146
221 158 146
221 158 146
221 158 146
221 159 146
221 159 146
221 159 146
221 159 146
221 159 145
221 159 145
221 159 145
221 159 145
221 159 145
221 159 145
221 159 145
222 160 145
222 160 145
222 160 145
222 160 145
222 160 144
222 160 144
222 160 144
222 160 144
222 160 144
222 160 144
222 161 144
222 161 144
222 161 144
222 161 143
222 161 143
223 161 143
223 161 143
223 161 143
223 161 143
223 161 143
223 162 143
223 162 143
223 162 143
223 162 142
223 162 142
223 162 142
223 162 142
223 162 142
223 162 142
224 162 142
224 163 142
224 163 142
224 163 142
224 163 141
224 163 141
224 163 141
224 163 141
224 163 141
224 163 141
224 163 141
224 163 141
224 164 141
224 164 141
224 164 141
224 164 140
225 164 140
225 164 140
225 164 140
225 164 140
225 164 140
225 164 140
225 164 140
225 165 140
225 165 140
225 165 140
225 165 139
225 165 139
225 165 139
225 165 139
225 165 139
225 165 139
226 165 139
226 165 139
226 165 139
226 166 139
226 166 139
226 166 139
226 166 138
226 166 138
226 166 138
226 166 138
226 166 138
226 166 138
226 166 138
226 166 138
226 166 138
226 166 138
226 166 138
226 167 138
226 167 138
226 167 138
226 167 138
226 167 137
227 167 137
227 167 137
227 167 137
227 167 137
227 167 137
227 167 137
227 167 137
227 167 137
227 167 137
227 167 137
227 167 137
227 167 137
227 167 137
227 167 137
227 167 137
227 167 137
227 167 137
227 167 137
227 167 137
227 167 137
227 167 137
227 168 137
227 168 137
227 168 137
227 168 137
227 168 137
227 168 137
227 168 137
227 168 137
227 168 137
227 168 137
227 168 137
227 168 137
227 168 137
227 168 137
227 168 137
227 168 137
227 168 137
227 168 137
227 167 137
227 167 137
227 167 137
227 167 137
227 167 137
227 167 137
227 167 137
227 167 137
227 167 137
227 167 137
227 167 137
227 167 137
227 167 137
227 167 137
227 167 137
227 167 137
227 167 137
227 167 137
227 167 137
227 167 137
227 167 137
226 167 137
226 167 138
226 167 138
226 167 138
226 167 138
226 166 138
226 166 138
226 166 138
226 166 138
226 166 138
226 166 138
226 166 138
226 166 138
226 166 138
226 166 138
226 166 138
226 166 139
226 166 139
226 166 139
226 165 139
226 165 139
225 165 139
225 165 139
225 165 139
225 165 139
225 165 139
225 165 139
225 165 139
225 165 140
225 165 140
225 165 140
225 164 140
225 164 140
225 164 140
225 164 140
225 164 140
225 164 140
225 164 140
224 164 140
224 164 141
224 164 141
224 164 141
224 163 141
224 163 141
224 163 141
224 163 141
224 163 141
224 163 141
224 163 141
224 163 141
224 163 142
224 163 142
224 163 142
224 162 142
223 162 142
223 162 142
223 162 142
223 162 142
223 162 142
223 162 142
223 162 143
223 162 143
223 162 143
223 161 143
223 161 143
223 161 143
223 161 143
223 161 143
222 161 143
222 161 143
222 161 144
222 161 144
222 161 144
222 160 144
222 160 144
222 160 144
222 160 144
222 160 144
222 160 144
222 160 144
222 160 145
222 160 145
222 160 145
221 159 145
221 159 145
221 159 145
221 159 145
221 159 145
221 159 145
221 159 145
221 159 146
221 159 146
221 159 146
221 159 146
221 158 146
221 158 146
221 158 146
221 158 146
220 158 146
220 158 146
220 158 147
220 158 147
220 158 147
220 158 147
220 157 147
220 157 147
220 157 147
220 157 147
220 157 147
220 157 147
220 157 147
220 157 148
220 157 148
220 157 148
220 157 148
219 157 148
219 156 148
219 156 148
219 156 148
219 156 148
219 156 148
219 156 148
219 156 149
219 156 149
219 156 149
219 156 149
219 156 149
219 155 149
219 155 149
219 155 149
219 155 149
219 155 149
218 155 149
218 155 149
218 155 150
218 155 150
218 155 150
218 155 150
218 155 150
218 155 150
218 154 150
218 154 150
218 154 150
218 154 150
218 154 150
218 154 150
218 154 150
218 154 151
218 154 151
218 154 151
217 154 151
217 154 151
217 154 151
217 153 151
217 153 151
217 153 151
217 153 151
217 153 151
217 153 151
217 153 151
217 153 152
217 153 152
217 153 152
217 153 152
217 153 152
217 153 152
217 153 152
217 152 152
217 152 152
217 152 152
216 152 152
216 152 152
217 152 152
217 152 152
217 152 152
217 152 152
217 153 152
217 153 152
217 153 152
217 153 152
217 153 152
217 153 152
217 153 152
217 153 152
217 153 151
217 153 151
217 153 151
217 153 151
217 153 151
217 153 151
217 154 151
217 154 151
217 154 151
218 154 151
218 154 151
218 154 151
218 154 151
218 154 150
218 154 150
218 154 150
218 154 150
218 154 150
218 154 150
218 155 150
218 155 150
218 155 150
218 155 150
218 155 150
218 155 150
218 155 149
218 155 149
219 155 149
219 155 149
219 155 149
219 155 149
219 155 149
219 156 149
219 156 149
219 156 149
219 156 149
219 156 149
219 156 148
219 156 148
219 156 148
219 156 148
219 156 148
219 156 148
219 157 148
220 157 148
220 157 148
220 157 148
220 157 148
220 157 147
220 157 147
220 157 147
220 157 147
220 157 147
220 157 147
220 158 147
220 158 147
220 158 147
220 158 147
220 158 147
220 158 146
221 158 146
221 158 146
221 158 146
221 158 146
221 158 146
221 159 146
221 159 146
221 159 146
221 159 146
221 159 145
221 159 145
221 159 145
221 159 145
221 159 145
221 159 145
221 159 145
222 160 145
222 160 145
222 160 145
222 160 144
222 160 144
222 160 144
222 160 144
222 160 144
222 160 144
222 160 144
222 161 144
222 161 144
222 161 144
222 161 143
223 161 143
223 161 143
223 161 143
223 161 143
223 161 143
223 161 143
223 162 143
223 162 143
223 162 143
223 162 142
223 162 142
223 162 142
223 162 142
223 162 142
223 162 142
224 162 142
224 163 142
224 163 142
224 163 142
224 163 141
224 163 141
224 163 141
224 163 141
224 163 141
224 163 141
224 163 141
224 163 141
224 164 141
224 164 141
224 164 141
224 164 140
225 164 140
225 164 140
225 164 140
225 164 140
225 164 140
225 164 140
225 164 140
225 165 140
225 165 140
225 165 140
225 165 139
225 165 139
225 165 139
225 165 139
225 165 139
225 165 139
225 165 139
226 165 139
226 165 139
226 165 139
226 166 139
226 166 139
226 166 139
226 166 138
226 166 138
226 166 138
226 166 138
226 166 138
226 166 138
226 166 138
226 166 138
226 166 138
226 166 138
226 166 138
226 166 138
226 166 138
226 167 138
226 167 138
226 167 138
226 167 138
226 167 137
226 167 137
227 167 137
227 167 137
227 167 137
227 167 137
227 167 137
227 167 137
227 167 137
227 167 137
227 167 137
227 167 137
227 167 137
227 167 137
227 167 137
227 167 137
227 167 137
227 167 137
227 167 137
227 167 137
227 167 137
227 167 137
227 167 137
227 167 137
227 167 137
227 167 137
227 167 137
227 167 137
227 167 137
227 167 137
227 167 137
227 167 137
227 167 137
227 167 137
227 167 137
227 167 137
227 167 137
227 167 137
227 167 137
227 167 137
227 167 137
227 167 137
227 167 137
227 167 137
227 167 137
227 167 137
227 167 137
227 167 137
226 167 137
226 167 137
226 167 138
226 167 138
226 167 138
226 167 138
226 166 138
226 166 138
226 166 138
226 166 138
226 166 138
226 166 138
226 166 138
226 166 138
226 166 138
226 166 138
226 166 138
226 166 138
226 166 138
226 166 139
226 166 139
226 166 139
226 165 139
226 165 139
226 165 139
225 165 139
225 165 139
225 165 139
225 165 139
225 165 139
225 165 139
225 165 139
225 165 140
225 165 140
225 165 140
225 164 140
225 164 140
225 164 140
225 164 140
225 164 140
225 164 140
225 164 140
224 164 140
224 164 141
224 164 141
224 164 141
224 163 141
224 163 141
224 163 141
224 163 141
224 163 141
224 163 141
224 163 141
224 163 141
224 163 142
224 163 142
224 163 142
223 162 142
223 162 142
223 162 142
223 162 142
223 162 142
223 162 142
223 162 142
223 162 143
223 162 143
223 162 143
223 161 143
223 161 143
223 161 143
223 161 143
223 161 143
222 161 143
222 161 143
222 161 144
222 161 144
222 161 144
222 160 144
222 160 144
222 160 144
222 160 144
222 160 144
222 160 144
222 160 144
222 160 145
222 160 145
222 160 145
221 159 145
221 159 145
221 159 145
221 159 145
221 159 145
221 159 145
221 159 145
221 159 146
221 159 146
221 159 146
221 159 146
221 158 146
221 158 146
221 158 146
221 158 146
221 158 146
220 158 146
220 158 147
220 158 147
220 158 147
220 158 147
220 158 147
220 157 147
220 157 147
220 157 147
220 157 147
220 157 147
220 157 147
220 157 148
220 157 148
220 157 148
219 157 148
219 157 148
219 156 148
219 156 148
219 156 148
219 156 148
219 156 148
219 156 148
219 156 149
219 156 149
219 156 149
219 156 149
219 156 149
219 155 149
219 155 149
219 155 149
219 155 149
218 155 149
218 155 149
218 155 149
218 155 150
218 155 150
218 155 150
218 155 150
218 155 150
218 155 150
218 154 150
218 154 150
218 154 150
218 154 150
218 154 150
218 154 150
218 154 151
218 154 151
218 154 151
218 154 151
217 154 151
217 154 151
217 154 151
217 153 151
217 153 151
217 153 151
217 153 151
217 153 151
217 153 151
217 153 151
217 153 152
217 153 152
217 153 152
217 153 152
217 153 152
217 153 152
217 153 152
217 152 152
217 152 152
217 152 152
217 152 152
216 152 152
216 152 152
216 152 153
216 152 153
216 152 153
216 152 152
216 152 152
216 152 152
217 152 152
217 152 152
217 152 152
217 152 152
217 153 152
217 153 152
217 153 152
217 153 152
217 153 152
217 153 152
217 153 152
217 153 151
217 153 151
217 153 151
217 153 151
217 153 151
217 153 151
217 153 151
217 154 151
217 154 151
218 154 151
218 154 151
218 154 151
218 154 151
218 154 150
218 154 150
218 154 150
218 154 150
218 154 150
218 154 150
218 155 150
218 155 150
218 155 150
218 155 150
218 155 150
218 155 150
218 155 149
218 155 149
219 155 149
219 155 149
219 155 149
219 155 149
219 155 149
219 156 149
219 156 149
219 156 149
219 156 149
219 156 149
219 156 148
219 156 148
219 156 148
219 156 148
219 156 148
219 156 148
219 157 148
220 157 148
220 157 148
220 157 148
220 157 148
220 157 147
220 157 147
220 157 147
220 157 147
220 157 147
220 157 147
220 158 147
220 158 147
220 158 147
220 158 147
220 158 147
220 158 146
221 158 146
221 158 146
221 158 146
221 158 146
221 158 146
221 159 146
221 159 146
221 159 146
221 159 146
221 159 145
221 159 145
221 159 145
221 159 145
221 159 145
221 159 145
221 159 145
222 160 145
222 160 145
222 160 145
222 160 144
222 160 144
222 160 144
222 160 144
222 160 144
222 160 144
222 160 144
222 161 144
222 161 144
222 161 144
222 161 143
222 161 143
223 161 143
223 161 143
223 161 143
223 161 143
223 161 143
223 162 143
223 162 143
223 162 143
223 162 142
223 162 142
223 162 142
223 162 142
223 162 142
223 162 142
223 162 142
224 162 142
224 163 142
224 163 142
224 163 141
224 163 141
224 163 141
224 163 141
224 163 141
224 163 141
224 163 141
224 163 141
224 164 141
224 164 141
224 164 141
224 164 140
225 164 140
225 164 140
225 164 140
225 164 140
225 164 140
225 164 140
225 164 140
225 164 140
225 165 140
225 165 140
225 165 140
225 165 139
225 165 139
225 165 139
225 165 139
225 165 139
225 165 139
225 165 139
226 165 139
226 165 139
226 165 139
226 166 139
226 166 139
226 166 139
226 166 139
226 166 138
226 166 138
226 166 138
226 166 138
226 166 138
226 166 138
226 166 138
226 166 138
226 166 138
226 166 138
226 166 138
226 166 138
226 166 138
226 166 138
226 167 138
226 167 138
226 167 138
226 167 138
226 167 138
226 167 138
226 167 137
226 167 137
226 167 137
227 167 137
227 167 137
227 167 137
227 167 137
227 167 137
227 167 137
227 167 137
227 167 137
227 167 137
227 167 137
227 167 137
227 167 137
227 167 137
227 167 137
227 167 137
227 167 137
227 167 137
227 167 137
227 167 137
227 167 137
227 167 137
227 167 137
227 167 137
227 167 137
227 167 137
227 167 137
227 167 137
227 167 137
227 167 137
226 167 137
226 167 137
226 167 138
226 167 138
226 167 138
226 167 138
226 167 138
226 166 138
226 166 138
226 166 138
226 166 138
226 166 138
226 166 138
226 166 138
226 166 138
226 166 138
226 166 138
226 166 138
226 166 138
226 166 138
226 166 138
226 166 138
226 166 139
226 166 139
226 166 139
226 166 139
226 165 139
226 165 139
225 165 139
225 165 139
225 165 139
225 165 139
225 165 139
225 165 139
225 165 139
225 165 139
225 165 140
225 165 140
225 165 140
225 164 140
225 164 140
225 164 140
225 164 140
225 164 140
225 164 140
225 164 140
225 164 140
224 164 140
224 164 141
224 164 141
224 164 141
224 163 141
224 163 141
224 163 141
224 163 141
224 163 141
224 163 141
224 163 141
224 163 142
224 163 142
224 163 142
224 163 142
223 162 142
223 162 142
223 162 142
223 162 142
223 162 142
223 162 142
223 162 142
223 162 143
223 162 143
223 162 143
223 161 143
223 161 143
223 161 143
223 161 143
223 161 143
222 161 143
222 161 143
222 161 144
222 161 144
222 161 144
222 160 144
222 160 144
222 160 144
222 160 144
222 160 144
222 160 144
222 160 144
222 160 145
222 160 145
222 160 145
221 159 145
221 159 145
221 159 145
221 159 145
221 159 145
221 159 145
221 159 145
221 159 146
221 159 146
221 159 146
221 159 146
221 158 146
221 158 146
221 158 146
221 158 146
221 158 146
220 158 146
220 158 147
220 158 147
220 158 147
220 158 147
220 157 147
220 157 147
220 157 147
220 157 147
220 157 147
220 157 147
220 157 147
220 157 148
220 157 148
220 157 148
220 157 148
219 157 148
219 156 148
219 156 148
219 156 148
219 156 148
219 156 148
219 156 148
219 156 149
219 156 149
219 156 149
219 156 149
219 156 149
219 155 149
219 155 149
219 155 149
219 155 149
219 155 149
218 155 149
218 155 149
218 155 150
218 155 150
218 155 150
218 155 150
218 155 150
218 154 150
218 154 150
218 154 150
218 154 150
218 154 150
218 154 150
218 154 150
218 154 151
218 154 151
218 154 151
218 154 151
217 154 151
217 154 151
217 153 151
217 153 151
217 153 151
217 153 151
217 153 151
217 153 151
217 153 151
217 153 152
217 153 152
217 153 152
217 153 152
217 153 152
217 153 152
217 153 152
217 152 152
217 152 152
217 152 152
217 152 152
216 152 152
216 152 152
216 152 152
216 152 153
216 152 153
216 152 153
216 152 153
216 152 153
216 152 153
216 152 153
216 152 153
216 152 153
216 152 152
216 152 152
216 152 152
217 152 152
217 152 152
217 152 152
217 152 152
217 153 152
217 153 152
217 153 152
217 153 152
217 153 152
217 153 152
217 153 152
217 153 151
217 153 151
217 153 151
217 153 151
217 153 151
217 153 151
217 153 151
217 154 151
217 154 151
218 154 151
218 154 151
218 154 151
218 154 151
218 154 150
218 154 150
218 154 150
218 154 150
218 154 150
218 154 150
218 154 150
218 155 150
218 155 150
218 155 150
218 155 150
218 155 150
218 155 149
218 155 149
218 155 149
219 155 149
219 155 149
219 155 149
219 155 149
219 156 149
219 156 149
219 156 149
219 156 149
219 156 149
219 156 148
219 156 148
219 156 148
219 156 148
219 156 148
219 156 148
219 156 148
219 157 148
220 157 148
220 157 148
220 157 148
220 157 147
220 157 147
220 157 147
220 157 147
220 157 147
220 157 147
220 157 147
220 158 147
220 158 147
220 158 147
220 158 147
220 158 146
221 158 146
221 158 146
221 158 146
221 158 146
221 158 146
221 159 146
221 159 146
221 159 146
221 159 146
221 159 145
221 159 145
221 159 145
221 159 145
221 159 145
221 159 145
221 159 145
222 160 145
222 160 145
222 160 145
222 160 144
222 160 144
222 160 144
222 160 144
222 160 144
222 160 144
222 160 144
222 161 144
222 161 144
222 161 144
222 161 143
222 161 143
223 161 143
223 161 143
223 161 143
223 161 143
223 161 143
223 162 143
223 162 143
223 162 143
223 162 142
223 162 142
223 162 142
223 162 142
223 162 142
223 162 142
223 162 142
224 162 142
224 163 142
224 163 142
224 163 142
224 163 141
224 163 141
224 163 141
224 163 141
224 163 141
224 163 141
224 163 141
224 163 141
224 164 141
224 164 141
224 164 141
224 164 140
225 164 140
225 164 140
225 164 140
225 164 140
225 164 140
225 164 140
225 164 140
225 164 140
225 165 140
225 165 140
225 165 140
225 165 139
225 165 139
225 165 139
225 165 139
225 165 139
225 165 139
225 165 139
225 165 139
226 165 139
226 165 139
226 165 139
226 166 139
226 166 139
226 166 139
226 166 139
226 166 138
226 166 138
226 166 138
226 166 138
226 166 138
226 166 138
226 166 138
226 166 138
226 166 138
226 166 138
226 166 138
226 166 138
226 166 138
226 166 138
226 166 138
226 166 138
226 166 138
226 166 138
226 166 138
226 166 138
226 167 138
226 167 138
226 167 138
226 167 138
226 167 138
226 167 138
226 167 138
226 167 138
226 167 138
226 167 138
226 167 138
226 167 138
226 167 138
226 167 138
226 167 138
226 167 138
226 167 138
226 167 138
226 167 138
226 167 138
226 167 138
226 167 138
226 167 138
226 167 138
226 167 138
226 166 138
226 166 138
226 166 138
226 166 138
226 166 138
226 166 138
226 166 138
226 166 138
226 166 138
226 166 138
226 166 138
226 166 138
226 166 138
226 166 138
226 166 138
226 166 138
226 166 138
226 166 138
226 166 138
226 166 139
226 166 139
226 166 139
226 166 139
226 165 139
226 165 139
226 165 139
225 165 139
225 165 139
225 165 139
225 165 139
225 165 139
225 165 139
225 165 139
225 165 139
225 165 140
225 165 140
225 165 140
225 164 140
225 164 140
225 164 140
225 164 140
225 164 140
225 164 140
225 164 140
225 164 140
224 164 140
224 164 141
224 164 141
224 164 141
224 163 141
224 163 141
224 163 141
224 163 141
224 163 141
224 163 141
224 163 141
224 163 141
224 163 142
224 163 142
224 163 142
224 162 142
223 162 142
223 162 142
223 162 142
223 162 142
223 162 142
223 162 142
223 162 142
223 162 143
223 162 143
223 162 143
223 161 143
223 161 143
223 161 143
223 161 143
223 161 143
222 161 143
222 161 143
222 161 144
222 161 144
222 161 144
222 160 144
222 160 144
222 160 144
222 160 144
222 160 144
222 160 144
222 160 144
222 160 145
222 160 145
222 160 145
221 159 145
221 159 145
221 159 145
221 159 145
221 159 145
221 159 145
221 159 145
221 159 146
221 159 146
221 159 146
221 159 146
221 158 146
221 158 146
221 158 146
221 158 146
221 158 146
220 158 146
220 158 147
220 158 147
220 158 147
220 158 147
220 157 147
220 157 147
220 157 147
220 157 147
220 157 147
220 157 147
220 157 147
220 157 148
220 157 148
220 157 148
220 157 148
219 157 148
219 156 148
219 156 148
219 156 148
219 156 148
219 156 148
219 156 148
219 156 149
219 156 149
219 156 149
219 156 149
219 156 149
219 155 149
219 155 149
219 155 149
219 155 149
218 155 149
218 155 149
218 155 149
218 155 150
218 155 150
218 155 150
218 155 150
218 155 150
218 154 150
218 154 150
218 154 150
218 154 150
218 154 150
218 154 150
218 154 150
218 154 151
218 154 151
218 154 151
218 154 151
217 154 151
217 154 151
217 153 151
217 153 151
217 153 151
217 153 151
217 153 151
217 153 151
217 153 151
217 153 152
217 153 152
217 153 152
217 153 152
217 153 152
217 153 152
217 153 152
217 152 152
217 152 152
217 152 152
217 152 152
216 152 152
216 152 152
216 152 152
216 152 153
216 152 153
216 152 153
216 152 153
216 152 153
216 152 153
216 151 153
216 151 153
216 152 153
216 152 153
216 152 153
216 152 153
216 152 153
216 152 153
216 152 153
216 152 153
216 152 152
216 152 152
216 152 152
217 152 152
217 152 152
217 152 152
217 152 152
217 153 152
217 153 152
217 153 152
217 153 152
217 153 152
217 153 152
217 153 151
217 153 151
217 153 151
217 153 151
217 153 151
217 153 151
217 153 151
217 154 151
217 154 151
218 154 151
218 154 151
218 154 151
218 154 151
218 154 150
218 154 150
218 154 150
218 154 150
218 154 150
218 154 150
218 154 150
218 155 150
218 155 150
218 155 150
218 155 150
218 155 150
218 155 149
218 155 149
218 155 149
219 155 149
219 155 149
219 155 149
219 155 149
219 156 149
219 156 149
219 156 149
219 156 149
219 156 149
219 156 148
219 156 148
219 156 148
219 156 148
219 156 148
219 156 148
219 157 148
219 157 148
220 157 148
220 157 148
220 157 148
220 157 147
220 157 147
220 157 147
220 157 147
220 157 147
220 157 147
220 157 147
220 158 147
220 158 147
220 158 147
220 158 147
220 158 146
221 158 146
221 158 146
221 158 146
221 158 146
221 158 146
221 159 146
221 159 146
221 159 146
221 159 146
221 159 145
221 159 145
221 159 145
221 159 145
221 159 145
221 159 145
221 159 145
222 160 145
222 160 145
222 160 145
222 160 144
222 160 144
222 160 144
222 160 144
222 160 144
222 160 144
222 160 144
222 161 144
222 161 144
222 161 144
222 161 143
222 161 143
223 161 143
223 161 143
223 161 143
223 161 143
223 161 143
223 162 143
223 162 143
223 162 143
223 162 143
223 162 142
223 162 142
223 162 142
223 162 142
223 162 142
223 162 142
224 162 142
224 163 142
224 163 142
224 163 142
224 163 141
224 163 141
224 163 141
224 163 141
224 163 141
224 163 141
224 163 141
224 163 141
224 164 141
224 164 141
224 164 141
224 164 141
224 164 140
225 164 140
225 164 140
225 164 140
225 164 140
225 164 140
225 164 140
225 164 140
225 164 140
225 165 140
225 165 140
225 165 140
225 165 139
225 165 139
225 165 139
225 165 139
225 165 139
225 165 139
225 165 139
225 165 139
225 165 139
226 165 139
226 165 139
226 165 139
226 165 139
226 166 139
226 166 139
226 166 139
226 166 139
226 166 138
226 166 138
226 166 138
226 166 138
226 166 138
226 166 138
226 166 138
226 166 138
226 166 138
226 166 138
226 166 138
226 166 138
226 166 138
226 166 138
226 166 138
226 166 138
226 166 138
226 166 138
226 166 138
226 166 138
226 166 138
226 166 138
226 166 138
226 166 138
226 166 138
226 166 138
226 166 138
226 166 138
226 166 138
226 166 138
226 166 138
226 166 138
226 166 138
226 166 138
226 166 138
226 166 138
226 166 138
226 166 138
226 166 138
226 166 138
226 166 138
226 166 138
226 166 138
226 166 138
226 166 138
226 166 138
226 166 138
226 166 138
226 166 138
226 166 138
226 166 138
226 166 139
226 166 139
226 166 139
226 166 139
226 166 139
226 165 139
226 165 139
226 165 139
225 165 139
225 165 139
225 165 139
225 165 139
225 165 139
225 165 139
225 165 139
225 165 139
225 165 139
225 165 140
225 165 140
225 165 140
225 165 140
225 164 140
225 164 140
225 164 140
225 164 140
225 164 140
225 164 140
225 164 140
225 164 140
224 164 140
224 164 141
224 164 141
224 164 141
224 163 141
224 163 141
224 163 141
224 163 141
224 163 141
224 163 141
224 163 141
224 163 141
224 163 141
224 163 142
224 163 142
224 163 142
224 162 142
223 162 142
223 162 142
223 162 142
223 162 142
223 162 142
223 162 142
223 162 143
223 162 143
223 162 143
223 162 143
223 161 143
223 161 143
223 161 143
223 161 143
223 161 143
222 161 143
222 161 143
222 161 144
222 161 144
222 161 144
222 160 144
222 160 144
222 160 144
222 160 144
222 160 144
222 160 144
222 160 144
222 160 145
222 160 145
222 160 145
221 159 145
221 159 145
221 159 145
221 159 145
221 159 145
221 159 145
221 159 145
221 159 146
221 159 146
221 159 146
221 159 146
221 158 146
221 158 146
221 158 146
221 158 146
221 158 146
220 158 146
220 158 147
220 158 147
220 158 147
220 158 147
220 158 147
220 157 147
220 157 147
220 157 147
220 157 147
220 157 147
220 157 147
220 157 148
220 157 148
220 157 148
219 157 148
219 156 148
219 156 148
219 156 148
219 156 148
219 156 148
219 156 148
219 156 148
219 156 149
219 156 149
219 156 149
219 156 149
219 156 149
219 155 149
219 155 149
219 155 149
219 155 149
218 155 149
218 155 149
218 155 149
218 155 150
218 155 150
218 155 150
218 155 150
218 155 150
218 154 150
218 154 150
218 154 150
218 154 150
218 154 150
218 154 150
218 154 150
218 154 151
218 154 151
218 154 151
217 154 151
217 154 151
217 154 151
217 153 151
217 153 151
217 153 151
217 153 151
217 153 151
217 153 151
217 153 151
217 153 152
217 153 152
217 153 152
217 153 152
217 153 152
217 153 152
217 152 152
217 152 152
217 152 152
217 152 152
216 152 152
216 152 152
216 152 152
216 152 153
216 152 153
216 152 153
216 152 153
216 152 153
216 152 153
216 152 153
216 152 153
216 151 153
216 151 153
216 151 153
216 151 153
216 151 153
216 151 153
216 151 153
216 151 153
216 152 153
216 152 153
216 152 153
216 152 153
216 152 153
216 152 153
216 152 153
216 152 152
216 152 152
216 152 152
217 152 152
217 152 152
217 152 152
217 152 152
217 153 152
217 153 152
217 153 152
217 153 152
217 153 152
217 153 152
217 153 152
217 153 151
217 153 151
217 153 151
217 153 151
217 153 151
217 153 151
217 154 151
217 154 151
217 154 151
218 154 151
218 154 151
218 154 151
218 154 151
218 154 150
218 154 150
218 154 150
218 154 150
218 154 150
218 154 150
218 155 150
218 155 150
218 155 150
218 155 150
218 155 150
218 155 150
218 155 149
218 155 149
219 155 149
219 155 149
219 155 149
219 155 149
219 156 149
219 156 149
219 156 149
219 156 149
219 156 149
219 156 148
219 156 148
219 156 148
219 156 148
219 156 148
219 156 148
219 156 148
219 157 148
220 157 148
220 157 148
220 157 148
220 157 147
220 157 147
220 157 147
220 157 147
220 157 147
220 157 147
220 157 147
220 158 147
220 158 147
220 158 147
220 158 147
220 158 146
221 158 146
221 158 146
221 158 146
221 158 146
221 158 146
221 159 146
221 159 146
221 159 146
221 159 146
221 159 145
221 159 145
221 159 145
221 159 145
221 159 145
221 159 145
221 159 145
222 160 145
222 160 145
222 160 145
222 160 144
222 160 144
222 160 144
222 160 144
222 160 144
222 160 144
222 160 144
222 161 144
222 161 144
222 161 144
222 161 144
222 161 143
223 161 143
223 161 143
223 161 143
223 161 143
223 161 143
223 161 143
223 162 143
223 162 143
223 162 143
223 162 142
223 162 142
223 162 142
223 162 142
223 162 142
223 162 142
223 162 142
224 162 142
224 163 142
224 163 142
224 163 142
224 163 141
224 163 141
224 163 141
224 163 141
224 163 141
224 163 141
224 163 141
224 163 141
224 164 141
224 164 141
224 164 141
224 164 140
224 164 140
225 164 140
225 164 140
225 164 140
225 164 140
225 164 140
225 164 140
225 164 140
225 164 140
225 165 140
225 165 140
225 165 140
225 165 140
225 165 139
225 165 139
225 165 139
225 165 139
225 165 139
225 165 139
225 165 139
225 165 139
225 165 139
225 165 139
225 165 139
226 165 139
226 165 139
226 165 139
226 166 139
226 166 139
226 166 139
226 166 139
226 166 139
226 166 139
226 166 138
226 166 138
226 166 138
226 166 138
226 166 138
226 166 138
226 166 138
226 166 138
226 166 138
226 166 138
226 166 138
226 166 138
226 166 138
226 166 138
226 166 138
226 166 138
226 166 138
226 166 138
226 166 138
226 166 138
226 166 138
226 166 138
226 166 138
226 166 138
226 166 138
226 166 138
226 166 138
226 166 138
226 166 138
226 166 138
226 166 138
226 166 138
226 166 138
226 166 138
226 166 138
226 166 139
226 166 139
226 166 139
226 166 139
226 166 139
226 166 139
226 166 139
226 165 139
226 165 139
226 165 139
225 165 139
225 165 139
225 165 139
225 165 139
225 165 139
225 165 139
225 165 139
225 165 139
225 165 139
225 165 139
225 165 139
225 165 140
225 165 140
225 165 140
225 164 140
225 164 140
225 164 140
225 164 140
225 164 140
225 164 140
225 164 140
225 164 140
225 164 140
224 164 140
224 164 140
224 164 141
224 164 141
224 164 141
224 163 141
224 163 141
224 163 141
224 163 141
224 163 141
224 163 141
224 163 141
224 163 141
224 163 142
224 163 142
224 163 142
224 162 142
223 162 142
223 162 142
223 162 142
223 162 142
223 162 142
223 162 142
223 162 142
223 162 143
223 162 143
223 162 143
223 161 143
223 161 143
223 161 143
223 161 143
223 161 143
223 161 143
222 161 143
222 161 144
222 161 144
222 161 144
222 161 144
222 160 144
222 160 144
222 160 144
222 160 144
222 160 144
222 160 144
222 160 144
222 160 145
222 160 145
222 160 145
221 159 145
221 159 145
221 159 145
221 159 145
221 159 145
221 159 145
221 159 145
221 159 146
221 159 146
221 159 146
221 159 146
221 158 146
221 158 146
221 158 146
221 158 146
221 158 146
220 158 146
220 158 147
220 158 147
220 158 147
220 158 147
220 157 147
220 157 147
220 157 147
220 157 147
220 157 147
220 157 147
220 157 147
220 157 148
220 157 148
220 157 148
219 157 148
219 156 148
219 156 148
219 156 148
219 156 148
219 156 148
219 156 148
219 156 148
219 156 149
219 156 149
219 156 149
219 156 149
219 156 149
219 155 149
219 155 149
219 155 149
219 155 149
218 155 149
218 155 149
218 155 150
218 155 150
218 155 150
218 155 150
218 155 150
218 155 150
218 154 150
218 154 150
218 154 150
218 154 150
218 154 150
218 154 150
218 154 151
218 154 151
218 154 151
218 154 151
217 154 151
217 154 151
217 153 151
217 153 151
217 153 151
217 153 151
217 153 151
217 153 151
217 153 151
217 153 152
217 153 152
217 153 152
217 153 152
217 153 152
217 153 152
217 153 152
217 152 152
217 152 152
217 152 152
217 152 152
216 152 152
216 152 152
216 152 152
216 152 153
216 152 153
216 152 153
216 152 153
216 152 153
216 152 153
216 152 153
216 151 153
216 151 153
216 151 153
216 151 153
216 151 153
216 151 153
216 151 154
216 151 154
216 151 153
216 151 153
216 151 153
216 151 153
216 151 153
216 151 153
216 151 153
216 152 153
216 152 153
216 152 153
216 152 153
216 152 153
216 152 153
216 152 153
216 152 153
216 152 152
216 152 152
217 152 152
217 152 152
217 152 152
217 152 152
217 153 152
217 153 152
217 153 152
217 153 152
217 153 152
217 153 152
217 153 152
217 153 151
217 153 151
217 153 151
217 153 151
217 153 151
217 153 151
217 153 151
217 154 151
217 154 151
218 154 151
218 154 151
218 154 151
218 154 151
218 154 150
218 154 150
218 154 150
218 154 150
218 154 150
218 154 150
218 155 150
218 155 150
218 155 150
218 155 150
218 155 150
218 155 150
218 155 149
218 155 149
219 155 149
219 155 149
219 155 149
219 155 149
219 156 149
219 156 149
219 156 149
219 156 149
219 156 149
219 156 148
219 156 148
219 156 148
219 156 148
219 156 148
219 156 148
219 156 148
219 157 148
220 157 148
220 157 148
220 157 148
220 157 147
220 157 147
220 157 147
220 157 147
220 157 147
220 157 147
220 157 147
220 158 147
220 158 147
220 158 147
220 158 147
220 158 146
221 158 146
221 158 146
221 158 146
221 158 146
221 158 146
221 159 146
221 159 146
221 159 146
221 159 146
221 159 145
221 159 145
221 159 145
221 159 145
221 159 145
221 159 145
221 159 145
222 160 145
222 160 145
222 160 145
222 160 145
222 160 144
222 160 144
222 160 144
222 160 144
222 160 144
222 160 144
222 161 144
222 161 144
222 161 144
222 161 144
222 161 143
223 161 143
223 161 143
223 161 143
223 161 143
223 161 143
223 161 143
223 162 143
223 162 143
223 162 143
223 162 142
223 162 142
223 162 142
223 162 142
223 162 142
223 162 142
223 162 142
224 162 142
224 163 142
224 163 142
224 163 142
224 163 142
224 163 141
224 163 141
224 163 141
224 163 141
224 163 141
224 163 141
224 163 141
224 163 141
224 164 141
224 164 141
224 164 141
224 164 141
224 164 140
225 164 140
225 164 140
225 164 140
225 164 140
225 164 140
225 164 140
225 164 140
225 164 140
225 164 140
225 164 140
225 165 140
225 165 140
225 165 140
225 165 140
225 165 139
225 165 139
225 165 139
225 165 139
225 165 139
225 165 139
225 165 139
225 165 139
225 165 139
225 165 139
225 165 139
225 165 139
226 165 139
226 165 139
226 165 139
226 165 139
226 165 139
226 165 139
226 166 139
226 166 139
226 166 139
226 166 139
226 166 139
226 166 139
226 166 139
226 166 139
226 166 139
226 166 139
226 166 139
226 166 139
226 166 139
226 166 139
226 166 139
226 166 139
226 166 139
226 166 139
226 166 139
226 166 139
226 166 139
226 166 139
226 166 139
226 166 139
226 166 139
226 166 139
226 166 139
226 166 139
226 165 139
226 165 139
226 165 139
226 165 139
226 165 139
226 165 139
225 165 139
225 165 139
225 165 139
225 165 139
225 165 139
225 165 139
225 165 139
225 165 139
225 165 139
225 165 139
225 165 139
225 165 139
225 165 140
225 165 140
225 165 140
225 165 140
225 164 140
225 164 140
225 164 140
225 164 140
225 164 140
225 164 140
225 164 140
225 164 140
225 164 140
225 164 140
224 164 140
224 164 141
224 164 141
224 164 141
224 164 141
224 163 141
224 163 141
224 163 141
224 163 141
224 163 141
224 163 141
224 163 141
224 163 141
224 163 141
224 163 142
224 163 142
224 163 142
224 162 142
223 162 142
223 162 142
223 162 142
223 162 142
223 162 142
223 162 142
223 162 142
223 162 143
223 162 143
223 162 143
223 161 143
223 161 143
223 161 143
223 161 143
223 161 143
223 161 143
222 161 143
222 161 144
222 161 144
222 161 144
222 161 144
222 160 144
222 160 144
222 160 144
222 160 144
222 160 144
222 160 144
222 160 144
222 160 145
222 160 145
222 160 145
221 159 145
221 159 145
221 159 145
221 159 145
221 159 145
221 159 145
221 159 145
221 159 146
221 159 146
221 159 146
221 159 146
221 158 146
221 158 146
221 158 146
221 158 146
221 158 146
220 158 146
220 158 147
220 158 147
220 158 147
220 158 147
220 157 147
220 157 147
220 157 147
220 157 147
220 157 147
220 157 147
220 157 147
220 157 148
220 157 148
220 157 148
219 157 148
219 156 148
219 156 148
219 156 148
219 156 148
219 156 148
219 156 148
219 156 148
219 156 149
219 156 149
219 156 149
219 156 149
219 155 149
219 155 149
219 155 149
219 155 149
219 155 149
218 155 149
218 155 149
218 155 150
218 155 150
218 155 150
218 155 150
218 155 150
218 155 150
218 154 150
218 154 150
218 154 150
218 154 150
218 154 150
218 154 150
218 154 151
218 154 151
218 154 151
218 154 151
217 154 151
217 154 151
217 153 151
217 153 151
217 153 151
217 153 151
217 153 151
217 153 151
217 153 151
217 153 152
217 153 152
217 153 152
217 153 152
217 153 152
217 153 152
217 153 152
217 152 152
217 152 152
217 152 152
216 152 152
216 152 152
216 152 152
216 152 153
216 152 153
216 152 153
216 152 153
216 152 153
216 152 153
216 152 153
216 152 153
216 151 153
216 151 153
216 151 153
216 151 153
216 151 153
216 151 153
216 151 153
216 151 154
216 151 154
215 151 154
215 151 154
216 151 154
216 151 154
216 151 154
216 151 154
216 151 153
216 151 153
216 151 153
216 151 153
216 151 153
216 151 153
216 151 153
216 152 153
216 152 153
216 152 153
216 152 153
216 152 153
216 152 153
216 152 153
216 152 152
216 152 152
216 152 152
217 152 152
217 152 152
217 152 152
217 152 152
217 153 152
217 153 152
217 153 152
217 153 152
217 153 152
217 153 152
217 153 152
217 153 151
217 153 151
217 153 151
217 153 151
217 153 151
217 153 151
217 154 151
217 154 151
217 154 151
218 154 151
218 154 151
218 154 151
218 154 150
218 154 150
218 154 150
218 154 150
218 154 150
218 154 150
218 154 150
218 155 150
218 155 150
218 155 150
218 155 150
218 155 150
218 155 149
218 155 149
218 155 149
219 155 149
219 155 149
219 155 149
219 155 149
219 156 149
219 156 149
219 156 149
219 156 149
219 156 149
219 156 148
219 156 148
219 156 148
219 156 148
219 156 148
219 156 148
219 157 148
220 157 148
220 157 148
220 157 148
220 157 148
220 157 147
220 157 147
220 157 147
220 157 147
220 157 147
220 157 147
220 158 147
220 158 147
220 158 147
220 158 147
220 158 146
220 158 146
221 158 146
221 158 146
221 158 146
221 158 146
221 158 146
221 159 146
221 159 146
221 159 146
221 159 146
221 159 145
221 159 145
221 159 145
221 159 145
221 159 145
221 159 145
222 160 145
222 160 145
222 160 145
222 160 145
222 160 144
222 160 144
222 160 144
222 160 144
222 160 144
222 160 144
222 161 144
222 161 144
222 161 144
222 161 144
222 161 143
223 161 143
223 161 143
223 161 143
223 161 143
223 161 143
223 161 143
223 162 143
223 162 143
223 162 143
223 162 143
223 162 142
223 162 142
223 162 142
223 162 142
223 162 142
223 162 142
223 162 142
224 162 142
224 163 142
224 163 142
224 163 142
224 163 141
224 163 141
224 163 141
224 163 141
224 163 141
224 163 141
224 163 141
224 163 141
224 163 141
224 163 141
224 164 141
224 164 141
224 164 141
224 164 140
224 164 140
225 164 140
225 164 140
225 164 140
225 164 140
225 164 140
225 164 140
225 164 140
225 164 140
225 164 140
225 164 140
225 165 140
225 165 140
225 165 140
225 165 140
225 165 140
225 165 139
225 165 139
225 165 139
225 165 139
225 165 139
225 165 139
225 165 139
225 165 139
225 165 139
225 165 139
225 165 139
225 165 139
225 165 139
225 165 139
225 165 139
225 165 139
225 165 139
225 165 139
225 165 139
225 165 139
225 165 139
225 165 139
226 165 139
226 165 139
226 165 139
226 165 139
226 165 139
226 165 139
226 165 139
226 165 139
225 165 139
226 165 139
225 165 139
225 165 139
225 165 139
225 165 139
225 165 139
225 165 139
225 165 139
225 165 139
225 165 139
225 165 139
225 165 139
225 165 139
225 165 139
225 165 139
225 165 139
225 165 139
225 165 139
225 165 139
225 165 139
225 165 139
225 165 140
225 165 140
225 165 140
225 165 140
225 165 140
225 164 140
225 164 140
225 164 140
225 164 140
225 164 140
225 164 140
225 164 140
225 164 140
225 164 140
225 164 140
224 164 140
224 164 140
224 164 141
224 164 141
224 164 141
224 163 141
224 163 141
224 163 141
224 163 141
224 163 141
224 163 141
224 163 141
224 163 141
224 163 141
224 163 141
224 163 142
224 163 142
224 163 142
224 162 142
223 162 142
223 162 142
223 162 142
223 162 142
223 162 142
223 162 142
223 162 142
223 162 143
223 162 143
223 162 143
223 162 143
223 161 143
223 161 143
223 161 143
223 161 143
223 161 143
223 161 143
222 161 143
222 161 144
222 161 144
222 161 144
222 160 144
222 160 144
222 160 144
222 160 144
222 160 144
222 160 144
222 160 144
222 160 145
222 160 145
222 160 145
222 160 145
221 159 145
221 159 145
221 159 145
221 159 145
221 159 145
221 159 145
221 159 145
221 159 146
221 159 146
221 159 146
221 159 146
221 158 146
221 158 146
221 158 146
221 158 146
220 158 146
220 158 146
220 158 147
220 158 147
220 158 147
220 158 147
220 157 147
220 157 147
220 157 147
220 157 147
220 157 147
220 157 147
220 157 148
220 157 148
220 157 148
220 157 148
219 157 148
219 156 148
219 156 148
219 156 148
219 156 148
219 156 148
219 156 148
219 156 149
219 156 149
219 156 149
219 156 149
219 156 149
219 155 149
219 155 149
219 155 149
219 155 149
219 155 149
218 155 149
218 155 149
218 155 150
218 155 150
218 155 150
218 155 150
218 155 150
218 154 150
218 154 150
218 154 150
218 154 150
218 154 150
218 154 150
218 154 150
218 154 151
218 154 151
218 154 151
217 154 151
217 154 151
217 154 151
217 153 151
217 153 151
217 153 151
217 153 151
217 153 151
217 153 151
217 153 152
217 153 152
217 153 152
217 153 152
217 153 152
217 153 152
217 153 152
217 152 152
217 152 152
217 152 152
217 152 152
216 152 152
216 152 152
216 152 152
216 152 153
216 152 153
216 152 153
216 152 153
216 152 153
216 152 153
216 152 153
216 151 153
216 151 153
216 151 153
216 151 153
216 151 153
216 151 153
216 151 153
216 151 154
216 151 154
216 151 154
216 151 154
215 151 154
215 151 154
215 150 154
215 151 154
215 151 154
215 151 154
215 151 154
216 151 154
216 151 154
216 151 154
216 151 154
216 151 153
216 151 153
216 151 153
216 151 153
216 151 153
216 151 153
216 151 153
216 152 153
216 152 153
216 152 153
216 152 153
216 152 153
216 152 153
216 152 153
216 152 153
216 152 152
216 152 152
216 152 152
217 152 152
217 152 152
217 152 152
217 153 152
217 153 152
217 153 152
217 153 152
217 153 152
217 153 152
217 153 152
217 153 151
217 153 151
217 153 151
217 153 151
217 153 151
217 153 151
217 153 151
217 154 151
217 154 151
218 154 151
218 154 151
218 154 151
218 154 151
218 154 150
218 154 150
218 154 150
218 154 150
218 154 150
218 154 150
218 155 150
218 155 150
218 155 150
218 155 150
218 155 150
218 155 149
218 155 149
218 155 149
219 155 149
219 155 149
219 155 149
219 155 149
219 156 149
219 156 149
219 156 149
219 156 149
219 156 149
219 156 148
219 156 148
219 156 148
219 156 148
219 156 148
219 156 148
219 157 148
220 157 148
220 157 148
220 157 148
220 157 148
220 157 147
220 157 147
220 157 147
220 157 147
220 157 147
220 157 147
220 158 147
220 158 147
220 158 147
220 158 147
220 158 146
220 158 146
221 158 146
221 158 146
221 158 146
221 158 146
221 158 146
221 159 146
221 159 146
221 159 146
221 159 146
221 159 145
221 159 145
221 159 145
221 159 145
221 159 145
221 159 145
222 160 145
222 160 145
222 160 145
222 160 145
222 160 144
222 160 144
222 160 144
222 160 144
222 160 144
222 160 144
222 160 144
222 161 144
222 161 144
222 161 144
222 161 144
222 161 143
223 161 143
223 161 143
223 161 143
223 161 143
223 161 143
223 161 143
223 162 143
223 162 143
223 162 143
223 162 143
223 162 142
223 162 142
223 162 142
223 162 142
223 162 142
223 162 142
223 162 142
224 162 142
224 163 142
224 163 142
224 163 142
224 163 142
224 163 141
224 163 141
224 163 141
224 163 141
224 163 141
224 163 141
224 163 141
224 163 141
224 163 141
224 164 141
224 164 141
224 164 141
224 164 141
224 164 140
224 164 140
225 164 140
225 164 140
225 164 140
225 164 140
225 164 140
225 164 140
225 164 140
225 164 140
225 164 140
225 164 140
225 164 140
225 164 140
225 165 140
225 165 140
225 165 140
225 165 140
225 165 140
225 165 140
225 165 140
225 165 140
225 165 139
225 165 139
225 165 139
225 165 139
225 165 139
225 165 139
225 165 139
225 165 139
225 165 139
225 165 139
225 165 139
225 165 139
225 165 139
225 165 139
225 165 139
225 165 139
225 165 139
225 165 139
225 165 139
225 165 139
225 165 139
225 165 139
225 165 139
225 165 139
225 165 139
225 165 139
225 165 139
225 165 139
225 165 139
225 165 139
225 165 139
225 165 139
225 165 139
225 165 140
225 165 140
225 165 140
225 165 140
225 165 140
225 165 140
225 165 140
225 164 140
225 164 140
225 164 140
225 164 140
225 164 140
225 164 140
225 164 140
225 164 140
225 164 140
225 164 140
225 164 140
225 164 140
224 164 140
224 164 141
224 164 141
224 164 141
224 164 141
224 164 141
224 163 141
224 163 141
224 163 141
224 163 141
224 163 141
224 163 141
224 163 141
224 163 141
224 163 141
224 163 141
224 163 142
224 163 142
224 163 142
224 162 142
223 162 142
223 162 142
223 162 142
223 162 142
223 162 142
223 162 142
223 162 142
223 162 143
223 162 143
223 162 143
223 162 143
223 161 143
223 161 143
223 161 143
223 161 143
223 161 143
223 161 143
222 161 143
222 161 144
222 161 144
222 161 144
222 161 144
222 160 144
222 160 144
222 160 144
222 160 144
222 160 144
222 160 144
222 160 144
222 160 145
222 160 145
222 160 145
222 160 145
221 159 145
221 159 145
221 159 145
221 159 145
221 159 145
221 159 145
221 159 146
221 159 146
221 159 146
221 159 146
221 159 146
221 158 146
221 158 146
221 158 146
221 158 146
220 158 146
220 158 146
220 158 147
220 158 147
220 158 147
220 158 147
220 157 147
220 157 147
220 157 147
220 157 147
220 157 147
220 157 147
220 157 148
220 157 148
220 157 148
220 157 148
219 157 148
219 156 148
219 156 148
219 156 148
219 156 148
219 156 148
219 156 148
219 156 149
219 156 149
219 156 149
219 156 149
219 156 149
219 155 149
219 155 149
219 155 149
219 155 149
219 155 149
218 155 149
218 155 150
218 155 150
218 155 150
218 155 150
218 155 150
218 155 150
218 154 150
218 154 150
218 154 150
218 154 150
218 154 150
218 154 150
218 154 151
218 154 151
218 154 151
218 154 151
217 154 151
217 154 151
217 153 151
217 153 151
217 153 151
217 153 151
217 153 151
217 153 151
217 153 151
217 153 152
217 153 152
217 153 152
217 153 152
217 153 152
217 153 152
217 153 152
217 152 152
217 152 152
217 152 152
216 152 152
216 152 152
216 152 152
216 152 153
216 152 153
216 152 153
216 152 153
216 152 153
216 152 153
216 152 153
216 152 153
216 151 153
216 151 153
216 151 153
216 151 153
216 151 153
216 151 153
216 151 153
216 151 154
216 151 154
216 151 154
216 151 154
215 151 154
215 151 154
215 151 154
215 151 154
215 150 154
215 150 154
215 150 154
215 150 154
215 150 154
215 150 154
215 151 154
215 151 154
215 151 154
215 151 154
216 151 154
216 151 154
216 151 154
216 151 154
216 151 153
216 151 153
216 151 153
216 151 153
216 151 153
216 151 153
216 151 153
216 152 153
216 152 153
216 152 153
216 152 153
216 152 153
216 152 153
216 152 153
216 152 152
216 152 152
216 152 152
217 152 152
217 152 152
217 152 152
217 152 152
217 153 152
217 153 152
217 153 152
217 153 152
217 153 152
217 153 152
217 153 152
217 153 151
217 153 151
217 153 151
217 153 151
217 153 151
217 153 151
217 154 151
217 154 151
218 154 151
218 154 151
218 154 151
218 154 151
218 154 150
218 154 150
218 154 150
218 154 150
218 154 150
218 154 150
218 155 150
218 155 150
218 155 150
218 155 150
218 155 150
218 155 150
218 155 149
218 155 149
219 155 149
219 155 149
219 155 149
219 155 149
219 156 149
219 156 149
219 156 149
219 156 149
219 156 149
219 156 148
219 156 148
219 156 148
219 156 148
219 156 148
219 156 148
219 157 148
220 157 148
220 157 148
220 157 148
220 157 148
220 157 147
220 157 147
220 157 147
220 157 147
220 157 147
220 157 147
220 158 147
220 158 147
220 158 147
220 158 147
220 158 146
220 158 146
221 158 146
221 158 146
221 158 146
221 158 146
221 158 146
221 159 146
221 159 146
221 159 146
221 159 146
221 159 145
221 159 145
221 159 145
221 159 145
221 159 145
221 159 145
221 159 145
222 160 145
222 160 145
222 160 145
222 160 145
222 160 144
222 160 144
222 160 144
222 160 144
222 160 144
222 160 144
222 160 144
222 161 144
222 161 144
222 161 144
222 161 143
223 161 143
223 161 143
223 161 143
223 161 143
223 161 143
223 161 143
223 161 143
223 162 143
223 162 143
223 162 143
223 162 143
223 162 142
223 162 142
223 162 142
223 162 142
223 162 142
223 162 142
223 162 142
224 162 142
224 163 142
224 163 142
224 163 142
224 163 142
224 163 141
224 163 141
224 163 141
224 163 141
224 163 141
224 163 141
224 163 141
224 163 141
224 163 141
224 163 141
224 164 141
224 164 141
224 164 141
224 164 141
224 164 141
224 164 140
224 164 140
225 164 140
225 164 140
225 164 140
225 164 140
225 164 140
225 164 140
225 164 140
225 164 140
225 164 140
225 164 140
225 164 140
225 164 140
225 164 140
225 164 140
225 164 140
225 164 140
225 165 140
225 165 140
225 165 140
225 165 140
225 165 140
225 165 140
225 165 140
225 165 140
225 165 140
225 165 140
225 165 140
225 165 140
225 165 140
225 165 140
225 165 140
225 165 140
225 165 140
225 165 140
225 165 140
225 165 140
225 165 140
225 165 140
225 165 140
225 165 140
225 165 140
225 165 140
225 165 140
225 165 140
225 164 140
225 164 140
225 164 140
225 164 140
225 164 140
225 164 140
225 164 140
225 164 140
225 164 140
225 164 140
225 164 140
225 164 140
225 164 140
225 164 140
225 164 140
225 164 140
224 164 140
224 164 140
224 164 141
224 164 141
224 164 141
224 164 141
224 163 141
224 163 141
224 163 141
224 163 141
224 163 141
224 163 141
224 163 141
224 163 141
224 163 141
224 163 141
224 163 141
224 163 142
224 163 142
224 163 142
224 163 142
224 162 142
223 162 142
223 162 142
223 162 142
223 162 142
223 162 142
223 162 142
223 162 142
223 162 142
223 162 143
223 162 143
223 162 143
223 161 143
223 161 143
223 161 143
223 161 143
223 161 143
223 161 143
222 161 143
222 161 143
222 161 144
222 161 144
222 161 144
222 161 144
222 160 144
222 160 144
222 160 144
222 160 144
222 160 144
222 160 144
222 160 144
222 160 145
222 160 145
222 160 145
221 159 145
221 159 145
221 159 145
221 159 145
221 159 145
221 159 145
221 159 145
221 159 146
221 159 146
221 159 146
221 159 146
221 158 146
221 158 146
221 158 146
221 158 146
221 158 146
220 158 146
220 158 147
220 158 147
220 158 147
220 158 147
220 158 147
220 157 147
220 157 147
220 157 147
220 157 147
220 157 147
220 157 147
220 157 148
220 157 148
220 157 148
220 157 148
219 157 148
219 156 148
219 156 148
219 156 148
219 156 148
219 156 148
219 156 148
219 156 149
219 156 149
219 156 149
219 156 149
219 156 149
219 155 149
219 155 149
219 155 149
219 155 149
218 155 149
218 155 149
218 155 150
218 155 150
218 155 150
218 155 150
218 155 150
218 155 150
218 154 150
218 154 150
218 154 150
218 154 150
218 154 150
218 154 150
218 154 151
218 154 151
218 154 151
218 154 151
217 154 151
217 154 151
217 153 151
217 153 151
217 153 151
217 153 151
217 153 151
217 153 151
217 153 152
217 153 152
217 153 152
217 153 152
217 153 152
217 153 152
217 153 152
217 152 152
217 152 152
217 152 152
217 152 152
216 152 152
216 152 152
216 152 152
216 152 153
216 152 153
216 152 153
216 152 153
216 152 153
216 152 153
216 152 153
216 151 153
216 151 153
216 151 153
216 151 153
216 151 153
216 151 153
216 151 153
216 151 154
216 151 154
216 151 154
216 151 154
215 151 154
215 151 154
215 151 154
215 151 154
215 150 154
215 150 154
215 150 154
215 150 154
215 150 154
215 150 155
215 150 154
215 150 154
215 150 154
215 150 154
215 150 154
215 150 154
215 150 154
215 151 154
215 151 154
215 151 154
215 151 154
215 151 154
216 151 154
216 151 154
216 151 154
216 151 154
216 151 153
216 151 153
216 151 153
216 151 153
216 151 153
216 151 153
216 151 153
216 152 153
216 152 153
216 152 153
216 152 153
216 152 153
216 152 153
216 152 153
216 152 152
216 152 152
216 152 152
217 152 152
217 152 152
217 152 152
217 152 152
217 153 152
217 153 152
217 153 152
217 153 152
217 153 152
217 153 152
217 153 151
217 153 151
217 153 151
217 153 151
217 153 151
217 153 151
217 154 151
217 154 151
217 154 151
218 154 151
218 154 151
218 154 151
218 154 150
218 154 150
218 154 150
218 154 150
218 154 150
218 154 150
218 154 150
218 155 150
218 155 150
218 155 150
218 155 150
218 155 150
218 155 149
218 155 149
219 155 149
219 155 149
219 155 149
219 155 149
219 155 149
219 156 149
219 156 149
219 156 149
219 156 149
219 156 149
219 156 148
219 156 148
219 156 148
219 156 148
219 156 148
219 156 148
219 157 148
220 157 148
220 157 148
220 157 148
220 157 147
220 157 147
220 157 147
220 157 147
220 157 147
220 157 147
220 157 147
220 158 147
220 158 147
220 158 147
220 158 147
220 158 146
221 158 146
221 158 146
221 158 146
221 158 146
221 158 146
221 159 146
221 159 146
221 159 146
221 159 146
221 159 145
221 159 145
221 159 145
221 159 145
221 159 145
221 159 145
221 159 145
222 160 145
222 160 145
222 160 145
222 160 145
222 160 144
222 160 144
222 160 144
222 160 144
222 160 144
222 160 144
222 160 144
222 161 144
222 161 144
222 161 144
222 161 144
222 161 143
223 161 143
223 161 143
223 161 143
223 161 143
223 161 143
223 161 143
223 161 143
223 162 143
223 162 143
223 162 143
223 162 143
223 162 142
223 162 142
223 162 142
223 162 142
223 162 142
223 162 142
223 162 142
224 162 142
224 163 142
224 163 142
224 163 142
224 163 142
224 163 142
224 163 141
224 163 141
224 163 141
224 163 141
224 163 141
224 163 141
224 163 141
224 163 141
224 163 141
224 163 141
224 163 141
224 164 141
224 164 141
224 164 141
224 164 141
224 164 141
224 164 141
224 164 140
224 164 140
225 164 140
225 164 140
225 164 140
225 164 140
225 164 140
225 164 140
225 164 140
225 164 140
225 164 140
225 164 140
225 164 140
225 164 140
225 164 140
225 164 140
225 164 140
225 164 140
225 164 140
225 164 140
225 164 140
225 164 140
225 164 140
225 164 140
225 164 140
225 164 140
225 164 140
225 164 140
225 164 140
225 164 140
225 164 140
225 164 140
225 164 140
225 164 140
225 164 140
225 164 140
225 164 140
225 164 140
225 164 140
225 164 140
225 164 140
225 164 140
225 164 140
225 164 140
225 164 140
225 164 140
225 164 140
225 164 140
224 164 140
224 164 140
224 164 141
224 164 141
224 164 141
224 164 141
224 164 141
224 164 141
224 163 141
224 163 141
224 163 141
224 163 141
224 163 141
224 163 141
224 163 141
224 163 141
224 163 141
224 163 141
224 163 141
224 163 142
224 163 142
224 163 142
224 163 142
224 163 142
224 162 142
223 162 142
223 162 142
223 162 142
223 162 142
223 162 142
223 162 142
223 162 142
223 162 142
223 162 143
223 162 143
223 162 143
223 161 143
223 161 143
223 161 143
223 161 143
223 161 143
223 161 143
223 161 143
222 161 143
222 161 144
222 161 144
222 161 144
222 161 144
222 160 144
222 160 144
222 160 144
222 160 144
222 160 144
222 160 144
222 160 144
222 160 145
222 160 145
222 160 145
222 160 145
221 159 145
221 159 145
221 159 145
221 159 145
221 159 145
221 159 145
221 159 145
221 159 146
221 159 146
221 159 146
221 159 146
221 158 146
221 158 146
221 158 146
221 158 146
220 158 146
220 158 146
220 158 147
220 158 147
220 158 147
220 158 147
220 157 147
220 157 147
220 157 147
220 157 147
220 157 147
220 157 147
220 157 147
220 157 148
220 157 148
220 157 148
219 157 148
219 156 148
219 156 148
219 156 148
219 156 148
219 156 148
219 156 148
219 156 149
219 156 149
219 156 149
219 156 149
219 156 149
219 155 149
219 155 149
219 155 149
219 155 149
219 155 149
218 155 149
218 155 149
218 155 150
218 155 150
218 155 150
218 155 150
218 155 150
218 154 150
218 154 150
218 154 150
218 154 150
218 154 150
218 154 150
218 154 150
218 154 151
218 154 151
218 154 151
217 154 151
217 154 151
217 153 151
217 153 151
217 153 151
217 153 151
217 153 151
217 153 151
217 153 151
217 153 152
217 153 152
217 153 152
217 153 152
217 153 152
217 153 152
217 152 152
217 152 152
217 152 152
217 152 152
216 152 152
216 152 152
216 152 152
216 152 153
216 152 153
216 152 153
216 152 153
216 152 153
216 152 153
216 152 153
216 151 153
216 151 153
216 151 153
216 151 153
216 151 153
216 151 153
216 151 153
216 151 153
216 151 154
216 151 154
216 151 154
215 151 154
215 151 154
215 151 154
215 151 154
215 151 154
215 150 154
215 150 154
215 150 154
215 150 154
215 150 154
215 150 154
215 150 154
215 150 155
215 150 155
215 150 155
215 150 155
215 150 155
215 150 155
215 150 154
215 150 154
215 150 154
215 150 154
215 150 154
215 150 154
215 150 154
215 151 154
215 151 154
215 151 154
215 151 154
215 151 154
216 151 154
216 151 154
216 151 154
216 151 154
216 151 153
216 151 153
216 151 153
216 151 153
216 151 153
216 151 153
216 152 153
216 152 153
216 152 153
216 152 153
216 152 153
216 152 153
216 152 153
216 152 152
216 152 152
216 152 152
217 152 152
217 152 152
217 152 152
217 152 152
217 153 152
217 153 152
217 153 152
217 153 152
217 153 152
217 153 152
217 153 152
217 153 151
217 153 151
217 153 151
217 153 151
217 153 151
217 153 151
217 154 151
217 154 151
218 154 151
218 154 151
218 154 151
218 154 151
218 154 150
218 154 150
218 154 150
218 154 150
218 154 150
218 154 150
218 155 150
218 155 150
218 155 150
218 155 150
218 155 150
218 155 150
218 155 149
218 155 149
219 155 149
219 155 149
219 155 149
219 155 149
219 156 149
219 156 149
219 156 149
219 156 149
219 156 149
219 156 148
219 156 148
219 156 148
219 156 148
219 156 148
219 156 148
219 157 148
220 157 148
220 157 148
220 157 148
220 157 148
220 157 147
220 157 147
220 157 147
220 157 147
220 157 147
220 157 147
220 158 147
220 158 147
220 158 147
220 158 147
220 158 146
220 158 146
221 158 146
221 158 146
221 158 146
221 158 146
221 158 146
221 159 146
221 159 146
221 159 146
221 159 146
221 159 145
221 159 145
221 159 145
221 159 145
221 159 145
221 159 145
221 159 145
222 160 145
222 160 145
222 160 145
222 160 145
222 160 144
222 160 144
222 160 144
222 160 144
222 160 144
222 160 144
222 160 144
222 161 144
222 161 144
222 161 144
222 161 144
222 161 143
223 161 143
223 161 143
223 161 143
223 161 143
223 161 143
223 161 143
223 161 143
223 162 143
223 162 143
223 162 143
223 162 143
223 162 142
223 162 142
223 162 142
223 162 142
223 162 142
223 162 142
223 162 142
223 162 142
224 162 142
224 162 142
224 163 142
224 163 142
224 163 142
224 163 142
224 163 141
224 163 141
224 163 141
224 163 141
224 163 141
224 163 141
224 163 141
224 163 141
224 163 141
224 163 141
224 163 141
224 163 141
224 163 141
224 163 141
224 164 141
224 164 141
224 164 141
224 164 141
224 164 141
224 164 141
224 164 141
224 164 141
224 164 140
224 164 140
225 164 140
225 164 140
225 164 140
225 164 140
225 164 140
225 164 140
225 164 140
225 164 140
225 164 140
225 164 140
225 164 140
225 164 140
225 164 140
225 164 140
225 164 140
225 164 140
225 164 140
225 164 140
225 164 140
225 164 140
225 164 140
225 164 140
225 164 140
225 164 140
224 164 140
225 164 140
224 164 140
224 164 140
224 164 140
224 164 141
224 164 141
224 164 141
224 164 141
224 164 141
224 164 141
224 164 141
224 163 141
224 163 141
224 163 141
224 163 141
224 163 141
224 163 141
224 163 141
224 163 141
224 163 141
224 163 141
224 163 141
224 163 141
224 163 141
224 163 141
224 163 142
224 163 142
224 163 142
224 163 142
224 163 142
224 162 142
223 162 142
223 162 142
223 162 142
223 162 142
223 162 142
223 162 142
223 162 142
223 162 142
223 162 143
223 162 143
223 162 143
223 162 143
223 161 143
223 161 143
223 161 143
223 161 143
223 161 143
223 161 143
223 161 143
222 161 143
222 161 144
222 161 144
222 161 144
222 161 144
222 160 144
222 160 144
222 160 144
222 160 144
222 160 144
222 160 144
222 160 144
222 160 145
222 160 145
222 160 145
222 160 145
221 159 145
221 159 145
221 159 145
221 159 145
221 159 145
221 159 145
221 159 145
221 159 146
221 159 146
221 159 146
221 159 146
221 158 146
221 158 146
221 158 146
221 158 146
221 158 146
220 158 146
220 158 146
220 158 147
220 158 147
220 158 147
220 158 147
220 157 147
220 157 147
220 157 147
220 157 147
220 157 147
220 157 147
220 157 148
220 157 148
220 157 148
220 157 148
219 157 148
219 156 148
219 156 148
219 156 148
219 156 148
219 156 148
219 156 148
219 156 149
219 156 149
219 156 149
219 156 149
219 156 149
219 155 149
219 155 149
219 155 149
219 155 149
218 155 149
218 155 149
218 155 150
218 155 150
218 155 150
218 155 150
218 155 150
218 155 150
218 154 150
218 154 150
218 154 150
218 154 150
218 154 150
218 154 150
218 154 151
218 154 151
218 154 151
218 154 151
217 154 151
217 154 151
217 153 151
217 153 151
217 153 151
217 153 151
217 153 151
217 153 151
217 153 152
217 153 152
217 153 152
217 153 152
217 153 152
217 153 152
217 153 152
217 152 152
217 152 152
217 152 152
217 152 152
216 152 152
216 152 152
216 152 152
216 152 153
216 152 153
216 152 153
216 152 153
216 152 153
216 152 153
216 152 153
216 151 153
216 151 153
216 151 153
216 151 153
216 151 153
216 151 153
216 151 153
216 151 154
216 151 154
216 151 154
216 151 154
215 151 154
215 151 154
215 151 154
215 151 154
215 150 154
215 150 154
215 150 154
215 150 154
215 150 154
215 150 154
215 150 154
215 150 155
215 150 155
215 150 155
215 150 155
215 150 155
215 150 155
215 150 155
215 150 155
215 150 155
215 150 155
215 150 155
215 150 155
215 150 155
215 150 155
215 150 154
215 150 154
215 150 154
215 150 154
215 150 154
215 150 154
215 150 154
215 151 154
215 151 154
215 151 154
215 151 154
216 151 154
216 151 154
216 151 154
216 151 154
216 151 153
216 151 153
216 151 153
216 151 153
216 151 153
216 151 153
216 151 153
216 152 153
216 152 153
216 152 153
216 152 153
216 152 153
216 152 153
216 152 153
216 152 152
216 152 152
216 152 152
217 152 152
217 152 152
217 152 152
217 152 152
217 153 152
217 153 152
217 153 152
217 153 152
217 153 152
217 153 152
217 153 151
217 153 151
217 153 151
217 153 151
217 153 151
217 153 151
217 153 151
217 154 151
217 154 151
218 154 151
218 154 151
218 154 151
218 154 150
218 154 150
218 154 150
218 154 150
218 154 150
218 154 150
218 154 150
218 155 150
218 155 150
218 155 150
218 155 150
218 155 150
218 155 149
218 155 149
219 155 149
219 155 149
219 155 149
219 155 149
219 156 149
219 156 149
219 156 149
219 156 149
219 156 149
219 156 148
219 156 148
219 156 148
219 156 148
219 156 148
219 156 148
219 157 148
219 157 148
220 157 148
220 157 148
220 157 148
220 157 147
220 157 147
220 157 147
220 157 147
220 157 147
220 157 147
220 158 147
220 158 147
220 158 147
220 158 147
220 158 147
220 158 146
221 158 146
221 158 146
221 158 146
221 158 146
221 158 146
221 159 146
221 159 146
221 159 146
221 159 146
221 159 145
221 159 145
221 159 145
221 159 145
221 159 145
221 159 145
221 159 145
222 160 145
222 160 145
222 160 145
222 160 145
222 160 144
222 160 144
222 160 144
222 160 144
222 160 144
222 160 144
222 160 144
222 160 144
222 161 144
222 161 144
222 161 144
222 161 144
222 161 143
223 161 143
223 161 143
223 161 143
223 161 143
223 161 143
223 161 143
223 161 143
223 162 143
223 162 143
223 162 143
223 162 143
223 162 142
223 162 142
223 162 142
223 162 142
223 162 142
223 162 142
223 162 142
223 162 142
223 162 142
224 162 142
224 162 142
224 163 142
224 163 142
224 163 142
224 163 142
224 163 142
224 163 141
224 163 141
224 163 141
224 163 141
224 163 141
224 163 141
224 163 141
224 163 141
224 163 141
224 163 141
224 163 141
224 163 141
224 163 141
224 163 141
224 163 141
224 163 141
224 163 141
224 163 141
224 163 141
224 164 141
224 164 141
224 164 141
224 164 141
224 164 141
224 164 141
224 164 141
224 164 141
224 164 141
224 164 141
224 164 141
224 164 141
224 164 141
224 164 141
224 164 141
224 164 141
224 164 141
224 164 141
224 164 141
224 164 141
224 164 141
224 164 141
224 164 141
224 164 141
224 163 141
224 163 141
224 163 141
224 163 141
224 163 141
224 163 141
224 163 141
224 163 141
224 163 141
224 163 141
224 163 141
224 163 141
224 163 141
224 163 141
224 163 141
224 163 141
224 163 141
224 163 141
224 163 141
224 163 142
224 163 142
224 163 142
224 163 142
224 163 142
224 162 142
224 162 142
223 162 142
223 162 142
223 162 142
223 162 142
223 162 142
223 162 142
223 162 142
223 162 142
223 162 143
223 162 143
223 162 143
223 162 143
223 162 143
223 161 143
223 161 143
223 161 143
223 161 143
223 161 143
223 161 143
223 161 143
222 161 143
222 161 144
222 161 144
222 161 144
222 161 144
222 160 144
222 160 144
222 160 144
222 160 144
222 160 144
222 160 144
222 160 144
222 160 144
222 160 145
222 160 145
222 160 145
222 160 145
221 159 145
221 159 145
221 159 145
221 159 145
221 159 145
221 159 145
221 159 145
221 159 146
221 159 146
221 159 146
221 159 146
221 158 146
221 158 146
221 158 146
221 158 146
221 158 146
220 158 146
220 158 147
220 158 147
220 158 147
220 158 147
220 158 147
220 157 147
220 157 147
220 157 147
220 157 147
220 157 147
220 157 147
220 157 148
220 157 148
220 157 148
220 157 148
219 157 148
219 156 148
219 156 148
219 156 148
219 156 148
219 156 148
219 156 148
219 156 149
219 156 149
219 156 149
219 156 149
219 156 149
219 155 149
219 155 149
219 155 149
219 155 149
218 155 149
218 155 149
218 155 150
218 155 150
218 155 150
218 155 150
218 155 150
218 154 150
218 154 150
218 154 150
218 154 150
218 154 150
218 154 150
218 154 150
218 154 151
218 154 151
218 154 151
217 154 151
217 154 151
217 154 151
217 153 151
217 153 151
217 153 151
217 153 151
217 153 151
217 153 151
217 153 152
217 153 152
217 153 152
217 153 152
217 153 152
217 153 152
217 153 152
217 152 152
217 152 152
217 152 152
216 152 152
216 152 152
216 152 152
216 152 153
216 152 153
216 152 153
216 152 153
216 152 153
216 152 153
216 152 153
216 151 153
216 151 153
216 151 153
216 151 153
216 151 153
216 151 153
216 151 153
216 151 154
216 151 154
216 151 154
216 151 154
215 151 154
215 151 154
215 151 154
215 151 154
215 150 154
215 150 154
215 150 154
215 150 154
215 150 154
215 150 154
215 150 154
215 150 155
215 150 155
215 150 155
215 150 155
215 150 155
215 150 155
215 150 155
215 150 155
215 150 155
214 149 155
215 149 155
215 149 155
215 149 155
215 150 155
215 150 155
215 150 155
215 150 155
215 150 155
215 150 155
215 150 155
215 150 155
215 150 155
215 150 154
215 150 154
215 150 154
215 150 154
215 150 154
215 150 154
215 150 154
215 151 154
215 151 154
215 151 154
215 151 154
216 151 154
216 151 154
216 151 154
216 151 154
216 151 153
216 151 153
216 151 153
216 151 153
216 151 153
216 151 153
216 152 153
216 152 153
216 152 153
216 152 153
216 152 153
216 152 153
216 152 153
216 152 153
216 152 152
216 152 152
217 152 152
217 152 152
217 152 152
217 152 152
217 153 152
217 153 152
217 153 152
217 153 152
217 153 152
217 153 152
217 153 152
217 153 151
217 153 151
217 153 151
217 153 151
217 153 151
217 153 151
217 154 151
217 154 151
218 154 151
218 154 151
218 154 151
218 154 151
218 154 150
218 154 150
218 154 150
218 154 150
218 154 150
218 154 150
218 155 150
218 155 150
218 155 150
218 155 150
218 155 150
218 155 149
218 155 149
218 155 149
219 155 149
219 155 149
219 155 149
219 155 149
219 156 149
219 156 149
219 156 149
219 156 149
219 156 149
219 156 148
219 156 148
219 156 148
219 156 148
219 156 148
219 156 148
219 157 148
220 157 148
220 157 148
220 157 148
220 157 148
220 157 147
220 157 147
220 157 147
220 157 147
220 157 147
220 157 147
220 158 147
220 158 147
220 158 147
220 158 147
220 158 146
220 158 146
221 158 146
221 158 146
221 158 146
221 158 146
221 158 146
221 159 146
221 159 146
221 159 146
221 159 146
221 159 145
221 159 145
221 159 145
221 159 145
221 159 145
221 159 145
221 159 145
222 160 145
222 160 145
222 160 145
222 160 145
222 160 144
222 160 144
222 160 144
222 160 144
222 160 144
222 160 144
222 160 144
222 160 144
222 161 144
222 161 144
222 161 144
222 161 144
222 161 143
223 161 143
223 161 143
223 161 143
223 161 143
223 161 143
223 161 143
223 161 143
223 161 143
223 162 143
223 162 143
223 162 143
223 162 143
223 162 142
223 162 142
223 162 142
223 162 142
223 162 142
223 162 142
223 162 142
223 162 142
223 162 142
223 162 142
223 162 142
224 162 142
224 163 142
224 163 142
224 163 142
224 163 142
224 163 142
224 163 142
224 163 142
224 163 141
224 163 141
224 163 141
224 163 141
224 163 141
224 163 141
224 163 141
224 163 141
224 163 141
224 163 141
224 163 141
224 163 141
224 163 141
224 163 141
215 157 134
202 148 124
182 134 110
174 129 102
164 123 92
163 122 92
156 117 88
152 115 84
149 113 81
155 118 84
151 113 85
156 118 85
162 122 90
181 134 106
174 130 101
192 142 116
200 147 122
211 155 129
223 163 140
224 163 141
224 163 141
224 163 141
224 163 141
224 163 141
224 163 141
224 163 141
224 163 141
224 163 141
224 163 141
224 163 141
224 163 141
224 163 141
224 163 142
224 163 142
224 163 142
224 163 142
224 163 142
224 163 142
224 163 142
224 162 142
223 162 142
223 162 142
223 162 142
223 162 142
223 162 142
223 162 142
223 162 142
223 162 142
223 162 142
223 162 142
223 162 142
223 162 143
223 162 143
223 162 143
223 162 143
223 161 143
223 161 143
223 161 143
223 161 143
223 161 143
223 161 143
223 161 143
223 161 143
222 161 143
222 161 144
222 161 144
222 161 144
222 161 144
222 160 144
222 160 144
222 160 144
222 160 144
222 160 144
222 160 144
222 160 144
222 160 144
222 160 145
222 160 145
222 160 145
222 160 145
221 159 145
221 159 145
221 159 145
221 159 145
221 159 145
221 159 145
221 159 145
221 159 146
221 159 146
221 159 146
221 159 146
221 158 146
221 158 146
221 158 146
221 158 146
221 158 146
220 158 146
220 158 146
220 158 147
220 158 147
220 158 147
220 158 147
220 157 147
220 157 147
220 157 147
220 157 147
220 157 147
220 157 147
220 157 147
220 157 148
220 157 148
220 157 148
219 157 148
219 156 148
219 156 148
219 156 148
219 156 148
219 156 148
219 156 148
219 156 149
219 156 149
219 156 149
219 156 149
219 156 149
219 155 149
219 155 149
219 155 149
219 155 149
218 155 149
218 155 149
218 155 149
218 155 150
218 155 150
218 155 150
218 155 150
218 155 150
218 154 150
218 154 150
218 154 150
218 154 150
218 154 150
218 154 150
218 154 151
218 154 151
218 154 151
218 154 151
217 154 151
217 154 151
217 153 151
217 153 151
217 153 151
217 153 151
217 153 151
217 153 151
217 153 152
217 153 152
217 153 152
217 153 152
217 153 152
217 153 152
217 153 152
217 152 152
217 152 152
217 152 152
216 152 152
216 152 152
216 152 152
216 152 153
216 152 153
216 152 153
216 152 153
216 152 153
216 152 153
216 152 153
216 151 153
216 151 153
216 151 153
216 151 153
216 151 153
216 151 153
216 151 153
216 151 154
216 151 154
216 151 154
216 151 154
215 151 154
215 151 154
215 151 154
215 151 154
215 150 154
215 150 154
215 150 154
215 150 154
215 150 154
215 150 154
215 150 154
215 150 155
215 150 155
215 150 155
215 150 155
215 150 155
215 150 155
215 150 155
215 150 155
215 150 155
215 149 155
215 149 155
215 149 155
214 149 155
214 149 156
214 149 155
214 149 155
214 149 155
214 149 155
215 149 155
215 149 155
215 149 155
215 150 155
215 150 155
215 150 155
215 150 155
215 150 155
215 150 155
215 150 155
215 150 155
215 150 155
215 150 154
215 150 154
215 150 154
215 150 154
215 150 154
215 150 154
215 150 154
215 151 154
215 151 154
215 151 154
215 151 154
216 151 154
216 151 154
216 151 154
216 151 154
216 151 153
216 151 153
216 151 153
216 151 153
216 151 153
216 151 153
216 151 153
216 152 153
216 152 153
216 152 153
216 152 153
216 152 153
216 152 153
216 152 152
216 152 152
216 152 152
217 152 152
217 152 152
217 152 152
217 152 152
217 153 152
217 153 152
217 153 152
217 153 152
217 153 152
217 153 152
217 153 151
217 153 151
217 153 151
217 153 151
217 153 151
217 153 151
217 153 151
217 154 151
217 154 151
218 154 151
218 154 151
218 154 151
218 154 150
218 154 150
218 154 150
218 154 150
218 154 150
218 154 150
218 154 150
218 155 150
218 155 150
218 155 150
218 155 150
218 155 150
218 155 149
218 155 149
219 155 149
219 155 149
219 155 149
219 155 149
219 156 149
219 156 149
219 156 149
219 156 149
219 156 149
219 156 148
219 156 148
219 156 148
219 156 148
219 156 148
219 156 148
219 157 148
220 157 148
220 157 148
220 157 148
220 157 148
220 157 147
220 157 147
220 157 147
220 157 147
220 157 147
220 157 147
220 158 147
220 158 147
220 158 147
220 158 147
220 158 147
220 158 146
221 158 146
221 158 146
221 158 146
221 158 146
221 158 146
221 158 146
221 159 146
221 159 146
221 159 146
221 159 146
221 159 145
221 159 145
221 159 145
221 159 145
221 159 145
221 159 145
221 159 145
222 160 145
222 160 145
222 160 145
222 160 145
222 160 144
222 160 144
222 160 144
222 160 144
222 160 144
222 160 144
222 160 144
222 160 144
222 161 144
222 161 144
222 161 144
222 161 144
222 161 143
222 161 143
223 161 143
223 161 143
223 161 143
223 161 143
223 161 143
223 161 143
223 161 143
223 161 143
223 162 143
223 162 143
223 162 143
223 162 143
223 162 143
223 162 142
223 162 142
223 162 142
223 162 142
223 162 142
223 162 142
223 162 142
223 162 142
223 162 142
223 162 142
223 162 142
224 162 142
224 162 142
224 162 142
224 163 142
224 163 142
224 163 142
224 163 142
224 163 142
224 163 142
224 163 142
222 162 141
199 146 121
168 124 100
160 121 89
135 102 74
124 95 62
120 94 56
119 93 57
116 88 60
115 88 58
114 87 62
116 90 55
112 86 58
116 89 60
112 86 59
115 90 55
115 89 57
116 90 59
115 88 59
114 89 56
116 89 58
118 92 57
118 91 59
116 90 56
126 98 62
136 103 76
149 111 86
184 136 111
200 146 125
220 160 139
224 163 142
224 163 142
224 163 142
224 163 142
224 163 142
224 163 142
224 163 142
224 162 142
224 162 142
223 162 142
223 162 142
223 162 142
223 162 142
223 162 142
223 162 142
223 162 142
223 162 142
223 162 142
223 162 142
223 162 142
223 162 142
223 162 143
223 162 143
223 162 143
223 162 143
223 162 143
223 161 143
223 161 143
223 161 143
223 161 143
223 161 143
223 161 143
223 161 143
223 161 143
222 161 143
222 161 143
222 161 144
222 161 144
222 161 144
222 161 144
222 160 144
222 160 144
222 160 144
222 160 144
222 160 144
222 160 144
222 160 144
222 160 144
222 160 145
222 160 145
222 160 145
222 160 145
221 159 145
221 159 145
221 159 145
221 159 145
221 159 145
221 159 145
221 159 145
221 159 146
221 159 146
221 159 146
221 159 146
221 158 146
221 158 146
221 158 146
221 158 146
221 158 146
220 158 146
220 158 146
220 158 147
220 158 147
220 158 147
220 158 147
220 157 147
220 157 147
220 157 147
220 157 147
220 157 147
220 157 147
220 157 147
220 157 148
220 157 148
220 157 148
220 157 148
219 157 148
219 156 148
219 156 148
219 156 148
219 156 148
219 156 148
219 156 148
219 156 149
219 156 149
219 156 149
219 156 149
219 156 149
219 155 149
219 155 149
219 155 149
219 155 149
218 155 149
218 155 149
218 155 150
218 155 150
218 155 150
218 155 150
218 155 150
218 155 150
218 154 150
218 154 150
218 154 150
218 154 150
218 154 150
218 154 150
218 154 151
218 154 151
218 154 151
217 154 151
217 154 151
217 153 151
217 153 151
217 153 151
217 153 151
217 153 151
217 153 151
217 153 151
217 153 152
217 153 152
217 153 152
217 153 152
217 153 152
217 153 152
217 152 152
217 152 152
217 152 152
217 152 152
216 152 152
216 152 152
216 152 152
216 152 153
216 152 153
216 152 153
216 152 153
216 152 153
216 152 153
216 152 153
216 151 153
216 151 153
216 151 153
216 151 153
216 151 153
216 151 153
216 151 154
216 151 154
216 151 154
216 151 154
215 151 154
215 151 154
215 151 154
215 151 154
215 150 154
215 150 154
215 150 154
215 150 154
215 150 154
215 150 154
215 150 154
215 150 155
215 150 155
215 150 155
215 150 155
215 150 155
215 150 155
215 150 155
215 150 155
215 150 155
215 149 155
215 149 155
215 149 155
214 149 155
214 149 155
214 149 155
214 149 155
214 149 156
214 149 156
214 149 156
214 149 156
214 149 156
214 149 156
214 149 155
214 149 155
214 149 155
214 149 155
215 149 155
215 149 155
215 149 155
215 150 155
215 150 155
215 150 155
215 150 155
215 150 155
215 150 155
215 150 155
215 150 155
215 150 155
215 150 154
215 150 154
215 150 154
215 150 154
215 150 154
215 150 154
215 150 154
215 151 154
215 151 154
215 151 154
215 151 154
216 151 154
216 151 154
216 151 154
216 151 154
216 151 153
216 151 153
216 151 153
216 151 153
216 151 153
216 151 153
216 152 153
216 152 153
216 152 153
216 152 153
216 152 153
216 152 153
216 152 153
216 152 152
216 152 152
216 152 152
217 152 152
217 152 152
217 152 152
217 152 152
217 153 152
217 153 152
217 153 152
217 153 152
217 153 152
217 153 152
217 153 151
217 153 151
217 153 151
217 153 151
217 153 151
217 153 151
217 154 151
217 154 151
217 154 151
218 154 151
218 154 151
218 154 151
218 154 150
218 154 150
218 154 150
218 154 150
218 154 150
218 154 150
218 155 150
218 155 150
218 155 150
218 155 150
218 155 150
218 155 150
218 155 149
218 155 149
219 155 149
219 155 149
219 155 149
219 155 149
219 156 149
219 156 149
219 156 149
219 156 149
219 156 149
219 156 148
219 156 148
219 156 148
219 156 148
219 156 148
219 156 148
219 157 148
220 157 148
220 157 148
220 157 148
220 157 148
220 157 147
220 157 147
220 157 147
220 157 147
220 157 147
220 157 147
220 158 147
220 158 147
220 158 147
220 158 147
220 158 146
220 158 146
221 158 146
221 158 146
221 158 146
221 158 146
221 158 146
221 158 146
221 159 146
221 159 146
221 159 146
221 159 146
221 159 145
221 159 145
221 159 145
221 159 145
221 159 145
221 159 145
221 159 145
222 160 145
222 160 145
222 160 145
222 160 145
222 160 145
222 160 144
222 160 144
222 160 144
222 160 144
222 160 144
222 160 144
222 160 144
222 160 144
222 161 144
222 161 144
222 161 144
222 161 144
222 161 143
222 161 143
223 161 143
223 161 143
223 161 143
223 161 143
223 161 143
223 161 143
223 161 143
223 161 143
223 161 143
223 162 143
223 162 143
223 162 143
223 162 143
223 162 143
223 162 143
223 162 142
223 162 142
223 162 142
223 162 142
223 162 142
223 162 142
223 162 142
223 162 142
223 162 142
223 162 142
223 162 141
195 143 121
164 121 98
144 109 79
119 92 59
114 87 60
115 89 58
115 89 57
119 92 57
113 86 61
114 88 57
113 87 58
118 92 56
113 86 60
114 87 61
113 86 59
113 86 59
111 85 56
115 89 57
113 88 56
114 88 56
118 91 57
111 86 57
115 88 59
114 87 59
113 88 55
116 90 59
113 88 56
117 91 58
110 83 61
116 91 55
114 88 58
115 89 58
115 89 56
139 106 72
167 124 97
191 141 116
220 160 140
223 162 142
223 162 142
223 162 142
223 162 142
223 162 142
223 162 142
223 162 142
223 162 142
223 162 142
223 162 142
223 162 143
223 162 143
223 162 143
223 162 143
223 162 143
223 162 143
223 161 143
223 161 143
223 161 143
223 161 143
223 161 143
223 161 143
223 161 143
223 161 143
223 161 143
222 161 143
222 161 144
222 161 144
222 161 144
222 161 144
222 161 144
222 160 144
222 160 144
222 160 144
222 160 144
222 160 144
222 160 144
222 160 144
222 160 144
222 160 144
222 160 145
222 160 145
222 160 145
222 160 145
221 159 145
221 159 145
221 159 145
221 159 145
221 159 145
221 159 145
221 159 145
221 159 146
221 159 146
221 159 146
221 159 146
221 159 146
221 158 146
221 158 146
221 158 146
221 158 146
221 158 146
220 158 146
220 158 147
220 158 147
220 158 147
220 158 147
220 158 147
220 157 147
220 157 147
220 157 147
220 157 147
220 157 147
220 157 147
220 157 148
220 157 148
220 157 148
220 157 148
219 157 148
219 156 148
219 156 148
219 156 148
219 156 148
219 156 148
219 156 148
219 156 149
219 156 149
219 156 149
219 156 149
219 156 149
219 155 149
219 155 149
219 155 149
219 155 149
218 155 149
218 155 149
218 155 150
218 155 150
218 155 150
218 155 150
218 155 150
218 155 150
218 154 150
218 154 150
218 154 150
218 154 150
218 154 150
218 154 150
218 154 151
218 154 151
218 154 151
218 154 151
217 154 151
217 154 151
217 153 151
217 153 151
217 153 151
217 153 151
217 153 151
217 153 151
217 153 152
217 153 152
217 153 152
217 153 152
217 153 152
217 153 152
217 152 152
217 152 152
217 152 152
217 152 152
216 152 152
216 152 152
216 152 152
216 152 153
216 152 153
216 152 153
216 152 153
216 152 153
216 152 153
216 152 153
216 151 153
216 151 153
216 151 153
216 151 153
216 151 153
216 151 153
216 151 154
216 151 154
216 151 154
216 151 154
215 151 154
215 151 154
215 151 154
215 151 154
215 150 154
215 150 154
215 150 154
215 150 154
215 150 154
215 150 154
215 150 154
215 150 155
215 150 155
215 150 155
215 150 155
215 150 155
215 150 155
215 150 155
215 150 155
215 150 155
215 149 155
215 149 155
215 149 155
214 149 155
214 149 155
214 149 155
214 149 155
214 149 156
214 149 156
214 149 156
214 149 156
214 149 156
214 149 156
214 149 156
214 149 156
214 149 156
214 149 156
214 149 156
214 149 156
214 149 156
214 149 156
214 149 155
214 149 155
214 149 155
214 149 155
215 149 155
215 149 155
215 149 155
215 150 155
215 150 155
215 150 155
215 150 155
215 150 155
215 150 155
215 150 155
215 150 155
215 150 155
215 150 154
215 150 154
215 150 154
215 150 154
215 150 154
215 150 154
215 150 154
215 151 154
215 151 154
215 151 154
215 151 154
216 151 154
216 151 154
216 151 154
216 151 153
216 151 153
216 151 153
216 151 153
216 151 153
216 151 153
216 151 153
216 152 153
216 152 153
216 152 153
216 152 153
216 152 153
216 152 153
216 152 153
216 152 152
216 152 152
216 152 152
217 152 152
217 152 152
217 152 152
217 153 152
217 153 152
217 153 152
217 153 152
217 153 152
217 153 152
217 153 152
217 153 151
217 153 151
217 153 151
217 153 151
217 153 151
217 153 151
217 154 151
217 154 151
218 154 151
218 154 151
218 154 151
218 154 151
218 154 150
218 154 150
218 154 150
218 154 150
218 154 150
218 154 150
218 155 150
218 155 150
218 155 150
218 155 150
218 155 150
218 155 149
218 155 149
219 155 149
219 155 149
219 155 149
219 155 149
219 155 149
219 156 149
219 156 149
219 156 149
219 156 149
219 156 148
219 156 148
219 156 148
219 156 148
219 156 148
219 156 148
219 156 148
219 157 148
220 157 148
220 157 148
220 157 148
220 157 147
220 157 147
220 157 147
220 157 147
220 157 147
220 157 147
220 157 147
220 158 147
220 158 147
220 158 147
220 158 147
220 158 147
220 158 146
221 158 146
221 158 146
221 158 146
221 158 146
221 158 146
221 159 146
221 159 146
221 159 146
221 159 146
221 159 146
221 159 145
221 159 145
221 159 145
221 159 145
221 159 145
221 159 145
221 159 145
221 159 145
222 160 145
222 160 145
222 160 145
222 160 145
222 160 144
222 160 144
222 160 144
222 160 144
222 160 144
222 160 144
222 160 144
222 160 144
222 160 144
222 161 144
222 161 144
222 161 144
222 161 144
222 161 144
222 161 143
222 161 143
223 161 143
223 161 143
223 161 143
223 161 143
223 161 143
223 161 143
223 161 143
223 161 143
223 161 143
223 161 143
223 162 143
223 162 143
223 162 143
223 162 143
223 162 143
223 162 143
222 161 142
195 143 120
159 119 89
122 93 64
115 89 56
116 91 56
113 87 58
116 90 57
113 87 59
113 87 57
115 90 57
115 90 56
117 91 56
110 83 60
115 89 56
117 91 57
114 88 56
114 88 55
116 90 57
112 86 59
115 87 61
113 87 56
115 89 57
115 88 59
114 88 56
115 90 54
110 83 59
110 85 57
114 87 59
112 86 58
110 84 56
111 84 58
114 87 60
115 88 58
114 88 58
115 89 58
116 89 59
113 87 57
114 87 59
114 88 59
122 94 61
156 117 90
188 138 114
218 158 139
223 162 143
223 162 143
223 162 143
223 162 143
223 162 143
223 162 143
223 161 143
223 161 143
223 161 143
223 161 143
223 161 143
223 161 143
223 161 143
223 161 143
223 161 143
223 161 143
222 161 143
222 161 143
222 161 144
222 161 144
222 161 144
222 161 144
222 161 144
222 160 144
222 160 144
222 160 144
222 160 144
222 160 144
222 160 144
222 160 144
222 160 144
222 160 144
222 160 145
222 160 145
222 160 145
222 160 145
222 160 145
221 159 145
221 159 145
221 159 145
221 159 145
221 159 145
221 159 145
221 159 145
221 159 146
221 159 146
221 159 146
221 159 146
221 159 146
221 158 146
221 158 146
221 158 146
221 158 146
221 158 146
220 158 146
220 158 146
220 158 147
220 158 147
220 158 147
220 158 147
220 157 147
220 157 147
220 157 147
220 157 147
220 157 147
220 157 147
220 157 147
220 157 148
220 157 148
220 157 148
219 157 148
219 156 148
219 156 148
219 156 148
219 156 148
219 156 148
219 156 148
219 156 148
219 156 149
219 156 149
219 156 149
219 156 149
219 156 149
219 155 149
219 155 149
219 155 149
219 155 149
218 155 149
218 155 149
218 155 150
218 155 150
218 155 150
218 155 150
218 155 150
218 154 150
218 154 150
218 154 150
218 154 150
218 154 150
218 154 150
218 154 151
218 154 151
218 154 151
218 154 151
217 154 151
217 154 151
217 153 151
217 153 151
217 153 151
217 153 151
217 153 151
217 153 151
217 153 152
217 153 152
217 153 152
217 153 152
217 153 152
217 153 152
217 153 152
217 152 152
217 152 152
217 152 152
216 152 152
216 152 152
216 152 152
216 152 153
216 152 153
216 152 153
216 152 153
216 152 153
216 152 153
216 152 153
216 151 153
216 151 153
216 151 153
216 151 153
216 151 153
216 151 153
216 151 154
216 151 154
216 151 154
216 151 154
216 151 154
215 151 154
215 151 154
215 151 154
215 150 154
215 150 154
215 150 154
215 150 154
215 150 154
215 150 154
215 150 154
215 150 155
215 150 155
215 150 155
215 150 155
215 150 155
215 150 155
215 150 155
215 150 155
215 150 155
215 149 155
215 149 155
215 149 155
214 149 155
214 149 155
214 149 155
214 149 155
214 149 156
214 149 156
214 149 156
214 149 156
214 149 156
214 149 156
214 149 156
214 149 156
214 149 156
214 148 156
214 148 156
214 148 156
214 149 156
214 149 156
214 149 156
214 149 156
214 149 156
214 149 156
214 149 156
214 149 156
214 149 156
214 149 156
214 149 155
214 149 155
214 149 155
214 149 155
215 149 155
215 149 155
215 149 155
215 150 155
215 150 155
215 150 155
215 150 155
215 150 155
215 150 155
215 150 155
215 150 155
215 150 155
215 150 154
215 150 154
215 150 154
215 150 154
215 150 154
215 150 154
215 150 154
215 151 154
215 151 154
215 151 154
215 151 154
216 151 154
216 151 154
216 151 154
216 151 153
216 151 153
216 151 153
216 151 153
216 151 153
216 151 153
216 151 153
216 152 153
216 152 153
216 152 153
216 152 153
216 152 153
216 152 153
216 152 153
216 152 152
216 152 152
217 152 152
217 152 152
217 152 152
217 152 152
217 153 152
217 153 152
217 153 152
217 153 152
217 153 152
217 153 152
217 153 151
217 153 151
217 153 151
217 153 151
217 153 151
217 153 151
217 153 151
217 154 151
217 154 151
218 154 151
218 154 151
218 154 151
218 154 150
218 154 150
218 154 150
218 154 150
218 154 150
218 154 150
218 154 150
218 155 150
218 155 150
218 155 150
218 155 150
218 155 150
218 155 149
218 155 149
219 155 149
219 155 149
219 155 149
219 155 149
219 156 149
219 156 149
219 156 149
219 156 149
219 156 149
219 156 148
219 156 148
219 156 148
219 156 148
219 156 148
219 156 148
219 157 148
220 157 148
220 157 148
220 157 148
220 157 148
220 157 147
220 157 147
220 157 147
220 157 147
220 157 147
220 157 147
220 157 147
220 158 147
220 158 147
220 158 147
220 158 147
220 158 146
220 158 146
221 158 146
221 158 146
221 158 146
221 158 146
221 158 146
221 158 146
221 159 146
221 159 146
221 159 146
221 159 146
221 159 145
221 159 145
221 159 145
221 159 145
221 159 145
221 159 145
221 159 145
221 159 145
222 160 145
222 160 145
222 160 145
222 160 145
222 160 145
222 160 144
222 160 144
222 160 144
222 160 144
222 160 144
222 160 144
222 160 144
222 160 144
222 160 144
222 161 144
222 161 144
222 161 144
222 161 144
222 161 144
222 161 144
222 161 143
222 161 143
223 161 143
223 161 143
223 161 143
223 161 143
223 161 143
223 161 143
223 161 143
223 161 143
198 145 122
155 117 86
117 89 63
116 88 62
113 86 60
116 90 56
113 86 59
112 87 53
114 88 58
111 85 56
111 85 59
109 84 55
114 87 59
114 88 57
111 85 59
115 88 58
115 89 57
109 83 58
111 85 58
111 86 55
113 87 58
109 83 58
113 86 58
110 84 57
112 86 56
113 88 54
109 84 56
113 87 56
113 86 61
111 85 57
111 85 56
111 85 55
112 85 59
109 83 59
113 89 53
115 89 58
113 86 60
117 91 57
108 81 60
110 84 58
111 85 58
114 88 58
113 87 58
114 88 59
114 87 59
121 93 62
155 116 91
193 141 122
223 161 143
223 161 143
223 161 143
223 161 143
223 161 143
223 161 143
223 161 143
222 161 143
222 161 143
222 161 143
222 161 144
222 161 144
222 161 144
222 161 144
222 161 144
222 160 144
222 160 144
222 160 144
222 160 144
222 160 144
222 160 144
222 160 144
222 160 144
222 160 144
222 160 144
222 160 145
222 160 145
222 160 145
222 160 145
222 160 145
221 159 145
221 159 145
221 159 145
221 159 145
221 159 145
221 159 145
221 159 145
221 159 145
221 159 146
221 159 146
221 159 146
221 159 146
221 159 146
221 158 146
221 158 146
221 158 146
221 158 146
221 158 146
220 158 146
220 158 146
220 158 147
220 158 147
220 158 147
220 158 147
220 157 147
220 157 147
220 157 147
220 157 147
220 157 147
220 157 147
220 157 147
220 157 148
220 157 148
220 157 148
219 157 148
219 157 148
219 156 148
219 156 148
219 156 148
219 156 148
219 156 148
219 156 148
219 156 149
219 156 149
219 156 149
219 156 149
219 156 149
219 155 149
219 155 149
219 155 149
219 155 149
218 155 149
218 155 149
218 155 150
218 155 150
218 155 150
218 155 150
218 155 150
218 154 150
218 154 150
218 154 150
218 154 150
218 154 150
218 154 150
218 154 150
218 154 151
218 154 151
218 154 151
217 154 151
217 154 151
217 153 151
217 153 151
217 153 151
217 153 151
217 153 151
217 153 151
217 153 151
217 153 152
217 153 152
217 153 152
217 153 152
217 153 152
217 153 152
217 152 152
217 152 152
217 152 152
217 152 152
216 152 152
216 152 152
216 152 153
216 152 153
216 152 153
216 152 153
216 152 153
216 152 153
216 152 153
216 151 153
216 151 153
216 151 153
216 151 153
216 151 153
216 151 153
216 151 153
216 151 154
216 151 154
216 151 154
215 151 154
215 151 154
215 151 154
215 151 154
215 150 154
215 150 154
215 150 154
215 150 154
215 150 154
215 150 154
215 150 154
215 150 155
215 150 155
215 150 155
215 150 155
215 150 155
215 150 155
215 150 155
215 150 155
215 150 155
215 149 155
215 149 155
214 149 155
214 149 155
214 149 155
214 149 155
214 149 156
214 149 156
214 149 156
214 149 156
214 149 156
214 149 156
214 149 156
214 149 156
214 149 156
214 149 156
214 148 156
214 148 156
214 148 156
214 148 156
214 148 157
214 148 156
214 148 156
214 148 156
214 148 156
214 148 156
214 148 156
214 148 156
214 149 156
214 149 156
214 149 156
214 149 156
214 149 156
214 149 156
214 149 156
214 149 156
214 149 156
214 149 155
214 149 155
214 149 155
214 149 155
215 149 155
215 149 155
215 149 155
215 150 155
215 150 155
215 150 155
215 150 155
215 150 155
215 150 155
215 150 155
215 150 155
215 150 155
215 150 154
215 150 154
215 150 154
215 150 154
215 150 154
215 150 154
215 150 154
215 151 154
215 151 154
215 151 154
215 151 154
216 151 154
216 151 154
216 151 154
216 151 153
216 151 153
216 151 153
216 151 153
216 151 153
216 151 153
216 151 153
216 152 153
216 152 153
216 152 153
216 152 153
216 152 153
216 152 153
216 152 153
216 152 152
216 152 152
217 152 152
217 152 152
217 152 152
217 152 152
217 153 152
217 153 152
217 153 152
217 153 152
217 153 152
217 153 152
217 153 151
217 153 151
217 153 151
217 153 151
217 153 151
217 153 151
217 154 151
217 154 151
217 154 151
218 154 151
218 154 151
218 154 151
218 154 150
218 154 150
218 154 150
218 154 150
218 154 150
218 154 150
218 155 150
218 155 150
218 155 150
218 155 150
218 155 150
218 155 150
218 155 149
218 155 149
219 155 149
219 155 149
219 155 149
219 155 149
219 156 149
219 156 149
219 156 149
219 156 149
219 156 149
219 156 148
219 156 148
219 156 148
219 156 148
219 156 148
219 156 148
219 157 148
219 157 148
220 157 148
220 157 148
220 157 148
220 157 147
220 157 147
220 157 147
220 157 147
220 157 147
220 157 147
220 157 147
220 158 147
220 158 147
220 158 147
220 158 147
220 158 146
220 158 146
221 158 146
221 158 146
221 158 146
221 158 146
221 158 146
221 158 146
221 159 146
221 159 146
221 159 146
221 159 146
221 159 145
221 159 145
221 159 145
221 159 145
221 159 145
221 159 145
221 159 145
221 159 145
221 159 145
222 160 145
222 160 145
222 160 145
222 160 145
222 160 145
222 160 144
222 160 144
222 160 144
222 160 144
222 160 144
222 160 144
222 160 144
222 160 144
222 160 144
222 160 144
222 160 144
222 161 144
222 161 144
222 161 144
222 161 144
222 161 144
222 161 144
216 156 139
183 134 113
132 99 73
111 86 57
112 86 60
113 87 56
111 85 57
112 86 60
108 82 60
113 88 56
114 88 58
114 88 57
110 83 61
114 88 57
113 87 57
113 86 59
110 85 56
110 84 57
109 84 56
110 85 55
107 81 58
108 82 58
111 86 55
114 87 60
111 85 58
112 86 58
114 89 56
113 86 59
115 90 56
105 81 55
113 87 56
114 88 57
110 85 55
111 85 56
111 85 58
117 91 55
109 83 58
113 85 62
113 86 60
113 87 58
112 86 58
115 89 58
109 83 58
113 86 58
112 86 58
114 87 59
108 83 55
114 88 58
112 86 57
112 86 59
114 88 56
133 101 72
175 130 104
218 158 140
222 161 144
222 161 144
222 161 144
222 161 144
222 161 144
222 161 144
222 160 144
222 160 144
222 160 144
222 160 144
222 160 144
222 160 144
222 160 144
222 160 144
222 160 144
222 160 144
222 160 144
222 160 145
222 160 145
222 160 145
222 160 145
222 160 145
221 159 145
221 159 145
221 159 145
221 159 145
221 159 145
221 159 145
221 159 145
221 159 145
221 159 146
221 159 146
221 159 146
221 159 146
221 159 146
221 158 146
221 158 146
221 158 146
221 158 146
221 158 146
221 158 146
220 158 146
220 158 146
220 158 147
220 158 147
220 158 147
220 158 147
220 157 147
220 157 147
220 157 147
220 157 147
220 157 147
220 157 147
220 157 147
220 157 148
220 157 148
220 157 148
219 157 148
219 157 148
219 156 148
219 156 148
219 156 148
219 156 148
219 156 148
219 156 148
219 156 149
219 156 149
219 156 149
219 156 149
219 156 149
219 155 149
219 155 149
219 155 149
219 155 149
218 155 149
218 155 149
218 155 150
218 155 150
218 155 150
218 155 150
218 155 150
218 155 150
218 154 150
218 154 150
218 154 150
218 154 150
218 154 150
218 154 150
218 154 151
218 154 151
218 154 151
217 154 151
217 154 151
217 154 151
217 153 151
217 153 151
217 153 151
217 153 151
217 153 151
217 153 151
217 153 152
217 153 152
217 153 152
217 153 152
217 153 152
217 153 152
217 152 152
217 152 152
217 152 152
216 152 152
216 152 152
216 152 152
216 152 153
216 152 153
216 152 153
216 152 153
216 152 153
216 152 153
216 152 153
216 151 153
216 151 153
216 151 153
216 151 153
216 151 153
216 151 153
216 151 153
216 151 154
216 151 154
216 151 154
215 151 154
215 151 154
215 151 154
215 151 154
215 151 154
215 150 154
215 150 154
215 150 154
215 150 154
215 150 154
215 150 154
215 150 155
215 150 155
215 150 155
215 150 155
215 150 155
215 150 155
215 150 155
215 150 155
215 150 155
215 149 155
215 149 155
215 149 155
214 149 155
214 149 155
214 149 155
214 149 156
214 149 156
214 149 156
214 149 156
214 149 156
214 149 156
214 149 156
214 149 156
214 149 156
214 149 156
214 148 156
214 148 156
214 148 156
214 148 156
214 148 156
214 148 156
214 148 156
214 148 157
213 148 157
214 148 157
214 148 157
214 148 157
214 148 157
214 148 156
214 148 156
214 148 156
214 148 156
214 148 156
214 148 156
214 148 156
214 149 156
214 149 156
214 149 156
214 149 156
214 149 156
214 149 156
214 149 156
214 149 156
214 149 156
214 149 156
214 149 155
214 149 155
214 149 155
214 149 155
215 149 155
215 149 155
215 149 155
215 150 155
215 150 155
215 150 155
215 150 155
215 150 155
215 150 155
215 150 155
215 150 155
215 150 154
215 150 154
215 150 154
215 150 154
215 150 154
215 150 154
215 150 154
215 151 154
215 151 154
215 151 154
215 151 154
216 151 154
216 151 154
216 151 154
216 151 153
216 151 153
216 151 153
216 151 153
216 151 153
216 151 153
216 151 153
216 152 153
216 152 153
216 152 153
216 152 153
216 152 153
216 152 153
216 152 152
216 152 152
216 152 152
217 152 152
217 152 152
217 152 152
217 152 152
217 153 152
217 153 152
217 153 152
217 153 152
217 153 152
217 153 152
217 153 151
217 153 151
217 153 151
217 153 151
217 153 151
217 153 151
217 154 151
217 154 151
218 154 151
218 154 151
218 154 151
218 154 151
218 154 150
218 154 150
218 154 150
218 154 150
218 154 150
218 154 150
218 155 150
218 155 150
218 155 150
218 155 150
218 155 150
218 155 150
218 155 149
219 155 149
219 155 149
219 155 149
219 155 149
219 155 149
219 156 149
219 156 149
219 156 149
219 156 149
219 156 149
219 156 148
219 156 148
219 156 148
219 156 148
219 156 148
219 156 148
219 157 148
220 157 148
220 157 148
220 157 148
220 157 148
220 157 147
220 157 147
220 157 147
220 157 147
220 157 147
220 157 147
220 157 147
220 158 147
220 158 147
220 158 147
220 158 147
220 158 147
220 158 146
220 158 146
221 158 146
221 158 146
221 158 146
221 158 146
221 158 146
221 159 146
221 159 146
221 159 146
221 159 146
221 159 146
221 159 145
221 159 145
221 159 145
221 159 145
221 159 145
221 159 145
221 159 145
221 159 145
221 159 145
221 159 145
222 160 145
222 160 145
222 160 145
222 160 145
222 160 145
222 160 144
222 160 144
222 160 144
222 160 144
222 160 144
222 160 144
222 160 144
222 160 144
222 160 144
216 156 140
174 129 103
123 94 66
114 87 60
113 87 57
113 88 55
112 85 59
111 85 57
113 87 58
109 84 57
111 85 57
111 84 60
109 83 59
112 86 56
116 90 59
110 84 59
110 84 59
113 87 57
113 86 58
108 82 60
113 86 60
112 85 60
110 84 59
111 85 59
110 85 56
113 86 60
106 81 57
111 85 58
109 82 61
109 84 57
113 86 59
112 85 59
110 85 55
113 87 56
108 81 60
113 86 61
111 85 58
113 87 57
110 85 57
112 87 56
111 86 57
111 84 59
110 84 58
111 84 58
113 87 57
114 88 57
113 88 56
113 87 57
109 83 57
111 85 57
114 87 58
114 87 59
113 86 61
111 85 57
115 88 60
118 90 63
175 129 108
213 154 138
222 160 144
222 160 144
222 160 144
222 160 144
222 160 144
222 160 144
222 160 144
222 160 144
222 160 144
222 160 145
222 160 145
222 160 145
222 160 145
222 160 145
222 160 145
221 159 145
221 159 145
221 159 145
221 159 145
221 159 145
221 159 145
221 159 145
221 159 145
221 159 145
221 159 146
221 159 146
221 159 146
221 159 146
221 159 146
221 158 146
221 158 146
221 158 146
221 158 146
221 158 146
221 158 146
220 158 146
220 158 147
220 158 147
220 158 147
220 158 147
220 158 147
220 157 147
220 157 147
220 157 147
220 157 147
220 157 147
220 157 147
220 157 147
220 157 148
220 157 148
220 157 148
220 157 148
219 157 148
219 156 148
219 156 148
219 156 148
219 156 148
219 156 148
219 156 148
219 156 149
219 156 149
219 156 149
219 156 149
219 156 149
219 155 149
219 155 149
219 155 149
219 155 149
219 155 149
218 155 149
218 155 149
218 155 150
218 155 150
218 155 150
218 155 150
218 155 150
218 154 150
218 154 150
218 154 150
218 154 150
218 154 150
218 154 150
218 154 151
218 154 151
218 154 151
218 154 151
217 154 151
217 154 151
217 153 151
217 153 151
217 153 151
217 153 151
217 153 151
217 153 151
217 153 152
217 153 152
217 153 152
217 153 152
217 153 152
217 153 152
217 152 152
217 152 152
217 152 152
217 152 152
216 152 152
216 152 152
216 152 153
216 152 153
216 152 153
216 152 153
216 152 153
216 152 153
216 152 153
216 152 153
216 151 153
216 151 153
216 151 153
216 151 153
216 151 153
216 151 153
216 151 154
216 151 154
216 151 154
215 151 154
215 151 154
215 151 154
215 151 154
215 150 154
215 150 154
215 150 154
215 150 154
215 150 154
215 150 154
215 150 154
215 150 155
215 150 155
215 150 155
215 150 155
215 150 155
215 150 155
215 150 155
215 150 155
215 149 155
215 149 155
215 149 155
214 149 155
214 149 155
214 149 155
214 149 155
214 149 156
214 149 156
214 149 156
214 149 156
214 149 156
214 149 156
214 149 156
214 149 156
214 149 156
214 149 156
214 148 156
214 148 156
214 148 156
214 148 156
214 148 156
214 148 156
214 148 156
214 148 157
214 148 157
214 148 157
214 148 157
213 148 157
213 148 157
213 148 157
213 148 157
213 148 157
213 148 157
213 148 157
214 148 157
214 148 157
214 148 157
214 148 157
214 148 156
214 148 156
214 148 156
214 148 156
214 148 156
214 148 156
214 148 156
214 149 156
214 149 156
214 149 156
214 149 156
214 149 156
214 149 156
214 149 156
214 149 156
214 149 156
214 149 155
214 149 155
214 149 155
214 149 155
215 149 155
215 149 155
215 149 155
215 150 155
215 150 155
215 150 155
215 150 155
215 150 155
215 150 155
215 150 155
215 150 155
215 150 154
215 150 154
215 150 154
215 150 154
215 150 154
215 150 154
215 150 154
215 151 154
215 151 154
215 151 154
215 151 154
216 151 154
216 151 154
216 151 154
216 151 153
216 151 153
216 151 153
216 151 153
216 151 153
216 151 153
216 151 153
216 152 153
216 152 153
216 152 153
216 152 153
216 152 153
216 152 153
216 152 152
216 152 152
216 152 152
217 152 152
217 152 152
217 152 152
217 153 152
217 153 152
217 153 152
217 153 152
217 153 152
217 153 152
217 153 152
217 153 151
217 153 151
217 153 151
217 153 151
217 153 151
217 153 151
217 154 151
217 154 151
218 154 151
218 154 151
218 154 151
218 154 151
218 154 150
218 154 150
218 154 150
218 154 150
218 154 150
218 154 150
218 155 150
218 155 150
218 155 150
218 155 150
218 155 150
218 155 149
218 155 149
219 155 149
219 155 149
219 155 149
219 155 149
219 155 149
219 156 149
219 156 149
219 156 149
219 156 149
219 156 149
219 156 148
219 156 148
219 156 148
219 156 148
219 156 148
219 156 148
219 157 148
220 157 148
220 157 148
220 157 148
220 157 148
220 157 147
220 157 147
220 157 147
220 157 147
220 157 147
220 157 147
220 157 147
220 157 147
220 158 147
220 158 147
220 158 147
220 158 147
220 158 146
220 158 146
221 158 146
221 158 146
221 158 146
221 158 146
221 158 146
221 158 146
221 159 146
221 159 146
221 159 146
221 159 146
221 159 146
221 159 145
221 159 145
221 159 145
221 159 145
221 159 145
221 159 145
221 159 145
221 159 145
221 159 145
221 159 145
222 160 145
222 160 145
222 160 145
222 160 145
222 160 145
222 160 145
222 160 145
214 155 137
165 122 99
120 91 64
114 89 55
111 84 58
111 86 56
113 88 57
115 89 58
113 86 58
115 89 57
111 84 59
115 88 61
110 83 60
114 87 61
109 82 60
109 83 56
109 84 57
111 86 56
111 85 59
114 89 56
111 83 63
112 87 56
112 86 59
112 85 60
107 81 57
107 81 59
110 85 56
111 85 57
107 81 57
108 82 58
114 87 59
108 81 60
107 81 57
107 82 55
113 86 59
111 85 58
115 88 60
109 84 57
108 83 57
111 84 61
112 85 60
105 79 60
110 84 57
108 84 52
112 85 60
109 83 58
112 87 56
114 87 59
110 84 57
111 84 60
111 86 56
112 86 58
112 86 56
108 81 61
112 86 56
113 88 56
113 87 57
110 84 59
115 89 57
119 91 61
167 123 102
208 151 134
222 160 145
222 160 145
222 160 145
222 160 145
222 160 145
222 160 145
222 160 145
221 159 145
221 159 145
221 159 145
221 159 145
221 159 145
221 159 145
221 159 145
221 159 145
221 159 145
221 159 146
221 159 146
221 159 146
221 159 146
221 159 146
221 159 146
221 158 146
221 158 146
221 158 146
221 158 146
221 158 146
221 158 146
220 158 146
220 158 146
220 158 147
220 158 147
220 158 147
220 158 147
220 158 147
220 157 147
220 157 147
220 157 147
220 157 147
220 157 147
220 157 147
220 157 147
220 157 148
220 157 148
220 157 148
219 157 148
219 157 148
219 156 148
219 156 148
219 156 148
219 156 148
219 156 148
219 156 148
219 156 149
219 156 149
219 156 149
219 156 149
219 156 149
219 155 149
219 155 149
219 155 149
219 155 149
219 155 149
218 155 149
218 155 149
218 155 150
218 155 150
218 155 150
218 155 150
218 155 150
218 154 150
218 154 150
218 154 150
218 154 150
218 154 150
218 154 150
218 154 151
218 154 151
218 154 151
218 154 151
217 154 151
217 154 151
217 153 151
217 153 151
217 153 151
217 153 151
217 153 151
217 153 151
217 153 152
217 153 152
217 153 152
217 153 152
217 153 152
217 153 152
217 152 152
217 152 152
217 152 152
217 152 152
216 152 152
216 152 152
216 152 153
216 152 153
216 152 153
216 152 153
216 152 153
216 152 153
216 152 153
216 151 153
216 151 153
216 151 153
216 151 153
216 151 153
216 151 153
216 151 153
216 151 154
216 151 154
216 151 154
215 151 154
215 151 154
215 151 154
215 151 154
215 150 154
215 150 154
215 150 154
215 150 154
215 150 154
215 150 154
215 150 154
215 150 155
215 150 155
215 150 155
215 150 155
215 150 155
215 150 155
215 150 155
215 150 155
215 149 155
215 149 155
215 149 155
214 149 155
214 149 155
214 149 155
214 149 155
214 149 156
214 149 156
214 149 156
214 149 156
214 149 156
214 149 156
214 149 156
214 149 156
214 149 156
214 149 156
214 148 156
214 148 156
214 148 156
214 148 156
214 148 156
214 148 156
214 148 157
214 148 157
214 148 157
214 148 157
214 148 157
213 148 157
213 148 157
213 148 157
213 148 157
213 148 157
213 147 157
213 147 157
213 147 157
213 148 157
213 148 157
213 148 157
213 148 157
213 148 157
213 148 157
213 148 157
214 148 157
214 148 157
214 148 157
214 148 157
214 148 156
214 148 156
214 148 156
214 148 156
214 148 156
214 148 156
214 148 156
214 149 156
214 149 156
214 149 156
214 149 156
214 149 156
214 149 156
214 149 156
214 149 156
214 149 156
214 149 155
214 149 155
214 149 155
214 149 155
215 149 155
215 149 155
215 149 155
215 150 155
215 150 155
215 150 155
215 150 155
215 150 155
215 150 155
215 150 155
215 150 155
215 150 155
215 150 154
215 150 154
215 150 154
215 150 154
215 150 154
215 150 154
215 151 154
215 151 154
215 151 154
215 151 154
216 151 154
216 151 154
216 151 154
216 151 153
216 151 153
216 151 153
216 151 153
216 151 153
216 151 153
216 152 153
216 152 153
216 152 153
216 152 153
216 152 153
216 152 153
216 152 153
216 152 152
216 152 152
216 152 152
217 152 152
217 152 152
217 152 152
217 152 152
217 153 152
217 153 152
217 153 152
217 153 152
217 153 152
217 153 152
217 153 151
217 153 151
217 153 151
217 153 151
217 153 151
217 153 151
217 154 151
217 154 151
218 154 151
218 154 151
218 154 151
218 154 151
218 154 150
218 154 150
218 154 150
218 154 150
218 154 150
218 154 150
218 155 150
218 155 150
218 155 150
218 155 150
218 155 150
218 155 149
218 155 149
219 155 149
219 155 149
219 155 149
219 155 149
219 156 149
219 156 149
219 156 149
219 156 149
219 156 149
219 156 149
219 156 148
219 156 148
219 156 148
219 156 148
219 156 148
219 156 148
219 157 148
219 157 148
220 157 148
220 157 148
220 157 148
220 157 148
220 157 147
220 157 147
220 157 147
220 157 147
220 157 147
220 157 147
220 157 147
220 158 147
220 158 147
220 158 147
220 158 147
220 158 147
220 158 146
220 158 146
221 158 146
221 158 146
221 158 146
221 158 146
221 158 146
221 158 146
221 159 146
221 159 146
221 159 146
221 159 146
221 159 146
221 159 146
221 159 145
221 159 145
221 159 145
221 159 145
221 159 145
221 159 145
221 159 145
221 159 145
221 159 145
214 154 140
173 128 103
122 93 67
112 86 57
113 87 58
116 89 58
115 88 60
114 88 57
111 85 57
110 84 59
110 84 57
112 86 57
112 87 54
110 83 60
113 87 59
109 84 55
112 86 57
110 84 58
106 81 56
112 87 56
108 81 60
112 86 59
111 85 55
108 83 56
111 85 58
112 84 61
113 87 57
111 84 58
110 83 61
107 82 57
106 80 56
109 83 59
112 85 61
112 85 60
108 82 58
107 81 58
109 83 58
110 84 58
109 83 57
112 87 56
112 85 61
111 83 61
108 82 57
108 83 55
112 85 59
112 85 58
114 88 59
113 88 56
110 84 58
111 86 56
112 85 59
112 85 59
112 85 59
111 85 58
114 87 60
107 81 59
112 86 55
111 85 58
111 85 58
114 88 57
113 87 58
109 84 57
113 88 56
114 88 57
176 130 106
219 158 143
221 159 145
221 159 145
221 159 145
221 159 145
221 159 145
221 159 145
221 159 145
221 159 145
221 159 145
221 159 146
221 159 146
221 159 146
221 159 146
221 159 146
221 159 146
221 158 146
221 158 146
221 158 146
221 158 146
221 158 146
221 158 146
220 158 146
220 158 146
220 158 147
220 158 147
220 158 147
220 158 147
220 158 147
220 157 147
220 157 147
220 157 147
220 157 147
220 157 147
220 157 147
220 157 147
220 157 148
220 157 148
220 157 148
220 157 148
219 157 148
219 156 148
219 156 148
219 156 148
219 156 148
219 156 148
219 156 148
219 156 148
219 156 149
219 156 149
219 156 149
219 156 149
219 156 149
219 156 149
219 155 149
219 155 149
219 155 149
219 155 149
218 155 149
218 155 149
218 155 150
218 155 150
218 155 150
218 155 150
218 155 150
218 154 150
218 154 150
218 154 150
218 154 150
218 154 150
218 154 150
218 154 151
218 154 151
218 154 151
218 154 151
217 154 151
217 154 151
217 153 151
217 153 151
217 153 151
217 153 151
217 153 151
217 153 151
217 153 152
217 153 152
217 153 152
217 153 152
217 153 152
217 153 152
217 153 152
217 152 152
217 152 152
217 152 152
216 152 152
216 152 152
216 152 152
216 152 153
216 152 153
216 152 153
216 152 153
216 152 153
216 152 153
216 151 153
216 151 153
216 151 153
216 151 153
216 151 153
216 151 153
216 151 153
216 151 154
216 151 154
216 151 154
215 151 154
215 151 154
215 151 154
215 151 154
215 150 154
215 150 154
215 150 154
215 150 154
215 150 154
215 150 154
215 150 154
215 150 155
215 150 155
215 150 155
215 150 155
215 150 155
215 150 155
215 150 155
215 150 155
215 149 155
215 149 155
215 149 155
214 149 155
214 149 155
214 149 155
214 149 155
214 149 156
214 149 156
214 149 156
214 149 156
214 149 156
214 149 156
214 149 156
214 149 156
214 149 156
214 148 156
214 148 156
214 148 156
214 148 156
214 148 156
214 148 156
214 148 156
214 148 157
214 148 157
214 148 157
214 148 157
213 148 157
213 148 157
213 148 157
213 148 157
213 148 157
213 148 157
213 148 157
213 147 157
213 147 157
213 147 157
213 147 158
213 147 157
213 147 157
213 147 157
213 147 157
213 147 157
213 147 157
213 147 157
213 148 157
213 148 157
213 148 157
213 148 157
213 148 157
213 148 157
214 148 157
214 148 157
214 148 157
214 148 157
214 148 156
214 148 156
214 148 156
214 148 156
214 148 156
214 148 156
214 148 156
214 148 156
214 149 156
214 149 156
214 149 156
214 149 156
214 149 156
214 149 156
214 149 156
214 149 156
214 149 156
214 149 155
214 149 155
214 149 155
214 149 155
215 149 155
215 149 155
215 150 155
215 150 155
215 150 155
215 150 155
215 150 155
215 150 155
215 150 155
215 150 155
215 150 154
215 150 154
215 150 154
215 150 154
215 150 154
215 150 154
215 150 154
215 151 154
215 151 154
215 151 154
215 151 154
216 151 154
216 151 154
216 151 154
216 151 153
216 151 153
216 151 153
216 151 153
216 151 153
216 151 153
216 151 153
216 152 153
216 152 153
216 152 153
216 152 153
216 152 153
216 152 153
216 152 153
216 152 152
216 152 152
217 152 152
217 152 152
217 152 152
217 152 152
217 153 152
217 153 152
217 153 152
217 153 152
217 153 152
217 153 152
217 153 151
217 153 151
217 153 151
217 153 151
217 153 151
217 153 151
217 154 151
217 154 151
218 154 151
218 154 151
218 154 151
218 154 151
218 154 150
218 154 150
218 154 150
218 154 150
218 154 150
218 154 150
218 155 150
218 155 150
218 155 150
218 155 150
218 155 150
218 155 149
218 155 149
219 155 149
219 155 149
219 155 149
219 155 149
219 155 149
219 156 149
219 156 149
219 156 149
219 156 149
219 156 149
219 156 148
219 156 148
219 156 148
219 156 148
219 156 148
219 156 148
219 156 148
219 157 148
220 157 148
220 157 148
220 157 148
220 157 148
220 157 147
220 157 147
220 157 147
220 157 147
220 157 147
220 157 147
220 157 147
220 157 147
220 158 147
220 158 147
220 158 147
220 158 147
220 158 147
220 158 146
220 158 146
221 158 146
221 158 146
221 158 146
221 158 146
221 158 146
221 158 146
221 158 146
221 159 146
221 159 146
221 159 146
221 159 146
221 159 146
221 159 146
221 159 146
221 159 145
181 131 116
127 96 70
114 89 54
110 85 55
113 87 56
114 88 55
111 85 56
111 84 59
113 86 61
110 83 61
108 81 59
103 78 55
109 83 58
110 84 58
109 83 58
110 84 59
111 85 58
106 81 54
109 83 57
106 81 56
105 80 56
111 86 56
109 83 57
109 83 58
111 85 58
109 83 58
111 84 61
108 82 57
109 82 60
109 84 56
107 82 57
107 80 60
110 84 56
109 84 56
109 82 58
107 81 59
108 82 59
111 84 59
108 83 57
108 81 60
111 85 57
105 80 57
107 81 57
106 81 56
109 83 58
111 84 60
109 83 60
109 83 58
111 84 60
108 83 57
111 84 62
112 86 57
108 82 57
113 86 59
108 82 56
110 84 58
111 85 58
111 85 57
109 83 59
111 85 57
110 84 57
108 82 57
113 87 58
111 84 59
113 87 56
110 84 59
127 96 69
188 137 118
221 159 145
221 159 145
221 159 146
221 159 146
221 159 146
221 159 146
221 159 146
221 159 146
221 158 146
221 158 146
221 158 146
221 158 146
221 158 146
221 158 146
221 158 146
220 158 146
220 158 146
220 158 147
220 158 147
220 158 147
220 158 147
220 158 147
220 157 147
220 157 147
220 157 147
220 157 147
220 157 147
220 157 147
220 157 147
220 157 147
220 157 148
220 157 148
220 157 148
220 157 148
219 157 148
219 156 148
219 156 148
219 156 148
219 156 148
219 156 148
219 156 148
219 156 148
219 156 149
219 156 149
219 156 149
219 156 149
219 156 149
219 155 149
219 155 149
219 155 149
219 155 149
218 155 149
218 155 149
218 155 149
218 155 150
218 155 150
218 155 150
218 155 150
218 155 150
218 154 150
218 154 150
218 154 150
218 154 150
218 154 150
218 154 150
218 154 151
218 154 151
218 154 151
218 154 151
217 154 151
217 154 151
217 153 151
217 153 151
217 153 151
217 153 151
217 153 151
217 153 151
217 153 152
217 153 152
217 153 152
217 153 152
217 153 152
217 153 152
217 152 152
217 152 152
217 152 152
217 152 152
216 152 152
216 152 152
216 152 152
216 152 153
216 152 153
216 152 153
216 152 153
216 152 153
216 152 153
216 151 153
216 151 153
216 151 153
216 151 153
216 151 153
216 151 153
216 151 153
216 151 154
216 151 154
216 151 154
215 151 154
215 151 154
215 151 154
215 151 154
215 150 154
215 150 154
215 150 154
215 150 154
215 150 154
215 150 154
215 150 155
215 150 155
215 150 155
215 150 155
215 150 155
215 150 155
215 150 155
215 150 155
215 150 155
215 149 155
215 149 155
214 149 155
214 149 155
214 149 155
214 149 155
214 149 156
214 149 156
214 149 156
214 149 156
214 149 156
214 149 156
214 149 156
214 149 156
214 149 156
214 149 156
214 148 156
214 148 156
214 148 156
214 148 156
214 148 156
214 148 156
214 148 157
214 148 157
214 148 157
214 148 157
213 148 157
213 148 157
213 148 157
213 148 157
213 148 157
213 148 157
213 148 157
213 147 157
213 147 157
213 147 157
213 147 157
213 147 157
213 147 157
213 147 157
213 147 158
213 147 158
213 147 158
213 147 158
213 147 158
213 147 158
213 147 157
213 147 157
213 147 157
213 147 157
213 147 157
213 147 157
213 147 157
213 147 157
213 148 157
213 148 157
213 148 157
213 148 157
213 148 157
213 148 157
214 148 157
214 148 157
214 148 157
214 148 157
214 148 156
214 148 156
214 148 156
214 148 156
214 148 156
214 148 156
214 148 156
214 149 156
214 149 156
214 149 156
214 149 156
214 149 156
214 149 156
214 149 156
214 149 156
214 149 156
214 149 155
214 149 155
214 149 155
214 149 155
215 149 155
215 149 155
215 149 155
215 150 155
215 150 155
215 150 155
215 150 155
215 150 155
215 150 155
215 150 155
215 150 155
215 150 154
215 150 154
215 150 154
215 150 154
215 150 154
215 150 154
215 151 154
215 151 154
215 151 154
215 151 154
216 151 154
216 151 154
216 151 154
216 151 154
216 151 153
216 151 153
216 151 153
216 151 153
216 151 153
216 151 153
216 152 153
216 152 153
216 152 153
216 152 153
216 152 153
216 152 153
216 152 152
216 152 152
216 152 152
217 152 152
217 152 152
217 152 152
217 152 152
217 153 152
217 153 152
217 153 152
217 153 152
217 153 152
217 153 152
217 153 151
217 153 151
217 153 151
217 153 151
217 153 151
217 153 151
217 154 151
217 154 151
218 154 151
218 154 151
218 154 151
218 154 151
218 154 150
218 154 150
218 154 150
218 154 150
218 154 150
218 154 150
218 155 150
218 155 150
218 155 150
218 155 150
218 155 150
218 155 149
218 155 149
218 155 149
219 155 149
219 155 149
219 155 149
219 155 149
219 155 149
219 156 149
219 156 149
219 156 149
219 156 149
219 156 148
219 156 148
219 156 148
219 156 148
219 156 148
219 156 148
219 156 148
219 157 148
219 157 148
220 157 148
220 157 148
220 157 148
220 157 148
220 157 147
220 157 147
220 157 147
220 157 147
220 157 147
220 157 147
220 157 147
220 157 147
220 158 147
220 158 147
220 158 147
220 158 147
220 158 147
220 158 147
220 158 146
220 158 146
221 158 146
221 158 146
221 158 146
221 158 146
221 158 146
221 158 146
221 158 146
208 150 136
139 104 81
113 86 59
111 85 58
111 86 57
111 84 58
110 82 61
109 83 57
113 87 56
112 86 57
112 86 59
109 83 58
115 88 59
110 84 58
109 84 56
105 80 56
111 83 61
104 78 58
110 84 60
107 82 57
108 82 57
106 81 56
110 85 55
112 86 59
109 84 56
108 83 54
103 78 56
106 80 58
109 83 60
110 84 59
110 84 56
109 81 62
109 83 57
107 81 58
108 83 57
109 83 60
108 82 57
107 81 56
110 85 55
109 83 57
107 80 60
107 81 58
113 87 57
113 87 58
111 84 59
109 84 56
110 83 60
109 82 58
111 85 58
109 84 55
109 83 59
111 86 57
107 82 54
111 86 56
105 81 55
113 87 59
107 82 55
107 83 52
107 81 58
111 86 55
110 83 58
110 83 58
109 82 62
109 83 57
109 84 55
114 88 58
109 83 58
110 83 59
112 84 62
113 87 57
144 108 83
211 152 138
221 158 146
221 158 146
221 158 146
221 158 146
221 158 146
221 158 146
221 158 146
220 158 146
220 158 146
220 158 147
220 158 147
220 158 147
220 158 147
220 158 147
220 158 147
220 157 147
220 157 147
220 157 147
220 157 147
220 157 147
220 157 147
220 157 147
220 157 147
220 157 148
220 157 148
220 157 148
220 157 148
219 157 148
219 156 148
219 156 148
219 156 148
219 156 148
219 156 148
219 156 148
219 156 148
219 156 149
219 156 149
219 156 149
219 156 149
219 156 149
219 156 149
219 155 149
219 155 149
219 155 149
219 155 149
218 155 149
218 155 149
218 155 150
218 155 150
218 155 150
218 155 150
218 155 150
218 155 150
218 154 150
218 154 150
218 154 150
218 154 150
218 154 150
218 154 150
218 154 151
218 154 151
218 154 151
218 154 151
217 154 151
217 154 151
217 153 151
217 153 151
217 153 151
217 153 151
217 153 151
217 153 151
217 153 152
217 153 152
217 153 152
217 153 152
217 153 152
217 153 152
217 152 152
217 152 152
217 152 152
217 152 152
216 152 152
216 152 152
216 152 153
216 152 153
216 152 153
216 152 153
216 152 153
216 152 153
216 152 153
216 151 153
216 151 153
216 151 153
216 151 153
216 151 153
216 151 153
216 151 153
216 151 154
216 151 154
216 151 154
215 151 154
215 151 154
215 151 154
215 151 154
215 150 154
215 150 154
215 150 154
215 150 154
215 150 154
215 150 154
215 150 155
215 150 155
215 150 155
215 150 155
215 150 155
215 150 155
215 150 155
215 150 155
215 149 155
215 149 155
215 149 155
214 149 155
214 149 155
214 149 155
214 149 155
214 149 156
214 149 156
214 149 156
214 149 156
214 149 156
214 149 156
214 149 156
214 149 156
214 149 156
214 148 156
214 148 156
214 148 156
214 148 156
214 148 156
214 148 156
214 148 156
214 148 157
214 148 157
214 148 157
214 148 157
213 148 157
213 148 157
213 148 157
213 148 157
213 148 157
213 148 157
213 148 157
213 147 157
213 147 157
213 147 157
213 147 157
213 147 157
213 147 157
213 147 157
213 147 158
213 147 158
213 147 158
213 147 158
213 147 158
213 147 158
213 147 158
213 147 158
213 147 158
213 147 158
213 147 158
213 147 158
213 147 158
213 147 158
213 147 158
213 147 157
213 147 157
213 147 157
213 147 157
213 147 157
213 147 157
213 147 157
213 148 157
213 148 157
213 148 157
213 148 157
213 148 157
213 148 157
213 148 157
214 148 157
214 148 157
214 148 157
214 148 157
214 148 156
214 148 156
214 148 156
214 148 156
214 148 156
214 148 156
214 149 156
214 149 156
214 149 156
214 149 156
214 149 156
214 149 156
214 149 156
214 149 156
214 149 156
214 149 156
214 149 155
214 149 155
214 149 155
215 149 155
215 149 155
215 149 155
215 150 155
215 150 155
215 150 155
215 150 155
215 150 155
215 150 155
215 150 155
215 150 155
215 150 154
215 150 154
215 150 154
215 150 154
215 150 154
215 150 154
215 150 154
215 151 154
215 151 154
215 151 154
216 151 154
216 151 154
216 151 154
216 151 154
216 151 153
216 151 153
216 151 153
216 151 153
216 151 153
216 151 153
216 152 153
216 152 153
216 152 153
216 152 153
216 152 153
216 152 153
216 152 152
216 152 152
216 152 152
217 152 152
217 152 152
217 152 152
217 152 152
217 153 152
217 153 152
217 153 152
217 153 152
217 153 152
217 153 152
217 153 151
217 153 151
217 153 151
217 153 151
217 153 151
217 153 151
217 154 151
217 154 151
217 154 151
218 154 151
218 154 151
218 154 151
218 154 150
218 154 150
218 154 150
218 154 150
218 154 150
218 154 150
218 154 150
218 155 150
218 155 150
218 155 150
218 155 150
218 155 150
218 155 149
218 155 149
219 155 149
219 155 149
219 155 149
219 155 149
219 155 149
219 156 149
219 156 149
219 156 149
219 156 149
219 156 149
219 156 148
219 156 148
219 156 148
219 156 148
219 156 148
219 156 148
219 156 148
219 156 148
219 157 148
220 157 148
220 157 148
220 157 148
220 157 148
220 157 147
220 157 147
220 157 147
220 157 147
220 157 147
220 157 147
220 157 147
220 157 147
220 157 147
220 158 147
220 158 147
220 158 147
220 158 147
220 158 147
220 158 147
220 158 146
220 158 146
178 130 110
117 89 62
113 87 57
106 81 58
110 83 59
105 79 58
109 83 60
111 85 60
111 85 56
111 83 63
108 83 55
106 81 54
110 85 56
109 84 56
107 81 60
108 83 55
111 86 54
108 81 60
110 83 58
105 80 56
111 85 57
105 79 58
109 83 59
109 82 60
105 81 55
108 81 59
107 82 56
107 81 56
109 83 56
111 85 57
107 83 53
106 81 58
108 83 56
103 77 57
105 80 55
105 80 57
106 80 56
104 78 59
110 84 57
107 81 59
108 82 56
108 82 56
110 84 58
110 84 58
109 83 58
109 83 58
110 83 60
108 81 62
107 82 54
112 86 57
111 84 60
109 82 61
111 84 59
110 84 56
105 79 57
113 86 60
110 84 56
107 81 58
108 82 58
107 81 56
105 81 55
107 81 59
107 81 58
112 85 59
111 85 59
109 84 53
113 86 59
109 83 58
110 85 56
108 82 58
110 84 59
113 88 55
118 90 62
176 129 109
220 158 146
220 158 146
220 158 147
220 158 147
220 158 147
220 158 147
220 158 147
220 158 147
220 157 147
220 157 147
220 157 147
220 157 147
220 157 147
220 157 147
220 157 147
220 157 147
220 157 147
220 157 148
220 157 148
220 157 148
220 157 148
219 157 148
219 156 148
219 156 148
219 156 148
219 156 148
219 156 148
219 156 148
219 156 148
219 156 148
219 156 149
219 156 149
219 156 149
219 156 149
219 156 149
219 155 149
219 155 149
219 155 149
219 155 149
219 155 149
218 155 149
218 155 149
218 155 150
218 155 150
218 155 150
218 155 150
218 155 150
218 155 150
218 154 150
218 154 150
218 154 150
218 154 150
218 154 150
218 154 150
218 154 151
218 154 151
218 154 151
218 154 151
217 154 151
217 154 151
217 153 151
217 153 151
217 153 151
217 153 151
217 153 151
217 153 151
217 153 152
217 153 152
217 153 152
217 153 152
217 153 152
217 153 152
217 152 152
217 152 152
217 152 152
216 152 152
216 152 152
216 152 152
216 152 153
216 152 153
216 152 153
216 152 153
216 152 153
216 152 153
216 152 153
216 151 153
216 151 153
216 151 153
216 151 153
216 151 153
216 151 153
216 151 154
216 151 154
216 151 154
216 151 154
215 151 154
215 151 154
215 151 154
215 151 154
215 150 154
215 150 154
215 150 154
215 150 154
215 150 154
215 150 154
215 150 155
215 150 155
215 150 155
215 150 155
215 150 155
215 150 155
215 150 155
215 150 155
215 149 155
215 149 155
215 149 155
214 149 155
214 149 155
214 149 155
214 149 156
214 149 156
214 149 156
214 149 156
214 149 156
214 149 156
214 149 156
214 149 156
214 149 156
214 149 156
214 148 156
214 148 156
214 148 156
214 148 156
214 148 156
214 148 156
214 148 157
214 148 157
214 148 157
214 148 157
213 148 157
213 148 157
213 148 157
213 148 157
213 148 157
213 148 157
213 148 157
213 147 157
213 147 157
213 147 157
213 147 157
213 147 157
213 147 157
213 147 158
213 147 158
213 147 158
213 147 158
213 147 158
213 147 158
213 147 158
213 147 158
213 147 158
213 147 158
213 147 158
212 146 158
213 146 158
213 146 158
213 146 158
213 147 158
213 147 158
213 147 158
213 147 158
213 147 158
213 147 158
213 147 158
213 147 158
213 147 158
213 147 158
213 147 158
213 147 157
213 147 157
213 147 157
213 147 157
213 147 157
213 147 157
213 147 157
213 148 157
213 148 157
213 148 157
213 148 157
213 148 157
213 148 157
214 148 157
214 148 157
214 148 157
214 148 157
214 148 156
214 148 156
214 148 156
214 148 156
214 148 156
214 148 156
214 148 156
214 149 156
214 149 156
214 149 156
214 149 156
214 149 156
214 149 156
214 149 156
214 149 156
214 149 156
214 149 155
214 149 155
214 149 155
214 149 155
215 149 155
215 149 155
215 150 155
215 150 155
215 150 155
215 150 155
215 150 155
215 150 155
215 150 155
215 150 155
215 150 154
215 150 154
215 150 154
215 150 154
215 150 154
215 150 154
215 150 154
215 151 154
215 151 154
215 151 154
215 151 154
216 151 154
216 151 154
216 151 154
216 151 153
216 151 153
216 151 153
216 151 153
216 151 153
216 151 153
216 152 153
216 152 153
216 152 153
216 152 153
216 152 153
216 152 153
216 152 153
216 152 152
216 152 152
216 152 152
217 152 152
217 152 152
217 152 152
217 153 152
217 153 152
217 153 152
217 153 152
217 153 152
217 153 152
217 153 151
217 153 151
217 153 151
217 153 151
217 153 151
217 153 151
217 153 151
217 154 151
218 154 151
218 154 151
218 154 151
218 154 151
218 154 151
218 154 150
218 154 150
218 154 150
218 154 150
218 154 150
218 154 150
218 155 150
218 155 150
218 155 150
218 155 150
218 155 150
218 155 150
218 155 149
218 155 149
219 155 149
219 155 149
219 155 149
219 155 149
219 156 149
219 156 149
219 156 149
219 156 149
219 156 149
219 156 149
219 156 148
219 156 148
219 156 148
219 156 148
219 156 148
219 156 148
219 156 148
219 156 148
219 157 148
220 157 148
220 157 148
220 157 148
220 157 148
220 157 148
220 157 147
220 157 147
220 157 147
220 157 147
220 157 147
220 157 147
220 157 147
220 157 147
220 157 147
217 156 144
140 104 83
109 83 57
112 86 58
109 82 60
109 83 57
108 83 56
108 81 60
110 84 58
114 87 60
108 83 57
107 81 56
102 76 57
105 80 56
107 81 57
107 81 56
108 82 58
105 79 59
108 82 59
109 83 58
111 85 57
106 80 57
106 81 58
107 80 60
109 84 55
107 82 57
106 80 59
108 81 59
104 78 56
105 80 56
107 81 59
107 81 57
112 87 56
104 79 57
106 79 63
105 80 57
106 81 56
106 80 57
106 80 57
111 84 60
108 82 56
108 83 56
104 80 55
109 82 62
109 84 56
106 81 57
107 81 58
108 81 59
110 84 58
106 80 57
108 83 57
105 79 58
110 83 60
108 83 56
106 82 52
111 84 61
109 84 56
106 81 56
109 83 57
108 82 58
110 84 58
107 82 54
107 82 55
106 80 57
110 83 60
110 84 58
111 86 53
106 80 57
109 83 59
103 78 56
106 80 57
115 89 57
110 85 57
110 83 61
110 84 57
108 81 59
153 112 95
213 152 141
220 157 147
220 157 147
220 157 147
220 157 147
220 157 147
220 157 147
220 157 147
220 157 147
220 157 147
220 157 148
220 157 148
220 157 148
220 157 148
220 157 148
219 157 148
219 156 148
219 156 148
219 156 148
219 156 148
219 156 148
219 156 148
219 156 148
219 156 148
219 156 149
219 156 149
219 156 149
219 156 149
219 156 149
219 156 149
219 155 149
219 155 149
219 155 149
219 155 149
218 155 149
218 155 149
218 155 149
218 155 150
218 155 150
218 155 150
218 155 150
218 155 150
218 154 150
218 154 150
218 154 150
218 154 150
218 154 150
218 154 150
218 154 150
218 154 151
218 154 151
218 154 151
217 154 151
217 154 151
217 154 151
217 153 151
217 153 151
217 153 151
217 153 151
217 153 151
217 153 151
217 153 152
217 153 152
217 153 152
217 153 152
217 153 152
217 153 152
217 152 152
217 152 152
217 152 152
216 152 152
216 152 152
216 152 152
216 152 153
216 152 153
216 152 153
216 152 153
216 152 153
216 152 153
216 152 153
216 151 153
216 151 153
216 151 153
216 151 153
216 151 153
216 151 153
216 151 154
216 151 154
216 151 154
216 151 154
215 151 154
215 151 154
215 151 154
215 151 154
215 150 154
215 150 154
215 150 154
215 150 154
215 150 154
215 150 155
215 150 155
215 150 155
215 150 155
215 150 155
215 150 155
215 150 155
215 150 155
215 150 155
215 149 155
215 149 155
214 149 155
214 149 155
214 149 155
214 149 155
214 149 156
214 149 156
214 149 156
214 149 156
214 149 156
214 149 156
214 149 156
214 149 156
214 149 156
214 148 156
214 148 156
214 148 156
214 148 156
214 148 156
214 148 156
214 148 156
214 148 157
214 148 157
214 148 157
214 148 157
213 148 157
213 148 157
213 148 157
213 148 157
213 148 157
213 148 157
213 147 157
213 147 157
213 147 157
213 147 157
213 147 157
213 147 157
213 147 157
213 147 158
213 147 158
213 147 158
213 147 158
213 147 158
213 147 158
213 147 158
213 147 158
213 147 158
213 147 158
213 147 158
213 147 158
213 146 158
213 146 158
212 146 158
212 146 159
212 146 158
212 146 158
212 146 158
212 146 158
212 146 158
213 146 158
213 146 158
213 147 158
213 147 158
213 147 158
213 147 158
213 147 158
213 147 158
213 147 158
213 147 158
213 147 158
213 147 158
213 147 158
213 147 158
213 147 157
213 147 157
213 147 157
213 147 157
213 147 157
213 147 157
213 147 157
213 148 157
213 148 157
213 148 157
213 148 157
213 148 157
213 148 157
214 148 157
214 148 157
214 148 157
214 148 157
214 148 156
214 148 156
214 148 156
214 148 156
214 148 156
214 148 156
214 149 156
214 149 156
214 149 156
214 149 156
214 149 156
214 149 156
214 149 156
214 149 156
214 149 156
214 149 156
214 149 155
214 149 155
214 149 155
215 149 155
215 149 155
215 149 155
215 150 155
215 150 155
215 150 155
215 150 155
215 150 155
215 150 155
215 150 155
215 150 155
215 150 154
215 150 154
215 150 154
215 150 154
215 150 154
215 150 154
215 151 154
215 151 154
215 151 154
215 151 154
216 151 154
216 151 154
216 151 154
216 151 153
216 151 153
216 151 153
216 151 153
216 151 153
216 151 153
216 152 153
216 152 153
216 152 153
216 152 153
216 152 153
216 152 153
216 152 153
216 152 152
216 152 152
216 152 152
217 152 152
217 152 152
217 152 152
217 153 152
217 153 152
217 153 152
217 153 152
217 153 152
217 153 152
217 153 152
217 153 151
217 153 151
217 153 151
217 153 151
217 153 151
217 153 151
217 154 151
217 154 151
218 154 151
218 154 151
218 154 151
218 154 151
218 154 150
218 154 150
218 154 150
218 154 150
218 154 150
218 154 150
218 154 150
218 155 150
218 155 150
218 155 150
218 155 150
218 155 150
218 155 149
218 155 149
218 155 149
219 155 149
219 155 149
219 155 149
219 155 149
219 156 149
219 156 149
219 156 149
219 156 149
219 156 149
219 156 149
219 156 148
219 156 148
219 156 148
219 156 148
219 156 148
219 156 148
219 156 148
219 156 148
219 156 148
219 157 148
220 157 148
220 157 148
220 157 148
220 157 148
220 157 148
220 157 147
220 157 147
197 142 130
118 89 66
110 84 60
111 85 60
106 80 59
107 81 58
108 82 59
107 80 60
110 84 58
106 80 57
111 85 57
111 84 61
110 84 57
109 82 59
109 84 57
105 80 58
108 81 59
110 83 60
109 84 56
106 79 60
107 82 56
108 82 59
107 82 56
107 81 59
108 82 58
105 80 56
102 78 55
111 84 61
112 85 60
107 80 61
108 81 60
109 82 59
104 79 56
108 83 55
105 80 56
110 84 57
105 79 58
112 85 59
109 83 58
107 81 59
108 82 58
103 77 59
110 84 60
104 79 57
105 79 57
105 79 57
107 81 57
110 85 57
107 81 57
106 81 57
108 82 58
106 81 56
109 83 59
104 78 60
107 81 58
107 81 59
110 84 59
110 84 59
104 79 54
109 83 56
105 80 56
107 81 56
109 84 56
107 82 56
107 81 58
107 81 58
104 79 56
107 82 56
103 76 60
110 84 58
111 85 57
111 84 58
109 84 55
107 81 56
111 83 63
108 82 59
113 86 61
107 83 54
118 88 68
193 140 123
220 157 147
220 157 147
220 157 148
220 157 148
220 157 148
220 157 148
220 157 148
219 157 148
219 156 148
219 156 148
219 156 148
219 156 148
219 156 148
219 156 148
219 156 148
219 156 148
219 156 148
219 156 149
219 156 149
219 156 149
219 156 149
219 156 149
219 156 149
219 155 149
219 155 149
219 155 149
219 155 149
219 155 149
218 155 149
218 155 149
218 155 150
218 155 150
218 155 150
218 155 150
218 155 150
218 155 150
218 154 150
218 154 150
218 154 150
218 154 150
218 154 150
218 154 150
218 154 151
218 154 151
218 154 151
218 154 151
217 154 151
217 154 151
217 153 151
217 153 151
217 153 151
217 153 151
217 153 151
217 153 151
217 153 152
217 153 152
217 153 152
217 153 152
217 153 152
217 153 152
217 153 152
217 152 152
217 152 152
217 152 152
216 152 152
216 152 152
216 152 152
216 152 153
216 152 153
216 152 153
216 152 153
216 152 153
216 152 153
216 152 153
216 151 153
216 151 153
216 151 153
216 151 153
216 151 153
216 151 153
216 151 154
216 151 154
216 151 154
216 151 154
215 151 154
215 151 154
215 151 154
215 150 154
215 150 154
215 150 154
215 150 154
215 150 154
215 150 154
215 150 155
215 150 155
215 150 155
215 150 155
215 150 155
215 150 155
215 150 155
215 150 155
215 149 155
215 149 155
215 149 155
214 149 155
214 149 155
214 149 155
214 149 155
214 149 156
214 149 156
214 149 156
214 149 156
214 149 156
214 149 156
214 149 156
214 149 156
214 148 156
214 148 156
214 148 156
214 148 156
214 148 156
214 148 156
214 148 156
214 148 157
214 148 157
214 148 157
214 148 157
213 148 157
213 148 157
213 148 157
213 148 157
213 148 157
213 148 157
213 147 157
213 147 157
213 147 157
213 147 157
213 147 157
213 147 157
213 147 157
213 147 158
213 147 158
213 147 158
213 147 158
213 147 158
213 147 158
213 147 158
213 147 158
213 147 158
213 147 158
213 147 158
213 147 158
213 146 158
213 146 158
212 146 158
212 146 158
212 146 158
212 146 158
212 146 158
212 146 159
212 146 159
212 146 159
212 146 159
212 146 159
212 146 159
212 146 159
212 146 158
212 146 158
212 146 158
212 146 158
212 146 158
213 146 158
213 146 158
213 147 158
213 147 158
213 147 158
213 147 158
213 147 158
213 147 158
213 147 158
213 147 158
213 147 158
213 147 158
213 147 158
213 147 158
213 147 157
213 147 157
213 147 157
213 147 157
213 147 157
213 147 157
213 148 157
213 148 157
213 148 157
213 148 157
213 148 157
213 148 157
213 148 157
214 148 157
214 148 157
214 148 157
214 148 156
214 148 156
214 148 156
214 148 156
214 148 156
214 148 156
214 148 156
214 149 156
214 149 156
214 149 156
214 149 156
214 149 156
214 149 156
214 149 156
214 149 156
214 149 156
214 149 155
214 149 155
214 149 155
214 149 155
215 149 155
215 149 155
215 150 155
215 150 155
215 150 155
215 150 155
215 150 155
215 150 155
215 150 155
215 150 155
215 150 154
215 150 154
215 150 154
215 150 154
215 150 154
215 150 154
215 150 154
215 151 154
215 151 154
215 151 154
216 151 154
216 151 154
216 151 154
216 151 154
216 151 153
216 151 153
216 151 153
216 151 153
216 151 153
216 151 153
216 152 153
216 152 153
216 152 153
216 152 153
216 152 153
216 152 153
216 152 153
216 152 152
216 152 152
217 152 152
217 152 152
217 152 152
217 152 152
217 153 152
217 153 152
217 153 152
217 153 152
217 153 152
217 153 152
217 153 151
217 153 151
217 153 151
217 153 151
217 153 151
217 153 151
217 153 151
217 154 151
217 154 151
218 154 151
218 154 151
218 154 151
218 154 150
218 154 150
218 154 150
218 154 150
218 154 150
218 154 150
218 154 150
218 155 150
218 155 150
218 155 150
218 155 150
218 155 150
218 155 150
218 155 149
218 155 149
219 155 149
219 155 149
219 155 149
219 155 149
219 155 149
219 155 149
219 156 149
219 156 149
219 156 149
219 156 149
219 156 149
219 156 149
219 156 148
219 156 148
219 156 148
219 156 148
219 156 148
219 156 148
219 156 148
219 156 148
219 156 148
219 157 148
173 126 109
122 94 62
107 83 54
110 83 58
110 84 57
110 84 57
108 82 59
107 82 57
110 82 61
110 84 58
109 83 58
105 79 59
104 78 57
111 85 58
107 81 57
108 83 57
108 82 59
110 82 62
109 82 60
108 81 61
106 81 54
109 83 57
108 82 58
107 81 60
105 79 59
105 79 58
107 80 59
103 79 54
107 80 59
108 82 60
100 76 55
107 81 59
103 77 59
108 83 56
105 79 58
108 81 60
107 81 60
104 80 53
109 82 60
104 79 58
108 81 61
106 80 58
106 79 59
104 79 58
109 83 58
112 84 61
108 82 56
103 78 55
111 84 60
105 79 57
105 80 56
106 82 55
109 83 58
103 77 58
108 82 58
103 78 56
108 82 59
108 82 58
105 80 57
107 81 59
110 84 58
108 81 60
105 81 53
108 81 61
101 76 58
108 84 53
110 85 54
110 84 58
108 83 56
109 83 56
109 82 60
110 84 58
108 82 58
109 83 58
108 82 58
105 80 57
108 82 60
110 84 59
110 83 59
106 80 58
108 82 59
173 126 109
219 157 148
219 156 148
219 156 148
219 156 148
219 156 148
219 156 148
219 156 148
219 156 148
219 156 148
219 156 148
219 156 149
219 156 149
219 156 149
219 156 149
219 156 149
219 156 149
219 155 149
219 155 149
219 155 149
219 155 149
219 155 149
219 155 149
218 155 149
218 155 149
218 155 150
218 155 150
218 155 150
218 155 150
218 155 150
218 155 150
218 154 150
218 154 150
218 154 150
218 154 150
218 154 150
218 154 150
218 154 151
218 154 151
218 154 151
218 154 151
217 154 151
217 154 151
217 154 151
217 153 151
217 153 151
217 153 151
217 153 151
217 153 151
217 153 151
217 153 152
217 153 152
217 153 152
217 153 152
217 153 152
217 153 152
217 152 152
217 152 152
217 152 152
217 152 152
216 152 152
216 152 152
216 152 153
216 152 153
216 152 153
216 152 153
216 152 153
216 152 153
216 152 153
216 151 153
216 151 153
216 151 153
216 151 153
216 151 153
216 151 153
216 151 154
216 151 154
216 151 154
216 151 154
215 151 154
215 151 154
215 151 154
215 151 154
215 150 154
215 150 154
215 150 154
215 150 154
215 150 154
215 150 154
215 150 155
215 150 155
215 150 155
215 150 155
215 150 155
215 150 155
215 150 155
215 150 155
215 149 155
215 149 155
214 149 155
214 149 155
214 149 155
214 149 155
214 149 156
214 149 156
214 149 156
214 149 156
214 149 156
214 149 156
214 149 156
214 149 156
214 149 156
214 148 156
214 148 156
214 148 156
214 148 156
214 148 156
214 148 156
214 148 157
214 148 157
214 148 157
214 148 157
213 148 157
213 148 157
213 148 157
213 148 157
213 148 157
213 148 157
213 147 157
213 147 157
213 147 157
213 147 157
213 147 157
213 147 157
213 147 157
213 147 158
213 147 158
213 147 158
213 147 158
213 147 158
213 147 158
213 147 158
213 147 158
213 147 158
213 147 158
213 147 158
213 147 158
213 146 158
213 146 158
212 146 158
212 146 158
212 146 158
212 146 158
212 146 158
212 146 159
212 146 159
212 146 159
212 146 159
212 146 159
212 146 159
212 146 159
212 146 159
212 146 159
212 146 159
212 146 159
212 146 159
212 146 159
212 146 159
212 146 159
212 146 159
212 146 159
212 146 158
212 146 158
212 146 158
212 146 158
212 146 158
213 146 158
213 146 158
213 147 158
213 147 158
213 147 158
213 147 158
213 147 158
213 147 158
213 147 158
213 147 158
213 147 158
213 147 158
213 147 158
213 147 158
213 147 157
213 147 157
213 147 157
213 147 157
213 147 157
213 147 157
213 147 157
213 148 157
213 148 157
213 148 157
213 148 157
213 148 157
213 148 157
214 148 157
214 148 157
214 148 157
214 148 156
214 148 156
214 148 156
214 148 156
214 148 156
214 148 156
214 148 156
214 149 156
214 149 156
214 149 156
214 149 156
214 149 156
214 149 156
214 149 156
214 149 156
214 149 156
214 149 155
214 149 155
214 149 155
215 149 155
215 149 155
215 149 155
215 150 155
215 150 155
215 150 155
215 150 155
215 150 155
215 150 155
215 150 155
215 150 155
215 150 154
215 150 154
215 150 154
215 150 154
215 150 154
215 150 154
215 151 154
215 151 154
215 151 154
215 151 154
216 151 154
216 151 154
216 151 154
216 151 153
216 151 153
216 151 153
216 151 153
216 151 153
216 151 153
216 152 153
216 152 153
216 152 153
216 152 153
216 152 153
216 152 153
216 152 153
216 152 152
216 152 152
216 152 152
217 152 152
217 152 152
217 152 152
217 153 152
217 153 152
217 153 152
217 153 152
217 153 152
217 153 152
217 153 152
217 153 151
217 153 151
217 153 151
217 153 151
217 153 151
217 153 151
217 154 151
217 154 151
218 154 151
218 154 151
218 154 151
218 154 151
218 154 150
218 154 150
218 154 150
218 154 150
218 154 150
218 154 150
218 154 150
218 155 150
218 155 150
218 155 150
218 155 150
218 155 150
218 155 150
218 155 149
218 155 149
218 155 149
219 155 149
219 155 149
219 155 149
219 155 149
219 155 149
219 156 149
219 156 149
219 156 149
219 156 149
219 156 149
219 156 149
219 156 149
219 156 148
219 156 148
213 152 144
149 108 93
111 85 58
110 83 59
107 82 56
108 84 54
109 82 61
109 84 56
108 82 59
103 77 59
108 83 56
109 83 58
107 81 59
107 81 59
113 86 61
107 82 55
108 82 56
105 81 53
102 77 56
108 82 56
110 84 57
108 82 58
105 79 57
105 79 61
105 80 54
106 81 55
107 81 57
111 84 59
105 79 58
109 83 57
106 80 57
103 78 56
107 81 58
102 78 54
109 81 62
104 78 59
109 83 58
103 77 58
105 80 55
103 78 57
106 81 58
105 80 58
110 84 58
101 76 57
103 78 55
103 78 57
104 79 58
109 83 59
104 78 59
102 76 59
108 82 58
101 77 54
104 78 59
107 80 60
109 82 60
111 85 58
104 79 55
107 81 58
99 74 55
107 81 58
108 82 59
103 78 56
107 81 58
107 81 59
106 80 58
108 81 59
108 81 60
103 77 60
106 81 54
108 84 55
111 85 57
106 81 56
108 83 54
106 80 56
107 82 56
106 80 56
108 82 60
105 80 56
107 81 59
110 84 58
106 80 60
107 81 58
110 83 59
111 86 55
148 110 87
218 155 148
219 156 148
219 156 148
219 156 149
219 156 149
219 156 149
219 156 149
219 156 149
219 156 149
219 156 149
219 155 149
219 155 149
219 155 149
219 155 149
219 155 149
218 155 149
218 155 149
218 155 149
218 155 150
218 155 150
218 155 150
218 155 150
218 155 150
218 155 150
218 154 150
218 154 150
218 154 150
218 154 150
218 154 150
218 154 150
218 154 150
218 154 151
218 154 151
218 154 151
218 154 151
217 154 151
217 154 151
217 153 151
217 153 151
217 153 151
217 153 151
217 153 151
217 153 151
217 153 152
217 153 152
217 153 152
217 153 152
217 153 152
217 153 152
217 153 152
217 152 152
217 152 152
217 152 152
216 152 152
216 152 152
216 152 152
216 152 153
216 152 153
216 152 153
216 152 153
216 152 153
216 152 153
216 152 153
216 151 153
216 151 153
216 151 153
216 151 153
216 151 153
216 151 153
216 151 154
216 151 154
216 151 154
215 151 154
215 151 154
215 151 154
215 151 154
215 150 154
215 150 154
215 150 154
215 150 154
215 150 154
215 150 154
215 150 155
215 150 155
215 150 155
215 150 155
215 150 155
215 150 155
215 150 155
215 150 155
215 149 155
215 149 155
215 149 155
214 149 155
214 149 155
214 149 155
214 149 155
214 149 156
214 149 156
214 149 156
214 149 156
214 149 156
214 149 156
214 149 156
214 149 156
214 148 156
214 148 156
214 148 156
214 148 156
214 148 156
214 148 156
214 148 156
214 148 157
214 148 157
214 148 157
213 148 157
213 148 157
213 148 157
213 148 157
213 148 157
213 148 157
213 148 157
213 147 157
213 147 157
213 147 157
213 147 157
213 147 157
213 147 157
213 147 158
213 147 158
213 147 158
213 147 158
213 147 158
213 147 158
213 147 158
213 147 158
213 147 158
213 147 158
213 147 158
213 147 158
213 146 158
213 146 158
212 146 158
212 146 158
212 146 158
212 146 158
212 146 158
212 146 159
212 146 159
212 146 159
212 146 159
212 146 159
212 146 159
212 146 159
212 146 159
212 146 159
212 146 159
212 146 159
212 145 159
212 145 159
212 145 159
212 146 159
212 146 159
212 146 159
212 146 159
212 146 159
212 146 159
212 146 159
212 146 159
212 146 159
212 146 159
212 146 159
212 146 159
212 146 159
212 146 158
212 146 158
212 146 158
212 146 158
212 146 158
212 146 158
213 146 158
213 146 158
213 147 158
213 147 158
213 147 158
213 147 158
213 147 158
213 147 158
213 147 158
213 147 158
213 147 158
213 147 158
213 147 158
213 147 157
213 147 157
213 147 157
213 147 157
213 147 157
213 147 157
213 147 157
213 148 157
213 148 157
213 148 157
213 148 157
213 148 157
214 148 157
214 148 157
214 148 157
214 148 157
214 148 156
214 148 156
214 148 156
214 148 156
214 148 156
214 148 156
214 149 156
214 149 156
214 149 156
214 149 156
214 149 156
214 149 156
214 149 156
214 149 156
214 149 156
214 149 155
214 149 155
214 149 155
214 149 155
215 149 155
215 149 155
215 149 155
215 150 155
215 150 155
215 150 155
215 150 155
215 150 155
215 150 155
215 150 155
215 150 154
215 150 154
215 150 154
215 150 154
215 150 154
215 150 154
215 150 154
215 151 154
215 151 154
215 151 154
216 151 154
216 151 154
216 151 154
216 151 154
216 151 153
216 151 153
216 151 153
216 151 153
216 151 153
216 151 153
216 152 153
216 152 153
216 152 153
216 152 153
216 152 153
216 152 153
216 152 153
216 152 152
216 152 152
217 152 152
217 152 152
217 152 152
217 152 152
217 153 152
217 153 152
217 153 152
217 153 152
217 153 152
217 153 152
217 153 151
217 153 151
217 153 151
217 153 151
217 153 151
217 153 151
217 153 151
217 154 151
217 154 151
218 154 151
218 154 151
218 154 151
218 154 151
218 154 150
218 154 150
218 154 150
218 154 150
218 154 150
218 154 150
218 154 150
218 154 150
218 155 150
218 155 150
218 155 150
218 155 150
218 155 150
218 155 150
218 155 149
218 155 149
218 155 149
219 155 149
219 155 149
219 155 149
219 155 149
219 155 149
219 156 149
219 156 149
211 150 142
143 105 87
111 85 57
106 81 57
107 81 59
106 80 58
114 87 58
105 79 57
104 78 58
107 81 56
111 85 58
105 79 59
108 82 60
109 83 57
110 84 58
108 82 59
104 78 56
107 82 57
104 79 56
106 81 57
105 79 57
102 77 57
105 79 56
107 81 59
104 79 55
110 83 59
106 80 58
106 81 56
104 78 59
105 78 60
107 81 56
103 78 56
106 81 55
107 81 56
105 79 59
104 78 59
102 78 55
101 76 56
101 77 54
105 79 57
108 82 57
108 82 58
108 83 57
102 76 58
105 79 59
102 76 59
103 79 54
107 81 58
108 82 58
105 79 58
104 79 55
105 79 61
104 79 57
104 79 55
102 77 55
102 76 58
102 77 57
104 79 55
107 82 56
104 77 60
106 80 60
106 79 60
103 78 55
107 82 56
103 78 54
110 83 62
105 80 56
104 79 56
104 79 55
106 81 57
105 80 56
103 78 55
110 83 58
106 80 58
108 82 57
111 84 61
109 84 55
108 82 57
107 81 59
109 82 60
112 86 57
101 77 54
108 82 58
109 83 58
110 84 57
106 80 58
150 111 88
213 151 145
219 156 149
219 155 149
219 155 149
219 155 149
219 155 149
219 155 149
219 155 149
218 155 149
218 155 149
218 155 149
218 155 150
218 155 150
218 155 150
218 155 150
218 155 150
218 155 150
218 155 150
218 154 150
218 154 150
218 154 150
218 154 150
218 154 150
218 154 150
218 154 150
218 154 151
218 154 151
218 154 151
218 154 151
217 154 151
217 154 151
217 153 151
217 153 151
217 153 151
217 153 151
217 153 151
217 153 151
217 153 151
217 153 152
217 153 152
217 153 152
217 153 152
217 153 152
217 153 152
217 152 152
217 152 152
217 152 152
216 152 152
216 152 152
216 152 152
216 152 153
216 152 153
216 152 153
216 152 153
216 152 153
216 152 153
216 152 153
216 151 153
216 151 153
216 151 153
216 151 153
216 151 153
216 151 153
216 151 154
216 151 154
216 151 154
216 151 154
215 151 154
215 151 154
215 151 154
215 151 154
215 150 154
215 150 154
215 150 154
215 150 154
215 150 154
215 150 154
215 150 155
215 150 155
215 150 155
215 150 155
215 150 155
215 150 155
215 150 155
215 149 155
215 149 155
215 149 155
214 149 155
214 149 155
214 149 155
214 149 155
214 149 156
214 149 156
214 149 156
214 149 156
214 149 156
214 149 156
214 149 156
214 149 156
214 148 156
214 148 156
214 148 156
214 148 156
214 148 156
214 148 156
214 148 156
214 148 157
214 148 157
214 148 157
213 148 157
213 148 157
213 148 157
213 148 157
213 148 157
213 148 157
213 148 157
213 147 157
213 147 157
213 147 157
213 147 157
213 147 157
213 147 157
213 147 158
213 147 158
213 147 158
213 147 158
213 147 158
213 147 158
213 147 158
213 147 158
213 147 158
213 147 158
213 147 158
213 147 158
213 146 158
212 146 158
212 146 158
212 146 158
212 146 158
212 146 158
212 146 158
212 146 159
212 146 159
212 146 159
212 146 159
212 146 159
212 146 159
212 146 159
212 146 159
212 146 159
212 146 159
212 146 159
212 146 159
212 145 159
212 145 159
212 145 159
212 145 159
212 145 160
212 145 160
212 145 159
212 145 159
212 145 159
212 145 159
212 145 159
212 145 159
212 145 159
212 146 159
212 146 159
212 146 159
212 146 159
212 146 159
212 146 159
212 146 159
212 146 159
212 146 159
212 146 159
212 146 159
212 146 159
212 146 159
212 146 158
212 146 158
212 146 158
212 146 158
212 146 158
213 146 158
213 146 158
213 147 158
213 147 158
213 147 158
213 147 158
213 147 158
213 147 158
213 147 158
213 147 158
213 147 158
213 147 158
213 147 157
213 147 157
213 147 157
213 147 157
213 147 157
213 147 157
213 147 157
213 148 157
213 148 157
213 148 157
213 148 157
213 148 157
213 148 157
214 148 157
214 148 157
214 148 157
214 148 157
214 148 156
214 148 156
214 148 156
214 148 156
214 148 156
214 148 156
214 149 156
214 149 156
214 149 156
214 149 156
214 149 156
214 149 156
214 149 156
214 149 156
214 149 156
214 149 155
214 149 155
214 149 155
215 149 155
215 149 155
215 149 155
215 150 155
215 150 155
215 150 155
215 150 155
215 150 155
215 150 155
215 150 155
215 150 155
215 150 154
215 150 154
215 150 154
215 150 154
215 150 154
215 150 154
215 151 154
215 151 154
215 151 154
215 151 154
216 151 154
216 151 154
216 151 154
216 151 153
216 151 153
216 151 153
216 151 153
216 151 153
216 151 153
216 151 153
216 152 153
216 152 153
216 152 153
216 152 153
216 152 153
216 152 153
216 152 153
216 152 152
216 152 152
217 152 152
217 152 152
217 152 152
217 152 152
217 153 152
217 153 152
217 153 152
217 153 152
217 153 152
217 153 152
217 153 152
217 153 151
217 153 151
217 153 151
217 153 151
217 153 151
217 153 151
217 154 151
217 154 151
217 154 151
218 154 151
218 154 151
218 154 151
218 154 151
218 154 150
218 154 150
218 154 150
218 154 150
218 154 150
218 154 150
218 154 150
218 155 150
218 155 150
218 155 150
218 155 150
218 155 150
218 155 150
218 155 150
218 155 149
218 155 149
218 155 149
210 150 141
135 100 79
103 79 53
111 84 60
109 83 58
107 80 60
107 82 57
106 81 55
107 81 59
106 80 59
107 82 57
106 80 58
105 80 56
103 78 58
103 78 56
107 83 53
106 81 56
106 79 59
104 78 60
104 79 57
107 80 59
106 80 58
104 78 58
103 78 56
106 80 58
101 77 56
101 76 58
108 81 60
102 78 55
103 79 54
107 82 57
110 83 59
107 81 58
108 81 62
104 80 55
107 82 56
103 77 60
104 79 56
103 77 57
101 76 57
104 79 55
103 77 58
102 77 55
101 77 54
104 78 58
99 74 54
104 78 57
111 85 55
106 81 57
102 77 56
102 77 56
109 82 62
103 77 57
107 81 59
107 80 60
108 82 60
106 79 59
105 80 57
101 75 58
104 77 59
101 76 59
106 79 60
103 78 56
109 83 58
101 76 59
104 78 57
105 79 59
104 77 61
105 79 61
103 77 57
108 81 62
105 79 58
106 80 58
104 79 58
109 82 59
106 80 59
104 78 59
105 80 55
107 79 63
104 79 55
105 80 56
105 80 54
104 78 58
109 84 56
107 81 58
105 80 56
110 84 60
108 82 58
130 98 74
211 150 143
218 155 149
218 155 149
218 155 149
218 155 150
218 155 150
218 155 150
218 155 150
218 155 150
218 155 150
218 155 150
218 154 150
218 154 150
218 154 150
218 154 150
218 154 150
218 154 150
218 154 150
218 154 151
218 154 151
218 154 151
218 154 151
217 154 151
217 154 151
217 154 151
217 153 151
217 153 151
217 153 151
217 153 151
217 153 151
217 153 151
217 153 151
217 153 152
217 153 152
217 153 152
217 153 152
217 153 152
217 153 152
217 152 152
217 152 152
217 152 152
217 152 152
216 152 152
216 152 152
216 152 153
216 152 153
216 152 153
216 152 153
216 152 153
216 152 153
216 152 153
216 151 153
216 151 153
216 151 153
216 151 153
216 151 153
216 151 153
216 151 153
216 151 154
216 151 154
216 151 154
215 151 154
215 151 154
215 151 154
215 151 154
215 150 154
215 150 154
215 150 154
215 150 154
215 150 154
215 150 154
215 150 155
215 150 155
215 150 155
215 150 155
215 150 155
215 150 155
215 150 155
215 150 155
215 149 155
215 149 155
215 149 155
214 149 155
214 149 155
214 149 155
214 149 156
214 149 156
214 149 156
214 149 156
214 149 156
214 149 156
214 149 156
214 149 156
214 149 156
214 148 156
214 148 156
214 148 156
214 148 156
214 148 156
214 148 156
214 148 157
214 148 157
214 148 157
214 148 157
213 148 157
213 148 157
213 148 157
213 148 157
213 148 157
213 148 157
213 147 157
213 147 157
213 147 157
213 147 157
213 147 157
213 147 157
213 147 158
213 147 158
213 147 158
213 147 158
213 147 158
213 147 158
213 147 158
213 147 158
213 147 158
213 147 158
213 147 158
213 146 158
213 146 158
212 146 158
212 146 158
212 146 158
212 146 158
212 146 158
212 146 159
212 146 159
212 146 159
212 146 159
212 146 159
212 146 159
212 146 159
212 146 159
212 146 159
212 146 159
212 146 159
212 146 159
212 146 159
212 145 159
212 145 159
212 145 159
212 145 159
212 145 159
212 145 159
212 145 159
212 145 160
212 145 160
211 145 160
211 145 160
211 145 160
212 145 160
212 145 160
212 145 160
212 145 160
212 145 159
212 145 159
212 145 159
212 145 159
212 145 159
212 145 159
212 145 159
212 146 159
212 146 159
212 146 159
212 146 159
212 146 159
212 146 159
212 146 159
212 146 159
212 146 159
212 146 159
212 146 159
212 146 159
212 146 159
212 146 158
212 146 158
212 146 158
212 146 158
212 146 158
213 146 158
213 146 158
213 147 158
213 147 158
213 147 158
213 147 158
213 147 158
213 147 158
213 147 158
213 147 158
213 147 158
213 147 158
213 147 158
213 147 157
213 147 157
213 147 157
213 147 157
213 147 157
213 147 157
213 148 157
213 148 157
213 148 157
213 148 157
213 148 157
213 148 157
214 148 157
214 148 157
214 148 157
214 148 157
214 148 156
214 148 156
214 148 156
214 148 156
214 148 156
214 148 156
214 149 156
214 149 156
214 149 156
214 149 156
214 149 156
214 149 156
214 149 156
214 149 156
214 149 156
214 149 155
214 149 155
214 149 155
215 149 155
215 149 155
215 149 155
215 150 155
215 150 155
215 150 155
215 150 155
215 150 155
215 150 155
215 150 155
215 150 155
215 150 154
215 150 154
215 150 154
215 150 154
215 150 154
215 150 154
215 151 154
215 151 154
215 151 154
215 151 154
216 151 154
216 151 154
216 151 154
216 151 153
216 151 153
216 151 153
216 151 153
216 151 153
216 151 153
216 151 153
216 152 153
216 152 153
216 152 153
216 152 153
216 152 153
216 152 153
216 152 152
216 152 152
216 152 152
217 152 152
217 152 152
217 152 152
217 152 152
217 153 152
217 153 152
217 153 152
217 153 152
217 153 152
217 153 152
217 153 152
217 153 151
217 153 151
217 153 151
217 153 151
217 153 151
217 153 151
217 153 151
217 154 151
217 154 151
218 154 151
218 154 151
218 154 151
218 154 151
218 154 150
218 154 150
218 154 150
218 154 150
218 154 150
218 154 150
218 154 150
218 154 150
218 155 150
218 155 150
218 155 150
209 149 141
124 93 70
106 80 56
110 84 60
111 84 59
108 83 57
106 81 56
106 80 58
107 80 60
105 79 59
105 79 58
105 79 58
106 80 57
108 81 62
103 78 55
108 82 58
105 79 59
108 82 58
104 79 58
106 80 57
105 80 56
109 82 61
105 78 60
107 80 62
107 82 56
106 79 59
104 79 58
108 81 59
102 76 59
105 79 59
101 76 57
105 80 54
105 79 60
105 78 59
103 77 57
103 78 56
103 77 58
105 80 56
103 78 54
105 79 57
106 80 58
104 78 59
106 80 59
101 78 52
106 81 57
104 79 55
103 78 58
99 75 53
105 80 56
105 80 56
101 75 57
100 75 57
105 79 59
104 79 55
104 78 56
102 77 55
105 79 57
105 79 58
105 80 56
106 81 57
107 81 57
103 78 58
105 80 57
103 78 55
106 82 54
107 82 56
103 78 56
100 75 57
107 81 58
106 80 57
103 76 61
102 76 59
105 80 57
100 74 58
100 75 59
107 81 59
104 79 56
102 78 55
105 79 59
108 82 59
108 81 61
108 82 58
105 79 58
105 80 56
105 80 57
107 82 56
105 79 59
106 80 58
108 82 58
107 81 56
129 97 72
212 151 145
218 155 150
218 155 150
218 155 150
218 154 150
218 154 150
218 154 150
218 154 150
218 154 150
218 154 150
218 154 150
218 154 151
218 154 151
218 154 151
218 154 151
218 154 151
217 154 151
217 154 151
217 153 151
217 153 151
217 153 151
217 153 151
217 153 151
217 153 151
217 153 151
217 153 152
217 153 152
217 153 152
217 153 152
217 153 152
217 153 152
217 153 152
217 152 152
217 152 152
217 152 152
217 152 152
216 152 152
216 152 152
216 152 152
216 152 153
216 152 153
216 152 153
216 152 153
216 152 153
216 152 153
216 151 153
216 151 153
216 151 153
216 151 153
216 151 153
216 151 153
216 151 154
216 151 154
216 151 154
216 151 154
215 151 154
215 151 154
215 151 154
215 151 154
215 150 154
215 150 154
215 150 154
215 150 154
215 150 154
215 150 154
215 150 155
215 150 155
215 150 155
215 150 155
215 150 155
215 150 155
215 150 155
215 150 155
215 149 155
215 149 155
215 149 155
214 149 155
214 149 155
214 149 155
214 149 156
214 149 156
214 149 156
214 149 156
214 149 156
214 149 156
214 149 156
214 149 156
214 149 156
214 148 156
214 148 156
214 148 156
214 148 156
214 148 156
214 148 156
214 148 157
214 148 157
214 148 157
214 148 157
213 148 157
213 148 157
213 148 157
213 148 157
213 148 157
213 148 157
213 147 157
213 147 157
213 147 157
213 147 157
213 147 157
213 147 157
213 147 157
213 147 158
213 147 158
213 147 158
213 147 158
213 147 158
213 147 158
213 147 158
213 147 158
213 147 158
213 147 158
213 146 158
213 146 158
212 146 158
212 146 158
212 146 158
212 146 158
212 146 158
212 146 159
212 146 159
212 146 159
212 146 159
212 146 159
212 146 159
212 146 159
212 146 159
212 146 159
212 146 159
212 146 159
212 146 159
212 146 159
212 145 159
212 145 159
212 145 159
212 145 159
212 145 159
212 145 159
212 145 159
212 145 160
212 145 160
212 145 160
212 145 160
211 145 160
211 145 160
211 145 160
211 145 160
211 145 160
211 145 160
211 145 160
211 145 160
211 145 160
211 145 160
211 145 160
211 145 160
212 145 160
212 145 160
212 145 160
212 145 160
212 145 159
212 145 159
212 145 159
212 145 159
212 145 159
212 145 159
212 145 159
212 146 159
212 146 159
212 146 159
212 146 159
212 146 159
212 146 159
212 146 159
212 146 159
212 146 159
212 146 159
212 146 159
212 146 159
212 146 158
212 146 158
212 146 158
212 146 158
212 146 158
213 146 158
213 146 158
213 147 158
213 147 158
213 147 158
213 147 158
213 147 158
213 147 158
213 147 158
213 147 158
213 147 158
213 147 158
213 147 158
213 147 157
213 147 157
213 147 157
213 147 157
213 147 157
213 147 157
213 148 157
213 148 157
213 148 157
213 148 157
213 148 157
213 148 157
214 148 157
214 148 157
214 148 157
214 148 157
214 148 156
214 148 156
214 148 156
214 148 156
214 148 156
214 148 156
214 149 156
214 149 156
214 149 156
214 149 156
214 149 156
214 149 156
214 149 156
214 149 156
214 149 156
214 149 155
214 149 155
214 149 155
215 149 155
215 149 155
215 149 155
215 150 155
215 150 155
215 150 155
215 150 155
215 150 155
215 150 155
215 150 155
215 150 155
215 150 154
215 150 154
215 150 154
215 150 154
215 150 154
215 150 154
215 151 154
215 151 154
215 151 154
216 151 154
216 151 154
216 151 154
216 151 154
216 151 153
216 151 153
216 151 153
216 151 153
216 151 153
216 151 153
216 152 153
216 152 153
216 152 153
216 152 153
216 152 153
216 152 153
216 152 153
216 152 152
216 152 152
216 152 152
216 152 152
217 152 152
217 152 152
217 152 152
217 153 152
217 153 152
217 153 152
217 153 152
217 153 152
217 153 152
217 153 152
217 153 151
217 153 151
217 153 151
217 153 151
217 153 151
217 153 151
217 153 151
217 153 151
217 154 151
217 154 151
218 154 151
218 154 151
218 154 151
218 154 151
218 154 151
218 154 150
218 154 150
218 154 150
213 151 146
126 94 73
108 82 57
105 80 57
109 82 60
103 77 57
104 78 58
103 78 58
108 83 56
103 77 57
104 78 58
106 79 60
107 80 61
104 80 55
107 81 57
101 78 53
105 80 57
100 75 56
103 77 60
103 77 58
108 82 57
107 81 60
104 78 56
102 77 58
104 80 53
101 76 56
109 83 56
107 80 60
98 73 57
106 79 60
101 75 59
103 78 54
103 79 55
103 78 56
108 82 57
101 77 53
102 77 56
100 73 61
99 75 53
102 77 56
109 83 60
102 77 57
102 77 58
102 77 54
103 77 57
104 78 59
102 77 57
102 77 55
111 84 60
102 77 56
102 77 57
108 82 56
103 78 58
106 81 57
104 78 60
105 79 58
105 79 58
105 79 59
103 79 54
108 81 59
103 79 56
103 78 56
103 77 59
98 73 55
103 79 55
102 77 56
101 75 57
101 76 55
106 81 56
100 75 57
104 79 56
107 80 59
104 78 56
108 82 58
107 81 59
105 80 57
105 78 59
104 78 57
107 81 58
105 79 59
107 81 58
106 81 55
103 78 56
105 79 58
108 83 56
108 82 57
107 81 60
109 82 60
104 78 58
103 76 60
103 78 58
106 81 55
118 89 65
209 148 144
218 154 150
218 154 150
218 154 150
218 154 151
218 154 151
218 154 151
218 154 151
218 154 151
217 154 151
217 154 151
217 154 151
217 153 151
217 153 151
217 153 151
217 153 151
217 153 151
217 153 151
217 153 151
217 153 152
217 153 152
217 153 152
217 153 152
217 153 152
217 153 152
217 153 152
217 152 152
217 152 152
217 152 152
217 152 152
216 152 152
216 152 152
216 152 152
216 152 153
216 152 153
216 152 153
216 152 153
216 152 153
216 152 153
216 151 153
216 151 153
216 151 153
216 151 153
216 151 153
216 151 153
216 151 153
216 151 154
216 151 154
216 151 154
215 151 154
215 151 154
215 151 154
215 151 154
215 150 154
215 150 154
215 150 154
215 150 154
215 150 154
215 150 154
215 150 155
215 150 155
215 150 155
215 150 155
215 150 155
215 150 155
215 150 155
215 150 155
215 149 155
215 149 155
215 149 155
214 149 155
214 149 155
214 149 155
214 149 156
214 149 156
214 149 156
214 149 156
214 149 156
214 149 156
214 149 156
214 149 156
214 149 156
214 148 156
214 148 156
214 148 156
214 148 156
214 148 156
214 148 156
214 148 157
214 148 157
214 148 157
214 148 157
213 148 157
213 148 157
213 148 157
213 148 157
213 148 157
213 148 157
213 147 157
213 147 157
213 147 157
213 147 157
213 147 157
213 147 157
213 147 158
213 147 158
213 147 158
213 147 158
213 147 158
213 147 158
213 147 158
213 147 158
213 147 158
213 147 158
213 147 158
213 146 158
213 146 158
212 146 158
212 146 158
212 146 158
212 146 158
212 146 158
212 146 159
212 146 159
212 146 159
212 146 159
212 146 159
212 146 159
212 146 159
212 146 159
212 146 159
212 146 159
212 146 159
212 146 159
212 145 159
212 145 159
212 145 159
212 145 159
212 145 159
212 145 159
212 145 159
212 145 160
212 145 160
212 145 160
212 145 160
212 145 160
211 145 160
211 145 160
211 145 160
211 145 160
211 145 160
211 145 160
211 145 160
211 145 160
211 144 160
211 144 160
211 144 160
211 144 160
211 145 160
211 145 160
211 145 160
211 145 160
211 145 160
211 145 160
211 145 160
211 145 160
211 145 160
211 145 160
212 145 160
212 145 160
212 145 160
212 145 160
212 145 159
212 145 159
212 145 159
212 145 159
212 145 159
212 145 159
212 145 159
212 146 159
212 146 159
212 146 159
212 146 159
212 146 159
212 146 159
212 146 159
212 146 159
212 146 159
212 146 159
212 146 159
212 146 159
212 146 159
212 146 158
212 146 158
212 146 158
212 146 158
212 146 158
213 146 158
213 147 158
213 147 158
213 147 158
213 147 158
213 147 158
213 147 158
213 147 158
213 147 158
213 147 158
213 147 158
213 147 158
213 147 157
213 147 157
213 147 157
213 147 157
213 147 157
213 147 157
213 148 157
213 148 157
213 148 157
213 148 157
213 148 157
213 148 157
214 148 157
214 148 157
214 148 157
214 148 157
214 148 156
214 148 156
214 148 156
214 148 156
214 148 156
214 148 156
214 149 156
214 149 156
214 149 156
214 149 156
214 149 156
214 149 156
214 149 156
214 149 156
214 149 155
214 149 155
214 149 155
214 149 155
215 149 155
215 149 155
215 149 155
215 150 155
215 150 155
215 150 155
215 150 155
215 150 155
215 150 155
215 150 155
215 150 155
215 150 154
215 150 154
215 150 154
215 150 154
215 150 154
215 150 154
215 151 154
215 151 154
215 151 154
215 151 154
216 151 154
216 151 154
216 151 154
216 151 153
216 151 153
216 151 153
216 151 153
216 151 153
216 151 153
216 151 153
216 152 153
216 152 153
216 152 153
216 152 153
216 152 153
216 152 153
216 152 153
216 152 152
216 152 152
216 152 152
217 152 152
217 152 152
217 152 152
217 153 152
217 153 152
217 153 152
217 153 152
217 153 152
217 153 152
217 153 152
217 153 152
217 153 151
217 153 151
217 153 151
217 153 151
217 153 151
217 153 151
217 153 151
217 153 151
217 154 151
217 154 151
217 154 151
207 147 141
127 94 77
107 80 63
109 83 58
105 80 56
106 80 58
101 76 56
104 79 56
106 81 57
109 83 57
105 80 56
102 77 56
104 78 58
106 80 59
103 78 56
105 80 55
105 80 55
103 78 55
105 79 60
105 79 59
104 78 58
102 76 58
108 82 59
108 82 57
104 78 57
102 77 56
102 77 56
105 79 59
102 76 59
106 81 56
106 80 57
102 76 57
100 75 55
104 77 59
103 77 57
101 76 55
104 78 59
99 74 57
101 76 58
102 77 57
106 80 59
106 81 57
103 78 55
106 81 57
105 80 57
105 80 57
101 76 55
106 80 58
108 81 61
105 79 59
105 78 62
102 77 57
105 79 58
104 78 58
99 75 53
103 77 57
100 75 56
101 76 58
107 82 57
102 77 57
102 78 55
102 78 54
105 80 56
104 78 60
109 82 60
99 73 59
103 77 59
102 77 58
110 84 57
107 81 60
101 76 56
105 79 58
101 77 55
107 81 58
104 79 56
108 81 61
101 76 55
104 78 58
103 78 58
98 74 55
102 78 56
103 78 56
105 80 55
104 78 59
107 82 57
106 81 55
104 80 55
105 80 56
104 78 59
100 75 56
109 82 58
105 79 58
109 84 55
105 79 58
121 91 69
211 149 145
217 154 151
217 154 151
217 154 151
217 153 151
217 153 151
217 153 151
217 153 151
217 153 151
217 153 151
217 153 151
217 153 151
217 153 152
217 153 152
217 153 152
217 153 152
217 153 152
217 153 152
217 153 152
217 152 152
217 152 152
217 152 152
217 152 152
216 152 152
216 152 152
216 152 152
216 152 153
216 152 153
216 152 153
216 152 153
216 152 153
216 152 153
216 152 153
216 151 153
216 151 153
216 151 153
216 151 153
216 151 153
216 151 153
216 151 153
216 151 154
216 151 154
216 151 154
215 151 154
215 151 154
215 151 154
215 151 154
215 150 154
215 150 154
215 150 154
215 150 154
215 150 154
215 150 154
215 150 155
215 150 155
215 150 155
215 150 155
215 150 155
215 150 155
215 150 155
215 150 155
215 149 155
215 149 155
215 149 155
214 149 155
214 149 155
214 149 155
214 149 156
214 149 156
214 149 156
214 149 156
214 149 156
214 149 156
214 149 156
214 149 156
214 149 156
214 148 156
214 148 156
214 148 156
214 148 156
214 148 156
214 148 156
214 148 157
214 148 157
214 148 157
214 148 157
213 148 157
213 148 157
213 148 157
213 148 157
213 148 157
213 148 157
213 147 157
213 147 157
213 147 157
213 147 157
213 147 157
213 147 157
213 147 158
213 147 158
213 147 158
213 147 158
213 147 158
213 147 158
213 147 158
213 147 158
213 147 158
213 147 158
213 147 158
213 146 158
212 146 158
212 146 158
212 146 158
212 146 158
212 146 158
212 146 158
212 146 159
212 146 159
212 146 159
212 146 159
212 146 159
212 146 159
212 146 159
212 146 159
212 146 159
212 146 159
212 146 159
212 146 159
212 145 159
212 145 159
212 145 159
212 145 159
212 145 159
212 145 159
212 145 160
212 145 160
212 145 160
212 145 160
212 145 160
211 145 160
211 145 160
211 145 160
211 145 160
211 145 160
211 145 160
211 145 160
211 145 160
211 145 160
211 145 160
211 144 160
211 144 160
211 144 160
211 144 160
211 144 161
211 144 161
211 144 161
211 144 160
211 144 160
211 144 160
211 144 160
211 144 160
211 144 160
211 144 160
211 145 160
211 145 160
211 145 160
211 145 160
211 145 160
211 145 160
211 145 160
211 145 160
211 145 160
211 145 160
212 145 160
212 145 160
212 145 160
212 145 160
212 145 159
212 145 159
212 145 159
212 145 159
212 145 159
212 145 159
212 145 159
212 146 159
212 146 159
212 146 159
212 146 159
212 146 159
212 146 159
212 146 159
212 146 159
212 146 159
212 146 159
212 146 159
212 146 159
212 146 158
212 146 158
212 146 158
212 146 158
212 146 158
213 146 158
213 147 158
213 147 158
213 147 158
213 147 158
213 147 158
213 147 158
213 147 158
213 147 158
213 147 158
213 147 158
213 147 158
213 147 157
213 147 157
213 147 157
213 147 157
213 147 157
213 147 157
213 147 157
213 148 157
213 148 157
213 148 157
213 148 157
213 148 157
214 148 157
214 148 157
214 148 157
214 148 157
214 148 156
214 148 156
214 148 156
214 148 156
214 148 156
214 148 156
214 149 156
214 149 156
214 149 156
214 149 156
214 149 156
214 149 156
214 149 156
214 149 156
214 149 156
214 149 155
214 149 155
214 149 155
214 149 155
215 149 155
215 149 155
215 150 155
215 150 155
215 150 155
215 150 155
215 150 155
215 150 155
215 150 155
215 150 155
215 150 154
215 150 154
215 150 154
215 150 154
215 150 154
215 150 154
215 151 154
215 151 154
215 151 154
215 151 154
216 151 154
216 151 154
216 151 154
216 151 154
216 151 153
216 151 153
216 151 153
216 151 153
216 151 153
216 151 153
216 152 153
216 152 153
216 152 153
216 152 153
216 152 153
216 152 153
216 152 153
216 152 153
216 152 152
216 152 152
217 152 152
217 152 152
217 152 152
217 152 152
217 152 152
217 153 152
217 153 152
217 153 152
217 153 152
217 153 152
217 153 152
217 153 152
217 153 151
217 153 151
217 153 151
217 153 151
212 150 146
128 95 76
110 83 59
106 80 59
106 80 57
108 82 57
103 78 56
106 81 57
101 77 54
109 82 61
101 76 58
107 82 56
103 79 54
106 80 58
103 77 59
105 80 57
103 79 54
101 76 56
102 76 59
107 81 58
103 77 57
105 79 56
105 79 60
103 77 58
102 77 56
105 79 60
104 79 56
102 78 55
101 77 52
104 79 57
102 77 57
104 79 55
97 72 56
97 73 54
105 79 60
105 80 55
102 77 55
102 77 56
108 81 60
101 75 60
102 77 56
105 80 56
102 77 55
98 75 53
106 80 60
105 80 55
105 80 56
100 74 59
104 78 58
102 75 61
98 75 53
100 76 53
106 80 60
102 76 59
103 78 55
101 76 56
98 74 54
103 78 56
104 77 60
102 77 55
103 78 57
101 75 58
103 78 55
104 79 55
106 79 60
102 76 58
101 76 56
101 76 57
103 80 51
103 77 59
105 80 56
102 76 57
107 82 57
104 78 59
105 79 58
103 78 56
104 79 55
104 77 61
104 77 62
102 77 56
101 76 57
104 78 58
100 75 56
106 81 56
104 79 56
103 78 55
105 81 55
100 77 53
105 80 56
106 80 58
107 83 54
103 79 54
107 82 57
110 83 59
107 82 55
103 78 56
134 101 74
209 148 143
217 153 151
217 153 151
217 153 151
217 153 152
217 153 152
217 153 152
217 153 152
217 153 152
217 153 152
217 153 152
217 153 152
217 152 152
217 152 152
217 152 152
217 152 152
216 152 152
216 152 152
216 152 152
216 152 153
216 152 153
216 152 153
216 152 153
216 152 153
216 152 153
216 152 153
216 152 153
216 151 153
216 151 153
216 151 153
216 151 153
216 151 153
216 151 153
216 151 153
216 151 154
216 151 154
216 151 154
215 151 154
215 151 154
215 151 154
215 151 154
215 150 154
215 150 154
215 150 154
215 150 154
215 150 154
215 150 154
215 150 155
215 150 155
215 150 155
215 150 155
215 150 155
215 150 155
215 150 155
215 150 155
215 149 155
215 149 155
215 149 155
214 149 155
214 149 155
214 149 155
214 149 156
214 149 156
214 149 156
214 149 156
214 149 156
214 149 156
214 149 156
214 149 156
214 149 156
214 148 156
214 148 156
214 148 156
214 148 156
214 148 156
214 148 156
214 148 157
214 148 157
214 148 157
214 148 157
213 148 157
213 148 157
213 148 157
213 148 157
213 148 157
213 148 157
213 147 157
213 147 157
213 147 157
213 147 157
213 147 157
213 147 157
213 147 158
213 147 158
213 147 158
213 147 158
213 147 158
213 147 158
213 147 158
213 147 158
213 147 158
213 147 158
213 147 158
213 146 158
212 146 158
212 146 158
212 146 158
212 146 158
212 146 158
212 146 159
212 146 159
212 146 159
212 146 159
212 146 159
212 146 159
212 146 159
212 146 159
212 146 159
212 146 159
212 146 159
212 146 159
212 145 159
212 145 159
212 145 159
212 145 159
212 145 159
212 145 159
212 145 159
212 145 160
212 145 160
212 145 160
212 145 160
211 145 160
211 145 160
211 145 160
211 145 160
211 145 160
211 145 160
211 145 160
211 145 160
211 145 160
211 145 160
211 144 160
211 144 160
211 144 160
211 144 160
211 144 160
211 144 160
211 144 160
211 144 161
211 144 161
211 144 161
211 144 161
211 144 161
211 144 161
211 144 161
211 144 161
211 144 161
211 144 161
211 144 161
211 144 160
211 144 160
211 144 160
211 144 160
211 144 160
211 144 160
211 144 160
211 145 160
211 145 160
211 145 160
211 145 160
211 145 160
211 145 160
211 145 160
211 145 160
211 145 160
211 145 160
212 145 160
212 145 160
212 145 160
212 145 160
212 145 160
212 145 159
212 145 159
212 145 159
212 145 159
212 145 159
212 145 159
212 146 159
212 146 159
212 146 159
212 146 159
212 146 159
212 146 159
212 146 159
212 146 159
212 146 159
212 146 159
212 146 159
212 146 159
212 146 158
212 146 158
212 146 158
212 146 158
212 146 158
213 146 158
213 146 158
213 147 158
213 147 158
213 147 158
213 147 158
213 147 158
213 147 158
213 147 158
213 147 158
213 147 158
213 147 158
213 147 158
213 147 157
213 147 157
213 147 157
213 147 157
213 147 157
213 147 157
213 148 157
213 148 157
213 148 157
213 148 157
213 148 157
214 148 157
214 148 157
214 148 157
214 148 157
214 148 156
214 148 156
214 148 156
214 148 156
214 148 156
214 148 156
214 149 156
214 149 156
214 149 156
214 149 156
214 149 156
214 149 156
214 149 156
214 149 156
214 149 156
214 149 155
214 149 155
214 149 155
215 149 155
215 149 155
215 149 155
215 150 155
215 150 155
215 150 155
215 150 155
215 150 155
215 150 155
215 150 155
215 150 155
215 150 154
215 150 154
215 150 154
215 150 154
215 150 154
215 150 154
215 150 154
215 151 154
215 151 154
215 151 154
216 151 154
216 151 154
216 151 154
216 151 154
216 151 153
216 151 153
216 151 153
216 151 153
216 151 153
216 151 153
216 151 153
216 152 153
216 152 153
216 152 153
216 152 153
216 152 153
216 152 153
216 152 153
216 152 153
216 152 152
216 152 152
216 152 152
217 152 152
217 152 152
217 152 152
217 152 152
217 153 152
217 153 152
217 153 152
217 153 152
214 151 149
138 101 84
107 81 56
108 82 58
108 81 60
102 78 52
102 77 58
107 80 61
106 81 56
104 77 60
107 82 57
106 80 57
103 77 60
109 82 60
105 79 58
101 76 57
105 80 57
99 74 58
100 74 59
106 79 59
103 77 58
105 79 59
104 79 56
100 76 55
100 75 55
100 75 54
100 76 54
101 76 57
100 75 55
98 73 57
106 79 59
99 75 54
103 78 57
101 76 58
100 75 57
106 80 58
105 79 58
98 75 52
98 72 59
101 76 58
102 78 55
103 78 56
99 74 56
101 75 58
100 76 54
105 80 57
105 79 60
102 77 56
105 79 60
102 77 55
108 82 60
105 79 59
104 79 54
102 77 57
101 75 58
103 77 57
105 78 60
103 76 61
101 76 58
100 76 52
105 79 61
95 71 56
105 79 58
104 79 56
103 77 59
107 80 60
101 76 56
103 77 59
99 74 55
101 76 57
105 79 59
101 76 57
104 79 58
102 77 56
104 78 59
102 77 55
103 77 59
105 80 56
104 77 61
99 74 57
103 79 54
108 83 57
101 76 57
104 79 57
106 80 58
99 74 56
101 76 53
108 83 55
103 78 57
102 77 55
106 80 60
103 77 58
107 80 62
106 80 60
110 82 62
109 82 60
105 79 57
102 76 58
138 100 86
216 152 151
217 153 152
217 153 152
217 153 152
217 153 152
217 152 152
217 152 152
217 152 152
217 152 152
216 152 152
216 152 152
216 152 152
216 152 152
216 152 153
216 152 153
216 152 153
216 152 153
216 152 153
216 152 153
216 152 153
216 151 153
216 151 153
216 151 153
216 151 153
216 151 153
216 151 153
216 151 153
216 151 154
216 151 154
216 151 154
216 151 154
215 151 154
215 151 154
215 151 154
215 150 154
215 150 154
215 150 154
215 150 154
215 150 154
215 150 154
215 150 154
215 150 155
215 150 155
215 150 155
215 150 155
215 150 155
215 150 155
215 150 155
215 150 155
215 149 155
215 149 155
214 149 155
214 149 155
214 149 155
214 149 155
214 149 156
214 149 156
214 149 156
214 149 156
214 149 156
214 149 156
214 149 156
214 149 156
214 148 156
214 148 156
214 148 156
214 148 156
214 148 156
214 148 156
214 148 156
214 148 157
214 148 157
214 148 157
214 148 157
213 148 157
213 148 157
213 148 157
213 148 157
213 148 157
213 147 157
213 147 157
213 147 157
213 147 157
213 147 157
213 147 157
213 147 157
213 147 158
213 147 158
213 147 158
213 147 158
213 147 158
213 147 158
213 147 158
213 147 158
213 147 158
213 147 158
213 146 158
212 146 158
212 146 158
212 146 158
212 146 158
212 146 158
212 146 159
212 146 159
212 146 159
212 146 159
212 146 159
212 146 159
212 146 159
212 146 159
212 146 159
212 146 159
212 146 159
212 146 159
212 145 159
212 145 159
212 145 159
212 145 159
212 145 159
212 145 159
212 145 159
212 145 160
212 145 160
212 145 160
212 145 160
212 145 160
211 145 160
211 145 160
211 145 160
211 145 160
211 145 160
211 145 160
211 145 160
211 145 160
211 145 160
211 144 160
211 144 160
211 144 160
211 144 160
211 144 160
211 144 160
211 144 160
211 144 161
211 144 161
211 144 161
211 144 161
211 144 161
211 144 161
211 144 161
211 144 161
211 144 161
211 144 161
211 144 161
211 144 161
211 144 161
211 144 161
211 144 161
211 144 161
211 144 161
211 144 161
211 144 161
211 144 161
211 144 161
211 144 161
211 144 161
211 144 161
211 144 160
211 144 160
211 144 160
211 144 160
211 144 160
211 144 160
211 145 160
211 145 160
211 145 160
211 145 160
211 145 160
211 145 160
211 145 160
211 145 160
211 145 160
211 145 160
212 145 160
212 145 160
212 145 160
212 145 160
212 145 159
212 145 159
212 145 159
212 145 159
212 145 159
212 145 159
212 145 159
212 146 159
212 146 159
212 146 159
212 146 159
212 146 159
212 146 159
212 146 159
212 146 159
212 146 159
212 146 159
212 146 159
212 146 159
212 146 158
212 146 158
212 146 158
212 146 158
212 146 158
213 146 158
213 146 158
213 147 158
213 147 158
213 147 158
213 147 158
213 147 158
213 147 158
213 147 158
213 147 158
213 147 158
213 147 158
213 147 157
213 147 157
213 147 157
213 147 157
213 147 157
213 147 157
213 148 157
213 148 157
213 148 157
213 148 157
213 148 157
213 148 157
214 148 157
214 148 157
214 148 157
214 148 157
214 148 156
214 148 156
214 148 156
214 148 156
214 148 156
214 149 156
214 149 156
214 149 156
214 149 156
214 149 156
214 149 156
214 149 156
214 149 156
214 149 156
214 149 155
214 149 155
214 149 155
214 149 155
215 149 155
215 149 155
215 150 155
215 150 155
215 150 155
215 150 155
215 150 155
215 150 155
215 150 155
215 150 155
215 150 155
215 150 154
215 150 154
215 150 154
215 150 154
215 150 154
215 150 154
215 151 154
215 151 154
215 151 154
215 151 154
216 151 154
216 151 154
216 151 154
216 151 154
216 151 153
216 151 153
216 151 153
216 151 153
216 151 153
216 151 153
216 151 153
216 152 153
216 152 153
216 152 153
216 152 153
216 152 153
216 152 153
216 152 153
216 152 153
216 152 152
216 152 152
216 152 152
216 152 152
217 152 152
159 115 102
108 82 57
102 77 57
106 79 60
101 75 59
106 79 62
104 77 60
104 78 57
106 80 58
106 81 57
105 79 58
104 79 53
108 82 58
106 80 58
103 78 56
104 78 57
109 84 57
106 80 59
102 77 56
104 77 60
105 79 56
106 80 57
101 75 58
102 76 59
104 79 56
96 71 58
101 76 57
98 74 54
101 75 60
100 75 58
98 74 54
103 77 60
100 75 57
101 76 55
100 74 58
101 77 54
98 73 56
102 77 56
101 77 54
104 77 60
103 78 57
102 77 55
99 75 53
101 76 56
102 78 54
101 77 55
104 78 59
104 78 59
100 75 56
105 79 57
105 80 56
99 74 58
102 76 59
104 77 62
102 77 55
104 79 56
103 77 57
106 78 63
103 77 58
104 78 60
102 77 56
101 76 56
103 77 59
100 76 55
104 78 60
100 75 58
104 78 57
102 76 58
103 76 60
98 73 56
102 76 58
105 80 55
102 78 55
107 80 60
100 75 57
105 79 59
101 76 55
104 78 58
101 76 55
101 77 54
107 80 62
102 78 54
104 79 55
100 75 58
102 78 54
100 76 55
108 82 58
103 78 57
101 76 57
108 82 58
102 76 60
95 71 54
105 79 59
105 78 61
100 75 56
104 79 56
103 79 55
105 80 56
108 82 59
163 118 106
217 152 152
217 152 152
216 152 152
216 152 152
216 152 152
216 152 153
216 152 153
216 152 153
216 152 153
216 152 153
216 152 153
216 152 153
216 152 153
216 151 153
216 151 153
216 151 153
216 151 153
216 151 153
216 151 153
216 151 153
216 151 154
216 151 154
216 151 154
216 151 154
215 151 154
215 151 154
215 151 154
215 151 154
215 150 154
215 150 154
215 150 154
215 150 154
215 150 154
215 150 154
215 150 155
215 150 155
215 150 155
215 150 155
215 150 155
215 150 155
215 150 155
215 150 155
215 149 155
215 149 155
215 149 155
214 149 155
214 149 155
214 149 155
214 149 155
214 149 156
214 149 156
214 149 156
214 149 156
214 149 156
214 149 156
214 149 156
214 149 156
214 148 156
214 148 156
214 148 156
214 148 156
214 148 156
214 148 156
214 148 156
214 148 157
214 148 157
214 148 157
213 148 157
213 148 157
213 148 157
213 148 157
213 148 157
213 148 157
213 147 157
213 147 157
213 147 157
213 147 157
213 147 157
213 147 157
213 147 158
213 147 158
213 147 158
213 147 158
213 147 158
213 147 158
213 147 158
213 147 158
213 147 158
213 147 158
213 146 158
213 146 158
212 146 158
212 146 158
212 146 158
212 146 158
212 146 158
212 146 159
212 146 159
212 146 159
212 146 159
212 146 159
212 146 159
212 146 159
212 146 159
212 146 159
212 146 159
212 146 159
212 146 159
212 145 159
212 145 159
212 145 159
212 145 159
212 145 159
212 145 159
212 145 159
212 145 160
212 145 160
212 145 160
212 145 160
211 145 160
211 145 160
211 145 160
211 145 160
211 145 160
211 145 160
211 145 160
211 145 160
211 145 160
211 144 160
211 144 160
211 144 160
211 144 160
211 144 160
211 144 160
211 144 160
211 144 160
211 144 161
211 144 161
211 144 161
211 144 161
211 144 161
211 144 161
211 144 161
211 144 161
211 144 161
211 144 161
211 144 161
211 144 161
211 144 161
211 144 161
210 143 161
210 143 161
210 143 161
210 143 161
210 143 161
211 144 161
211 144 161
211 144 161
211 144 161
211 144 161
211 144 161
211 144 161
211 144 161
211 144 161
211 144 161
211 144 161
211 144 161
211 144 161
211 144 161
211 144 161
211 144 161
211 144 160
211 144 160
211 144 160
211 144 160
211 144 160
211 144 160
211 144 160
211 145 160
211 145 160
211 145 160
211 145 160
211 145 160
211 145 160
211 145 160
211 145 160
211 145 160
212 145 160
212 145 160
212 145 160
212 145 160
212 145 159
212 145 159
212 145 159
212 145 159
212 145 159
212 145 159
212 145 159
212 146 159
212 146 159
212 146 159
212 146 159
212 146 159
212 146 159
212 146 159
212 146 159
212 146 159
212 146 159
212 146 159
212 146 159
212 146 158
212 146 158
212 146 158
212 146 158
213 146 158
213 146 158
213 147 158
213 147 158
213 147 158
213 147 158
213 147 158
213 147 158
213 147 158
213 147 158
213 147 158
213 147 158
213 147 157
213 147 157
213 147 157
213 147 157
213 147 157
213 147 157
213 148 157
213 148 157
213 148 157
213 148 157
213 148 157
213 148 157
213 148 157
214 148 157
214 148 157
214 148 157
214 148 156
214 148 156
214 148 156
214 148 156
214 148 156
214 148 156
214 149 156
214 149 156
214 149 156
214 149 156
214 149 156
214 149 156
214 149 156
214 149 156
214 149 156
214 149 155
214 149 155
214 149 155
215 149 155
215 149 155
215 149 155
215 150 155
215 150 155
215 150 155
215 150 155
215 150 155
215 150 155
215 150 155
215 150 155
215 150 154
215 150 154
215 150 154
215 150 154
215 150 154
215 150 154
215 150 154
215 151 154
215 151 154
215 151 154
215 151 154
216 151 154
216 151 154
216 151 154
216 151 154
216 151 153
216 151 153
216 151 153
216 151 153
216 151 153
216 151 153
216 151 153
216 151 153
216 152 153
216 152 153
216 152 153
216 152 153
216 152 153
169 121 112
108 82 59
106 80 58
104 79 58
107 82 55
109 82 60
104 78 57
107 83 54
105 79 60
102 77 56
105 79 57
106 80 58
105 80 57
98 74 56
103 78 58
109 83 57
103 77 59
101 77 55
103 78 55
102 77 55
104 79 57
99 74 55
103 76 60
103 77 59
101 75 57
101 76 58
102 74 63
104 78 57
104 79 57
102 77 57
101 76 56
101 76 56
100 75 56
100 76 55
102 76 57
100 74 59
102 77 56
108 81 59
104 77 61
103 78 57
103 78 56
102 77 56
101 75 57
102 77 55
102 76 58
99 74 55
101 76 54
107 80 60
95 72 54
103 75 63
101 75 56
98 75 51
104 79 55
101 75 57
96 71 56
100 75 58
102 76 60
102 76 60
102 76 59
102 77 57
104 79 57
103 78 55
107 81 59
100 75 55
101 76 56
102 77 57
98 74 52
105 80 58
103 77 57
104 78 58
103 78 57
102 77 57
106 80 60
102 76 59
101 75 58
101 75 57
100 74 57
99 76 53
107 80 60
101 76 58
102 75 61
102 77 54
104 78 60
102 77 55
103 77 57
100 76 53
102 77 57
101 75 59
105 79 58
99 75 55
107 81 57
102 77 57
104 79 56
101 76 56
100 75 55
106 79 60
108 82 60
106 81 56
104 78 60
109 83 58
108 82 57
173 123 118
216 152 153
216 152 153
216 152 153
216 152 153
216 152 153
216 151 153
216 151 153
216 151 153
216 151 153
216 151 153
216 151 153
216 151 153
216 151 153
216 151 154
216 151 154
216 151 154
216 151 154
215 151 154
215 151 154
215 151 154
215 151 154
215 150 154
215 150 154
215 150 154
215 150 154
215 150 154
215 150 154
215 150 154
215 150 155
215 150 155
215 150 155
215 150 155
215 150 155
215 150 155
215 150 155
215 150 155
215 149 155
215 149 155
215 149 155
214 149 155
214 149 155
214 149 155
214 149 156
214 149 156
214 149 156
214 149 156
214 149 156
214 149 156
214 149 156
214 149 156
214 149 156
214 148 156
214 148 156
214 148 156
214 148 156
214 148 156
214 148 156
214 148 157
214 148 157
214 148 157
214 148 157
213 148 157
213 148 157
213 148 157
213 148 157
213 148 157
213 147 157
213 147 157
213 147 157
213 147 157
213 147 157
213 147 157
213 147 157
213 147 158
213 147 158
213 147 158
213 147 158
213 147 158
213 147 158
213 147 158
213 147 158
213 147 158
213 147 158
213 146 158
212 146 158
212 146 158
212 146 158
212 146 158
212 146 158
212 146 158
212 146 159
212 146 159
212 146 159
212 146 159
212 146 159
212 146 159
212 146 159
212 146 159
212 146 159
212 146 159
212 146 159
212 145 159
212 145 159
212 145 159
212 145 159
212 145 159
212 145 159
212 145 159
212 145 160
212 145 160
212 145 160
212 145 160
211 145 160
211 145 160
211 145 160
211 145 160
211 145 160
211 145 160
211 145 160
211 145 160
211 145 160
211 144 160
211 144 160
211 144 160
211 144 160
211 144 160
211 144 160
211 144 160
211 144 161
211 144 161
211 144 161
211 144 161
211 144 161
211 144 161
211 144 161
211 144 161
211 144 161
211 144 161
211 144 161
211 144 161
211 144 161
211 144 161
211 144 161
211 144 161
210 143 161
210 143 161
210 143 161
210 143 161
210 143 161
210 143 162
210 143 162
210 143 162
210 143 161
210 143 161
210 143 161
210 143 161
210 143 161
210 143 161
210 143 161
210 143 161
211 144 161
211 144 161
211 144 161
211 144 161
211 144 161
211 144 161
211 144 161
211 144 161
211 144 161
211 144 161
211 144 161
211 144 161
211 144 161
211 144 161
211 144 161
211 144 161
211 144 160
211 144 160
211 144 160
211 144 160
211 144 160
211 144 160
211 145 160
211 145 160
211 145 160
211 145 160
211 145 160
211 145 160
211 145 160
211 145 160
211 145 160
211 145 160
212 145 160
212 145 160
212 145 160
212 145 160
212 145 159
212 145 159
212 145 159
212 145 159
212 145 159
212 145 159
212 145 159
212 146 159
212 146 159
212 146 159
212 146 159
212 146 159
212 146 159
212 146 159
212 146 159
212 146 159
212 146 159
212 146 159
212 146 158
212 146 158
212 146 158
212 146 158
212 146 158
212 146 158
213 146 158
213 147 158
213 147 158
213 147 158
213 147 158
213 147 158
213 147 158
213 147 158
213 147 158
213 147 158
213 147 158
213 147 157
213 147 157
213 147 157
213 147 157
213 147 157
213 147 157
213 148 157
213 148 157
213 148 157
213 148 157
213 148 157
213 148 157
214 148 157
214 148 157
214 148 157
214 148 157
214 148 156
214 148 156
214 148 156
214 148 156
214 148 156
214 148 156
214 149 156
214 149 156
214 149 156
214 149 156
214 149 156
214 149 156
214 149 156
214 149 156
214 149 156
214 149 155
214 149 155
214 149 155
215 149 155
215 149 155
215 149 155
215 150 155
215 150 155
215 150 155
215 150 155
215 150 155
215 150 155
215 150 155
215 150 155
215 150 154
215 150 154
215 150 154
215 150 154
215 150 154
215 150 154
215 150 154
215 151 154
215 151 154
215 151 154
215 151 154
215 151 154
216 151 154
216 151 154
216 151 154
216 151 154
216 151 153
216 151 153
216 151 153
216 151 153
216 151 153
182 129 123
110 83 61
104 79 57
106 81 57
106 80 60
104 78 57
103 77 59
104 79 56
105 80 57
103 78 55
104 79 56
103 78 56
106 79 60
102 77 56
106 80 58
103 76 61
99 75 54
97 73 53
101 74 60
108 82 59
100 75 55
106 80 59
105 78 61
109 83 57
106 79 60
99 74 56
98 74 55
101 76 56
103 77 57
102 77 58
102 77 57
105 78 61
100 74 57
100 75 57
103 78 57
102 76 60
103 77 60
102 77 56
102 76 58
100 75 55
104 78 59
98 74 55
103 77 58
100 76 56
103 77 58
104 79 57
103 76 61
104 78 60
107 81 58
102 77 56
99 74 55
100 75 57
101 75 58
103 78 55
97 73 53
105 79 58
105 79 59
101 76 58
98 74 54
98 74 54
103 77 58
104 79 56
99 75 55
103 77 60
104 79 58
100 75 57
106 81 57
106 80 58
102 76 59
98 73 57
99 75 54
106 80 59
100 74 58
98 73 55
100 75 58
103 78 57
102 77 57
103 77 59
104 78 59
106 79 59
106 79 60
102 78 54
105 79 60
101 75 59
108 81 62
98 73 57
107 80 60
102 77 57
101 77 54
104 78 58
106 80 56
102 76 57
102 77 57
106 79 60
105 79 58
101 76 56
97 73 54
102 77 56
102 78 54
105 79 59
99 74 56
103 77 59
108 81 60
195 138 134
216 151 153
216 151 153
216 151 153
216 151 153
216 151 153
216 151 154
216 151 154
216 151 154
216 151 154
216 151 154
215 151 154
215 151 154
215 151 154
215 150 154
215 150 154
215 150 154
215 150 154
215 150 154
215 150 154
215 150 154
215 150 154
215 150 155
215 150 155
215 150 155
215 150 155
215 150 155
215 150 155
215 150 155
215 150 155
215 149 155
215 149 155
215 149 155
214 149 155
214 149 155
214 149 155
214 149 155
214 149 156
214 149 156
214 149 156
214 149 156
214 149 156
214 149 156
214 149 156
214 149 156
214 148 156
214 148 156
214 148 156
214 148 156
214 148 156
214 148 156
214 148 157
214 148 157
214 148 157
214 148 157
213 148 157
213 148 157
213 148 157
213 148 157
213 148 157
213 148 157
213 147 157
213 147 157
213 147 157
213 147 157
213 147 157
213 147 157
213 147 158
213 147 158
213 147 158
213 147 158
213 147 158
213 147 158
213 147 158
213 147 158
213 147 158
213 147 158
213 146 158
213 146 158
212 146 158
212 146 158
212 146 158
212 146 158
212 146 158
212 146 159
212 146 159
212 146 159
212 146 159
212 146 159
212 146 159
212 146 159
212 146 159
212 146 159
212 146 159
212 146 159
212 145 159
212 145 159
212 145 159
212 145 159
212 145 159
212 145 159
212 145 159
212 145 160
212 145 160
212 145 160
212 145 160
211 145 160
211 145 160
211 145 160
211 145 160
211 145 160
211 145 160
211 145 160
211 145 160
211 145 160
211 144 160
211 144 160
211 144 160
211 144 160
211 144 160
211 144 160
211 144 160
211 144 161
211 144 161
211 144 161
211 144 161
211 144 161
211 144 161
211 144 161
211 144 161
211 144 161
211 144 161
211 144 161
211 144 161
211 144 161
211 144 161
211 144 161
211 144 161
210 143 161
210 143 161
210 143 161
210 143 161
210 143 161
210 143 161
210 143 161
210 143 162
210 143 162
210 143 162
210 143 162
210 143 162
210 143 162
210 143 162
210 143 162
210 143 162
210 143 162
210 143 162
210 143 162
210 143 162
210 143 162
210 143 161
210 143 161
210 143 161
210 143 161
210 143 161
210 143 161
210 143 161
210 143 161
211 144 161
211 144 161
211 144 161
211 144 161
211 144 161
211 144 161
211 144 161
211 144 161
211 144 161
211 144 161
211 144 161
211 144 161
211 144 161
211 144 161
211 144 161
211 144 160
211 144 160
211 144 160
211 144 160
211 144 160
211 144 160
211 144 160
211 145 160
211 145 160
211 145 160
211 145 160
211 145 160
211 145 160
211 145 160
211 145 160
211 145 160
212 145 160
212 145 160
212 145 160
212 145 160
212 145 159
212 145 159
212 145 159
212 145 159
212 145 159
212 145 159
212 145 159
212 146 159
212 146 159
212 146 159
212 146 159
212 146 159
212 146 159
212 146 159
212 146 159
212 146 159
212 146 159
212 146 159
212 146 158
212 146 158
212 146 158
212 146 158
212 146 158
213 146 158
213 147 158
213 147 158
213 147 158
213 147 158
213 147 158
213 147 158
213 147 158
213 147 158
213 147 158
213 147 158
213 147 158
213 147 157
213 147 157
213 147 157
213 147 157
213 147 157
213 147 157
213 148 157
213 148 157
213 148 157
213 148 157
213 148 157
213 148 157
214 148 157
214 148 157
214 148 157
214 148 157
214 148 156
214 148 156
214 148 156
214 148 156
214 148 156
214 148 156
214 149 156
214 149 156
214 149 156
214 149 156
214 149 156
214 149 156
214 149 156
214 149 156
214 149 156
214 149 155
214 149 155
214 149 155
215 149 155
215 149 155
215 149 155
215 150 155
215 150 155
215 150 155
215 150 155
215 150 155
215 150 155
215 150 155
215 150 155
215 150 155
215 150 154
215 150 154
215 150 154
215 150 154
215 150 154
215 150 154
215 150 154
215 151 154
215 151 154
215 151 154
215 151 154
215 151 154
216 151 154
202 142 142
115 85 67
104 79 56
102 76 59
101 75 57
101 75 59
104 78 56
107 82 58
101 75 59
101 77 54
101 76 57
103 77 58
103 77 57
101 76 56
103 77 58
100 75 56
100 75 56
102 76 59
102 77 56
98 73 56
101 77 54
100 76 55
101 77 55
100 75 57
105 80 57
100 74 59
100 76 54
97 72 56
103 78 58
101 76 57
103 78 57
103 77 58
104 77 62
105 80 53
99 73 58
101 75 58
102 77 56
99 74 57
101 75 59
99 74 57
99 75 54
98 73 56
98 74 54
96 72 55
97 72 57
97 72 55
104 78 58
102 76 58
101 76 56
100 74 59
97 73 54
103 76 62
100 76 55
104 77 60
97 74 52
98 72 60
102 77 55
101 75 59
103 77 59
105 79 59
103 79 55
102 76 58
102 76 60
99 74 55
99 75 52
102 76 57
103 77 59
105 78 61
103 78 57
104 78 61
99 75 54
104 78 60
99 74 56
99 74 57
101 77 53
97 73 55
102 76 59
109 83 58
98 74 54
99 74 55
96 72 57
96 73 53
103 77 56
102 77 58
101 75 57
105 79 58
106 79 61
101 76 56
105 79 57
96 73 52
98 74 55
104 78 59
103 77 58
108 82 60
97 72 58
105 79 58
101 75 59
102 77 57
101 76 56
98 72 58
104 77 60
103 77 57
101 76 57
107 80 61
119 89 69
209 146 149
216 151 154
216 151 154
215 151 154
215 151 154
215 151 154
215 151 154
215 150 154
215 150 154
215 150 154
215 150 154
215 150 154
215 150 154
215 150 154
215 150 155
215 150 155
215 150 155
215 150 155
215 150 155
215 150 155
215 150 155
215 150 155
215 150 155
215 149 155
215 149 155
215 149 155
214 149 155
214 149 155
214 149 155
214 149 156
214 149 156
214 149 156
214 149 156
214 149 156
214 149 156
214 149 156
214 149 156
214 149 156
214 149 156
214 148 156
214 148 156
214 148 156
214 148 156
214 148 156
214 148 156
214 148 157
214 148 157
214 148 157
213 148 157
213 148 157
213 148 157
213 148 157
213 148 157
213 148 157
213 147 157
213 147 157
213 147 157
213 147 157
213 147 157
213 147 157
213 147 158
213 147 158
213 147 158
213 147 158
213 147 158
213 147 158
213 147 158
213 147 158
213 147 158
213 147 158
213 147 158
213 146 158
212 146 158
212 146 158
212 146 158
212 146 158
212 146 158
212 146 159
212 146 159
212 146 159
212 146 159
212 146 159
212 146 159
212 146 159
212 146 159
212 146 159
212 146 159
212 146 159
212 145 159
212 145 159
212 145 159
212 145 159
212 145 159
212 145 159
212 145 159
212 145 160
212 145 160
212 145 160
212 145 160
211 145 160
211 145 160
211 145 160
211 145 160
211 145 160
211 145 160
211 145 160
211 145 160
211 145 160
211 144 160
211 144 160
211 144 160
211 144 160
211 144 160
211 144 160
211 144 160
211 144 161
211 144 161
211 144 161
211 144 161
211 144 161
211 144 161
211 144 161
211 144 161
211 144 161
211 144 161
211 144 161
211 144 161
211 144 161
211 144 161
211 144 161
210 143 161
210 143 161
210 143 161
210 143 161
210 143 161
210 143 161
210 143 161
210 143 162
210 143 162
210 143 162
210 143 162
210 143 162
210 143 162
210 143 162
210 143 162
210 143 162
210 143 162
210 143 162
210 143 162
210 143 162
210 143 162
210 143 162
210 143 162
210 143 162
210 143 162
210 143 162
210 143 162
210 143 162
210 143 162
210 143 162
210 143 162
210 143 162
210 143 162
210 143 162
210 143 162
210 143 161
210 143 161
210 143 161
210 143 161
210 143 161
210 143 161
210 143 161
210 143 161
211 144 161
211 144 161
211 144 161
211 144 161
211 144 161
211 144 161
211 144 161
211 144 161
211 144 161
211 144 161
211 144 161
211 144 161
211 144 161
211 144 161
211 144 160
211 144 160
211 144 160
211 144 160
211 144 160
211 144 160
211 144 160
211 145 160
211 145 160
211 145 160
211 145 160
211 145 160
211 145 160
211 145 160
211 145 160
211 145 160
212 145 160
212 145 160
212 145 160
212 145 160
212 145 159
212 145 159
212 145 159
212 145 159
212 145 159
212 145 159
212 145 159
212 146 159
212 146 159
212 146 159
212 146 159
212 146 159
212 146 159
212 146 159
212 146 159
212 146 159
212 146 159
212 146 159
212 146 158
212 146 158
212 146 158
212 146 158
212 146 158
213 146 158
213 147 158
213 147 158
213 147 158
213 147 158
213 147 158
213 147 158
213 147 158
213 147 158
213 147 158
213 147 158
213 147 158
213 147 157
213 147 157
213 147 157
213 147 157
213 147 157
213 147 157
213 148 157
213 148 157
213 148 157
213 148 157
213 148 157
213 148 157
214 148 157
214 148 157
214 148 157
214 148 157
214 148 156
214 148 156
214 148 156
214 148 156
214 148 156
214 148 156
214 149 156
214 149 156
214 149 156
214 149 156
214 149 156
214 149 156
214 149 156
214 149 156
214 149 156
214 149 155
214 149 155
214 149 155
214 149 155
215 149 155
215 149 155
215 149 155
215 150 155
215 150 155
215 150 155
215 150 155
215 150 155
215 150 155
215 150 155
215 150 155
215 150 155
215 150 154
215 150 154
215 150 154
215 150 154
215 150 154
215 150 154
138 101 86
104 78 59
109 82 60
106 80 60
104 80 55
102 77 56
100 75 55
100 74 59
103 79 55
102 77 56
101 75 59
105 78 60
95 71 55
100 75 58
102 76 59
100 75 55
102 76 59
97 73 53
102 76 57
102 76 60
98 73 57
99 75 56
102 77 57
100 76 54
107 81 58
100 75 56
97 74 52
105 79 57
101 76 55
105 80 56
101 75 58
99 75 54
102 76 59
98 74 54
97 72 55
104 79 58
100 74 60
98 75 53
103 78 56
101 76 56
101 76 57
100 75 57
98 75 50
101 75 57
103 76 60
101 77 55
103 77 59
98 72 59
98 74 54
97 73 56
101 76 57
103 77 59
97 72 56
99 75 54
100 76 54
102 77 58
106 80 59
103 78 55
101 76 56
100 75 56
98 73 56
101 76 56
100 74 58
95 71 54
100 74 58
97 72 57
100 76 55
99 74 57
96 73 51
101 76 58
103 77 59
105 81 53
101 76 55
100 75 57
102 77 55
101 75 57
103 77 58
105 78 62
102 76 58
99 74 56
106 81 56
99 74 56
101 75 57
99 74 55
100 74 58
102 78 53
105 78 59
102 78 53
103 77 57
107 81 58
103 77 57
99 75 54
102 76 59
102 77 55
105 79 58
101 77 55
100 77 52
105 78 62
105 80 55
105 79 59
102 76 60
102 77 55
104 79 55
106 80 57
106 81 55
132 96 84
215 150 154
215 150 154
215 150 154
215 150 154
215 150 154
215 150 154
215 150 155
215 150 155
215 150 155
215 150 155
215 150 155
215 150 155
215 150 155
215 150 155
215 150 155
215 149 155
215 149 155
215 149 155
214 149 155
214 149 155
214 149 155
214 149 155
214 149 156
214 149 156
214 149 156
214 149 156
214 149 156
214 149 156
214 149 156
214 149 156
214 149 156
214 148 156
214 148 156
214 148 156
214 148 156
214 148 156
214 148 156
214 148 157
214 148 157
214 148 157
214 148 157
213 148 157
213 148 157
213 148 157
213 148 157
213 148 157
213 148 157
213 147 157
213 147 157
213 147 157
213 147 157
213 147 157
213 147 157
213 147 158
213 147 158
213 147 158
213 147 158
213 147 158
213 147 158
213 147 158
213 147 158
213 147 158
213 147 158
213 147 158
213 146 158
212 146 158
212 146 158
212 146 158
212 146 158
212 146 158
212 146 159
212 146 159
212 146 159
212 146 159
212 146 159
212 146 159
212 146 159
212 146 159
212 146 159
212 146 159
212 146 159
212 145 159
212 145 159
212 145 159
212 145 159
212 145 159
212 145 159
212 145 159
212 145 160
212 145 160
212 145 160
212 145 160
211 145 160
211 145 160
211 145 160
211 145 160
211 145 160
211 145 160
211 145 160
211 145 160
211 145 160
211 144 160
211 144 160
211 144 160
211 144 160
211 144 160
211 144 160
211 144 160
211 144 161
211 144 161
211 144 161
211 144 161
211 144 161
211 144 161
211 144 161
211 144 161
211 144 161
211 144 161
211 144 161
211 144 161
211 144 161
211 144 161
211 144 161
210 143 161
210 143 161
210 143 161
210 143 161
210 143 161
210 143 161
210 143 161
210 143 162
210 143 162
210 143 162
210 143 162
210 143 162
210 143 162
210 143 162
210 143 162
210 143 162
210 143 162
210 143 162
210 143 162
210 143 162
210 143 162
210 143 162
210 143 162
210 143 162
210 142 162
210 142 162
210 142 162
210 142 162
210 142 162
210 142 162
210 143 162
210 143 162
210 143 162
210 143 162
210 143 162
210 143 162
210 143 162
210 143 162
210 143 162
210 143 162
210 143 162
210 143 162
210 143 162
210 143 162
210 143 162
210 143 162
210 143 162
210 143 162
210 143 161
210 143 161
210 143 161
210 143 161
210 143 161
210 143 161
210 143 161
211 144 161
211 144 161
211 144 161
211 144 161
211 144 161
211 144 161
211 144 161
211 144 161
211 144 161
211 144 161
211 144 161
211 144 161
211 144 161
211 144 161
211 144 161
211 144 160
211 144 160
211 144 160
211 144 160
211 144 160
211 144 160
211 145 160
211 145 160
211 145 160
211 145 160
211 145 160
211 145 160
211 145 160
211 145 160
211 145 160
211 145 160
212 145 160
212 145 160
212 145 160
212 145 160
212 145 159
212 145 159
212 145 159
212 145 159
212 145 159
212 145 159
212 146 159
212 146 159
212 146 159
212 146 159
212 146 159
212 146 159
212 146 159
212 146 159
212 146 159
212 146 159
212 146 159
212 146 158
212 146 158
212 146 158
212 146 158
212 146 158
213 146 158
213 147 158
213 147 158
213 147 158
213 147 158
213 147 158
213 147 158
213 147 158
213 147 158
213 147 158
213 147 158
213 147 158
213 147 157
213 147 157
213 147 157
213 147 157
213 147 157
213 147 157
213 148 157
213 148 157
213 148 157
213 148 157
213 148 157
213 148 157
214 148 157
214 148 157
214 148 157
214 148 157
214 148 156
214 148 156
214 148 156
214 148 156
214 148 156
214 148 156
214 149 156
214 149 156
214 149 156
214 149 156
214 149 156
214 149 156
214 149 156
214 149 156
214 149 156
214 149 155
214 149 155
214 149 155
214 149 155
215 149 155
215 149 155
215 149 155
215 149 155
215 150 155
215 150 155
215 150 155
215 150 155
215 150 155
215 150 155
215 150 155
175 124 118
108 82 58
104 77 59
107 81 57
105 79 58
105 79 58
96 72 54
103 78 56
101 76 56
101 75 60
103 78 57
100 74 59
101 75 58
98 74 53
102 76 59
101 76 56
101 75 59
103 78 56
104 78 59
100 75 58
104 78 60
100 75 56
106 80 58
100 75 58
96 72 55
101 76 57
99 74 54
102 76 58
102 77 57
105 80 56
98 74 55
96 73 52
101 75 59
101 76 56
101 75 56
97 74 52
95 71 55
105 78 59
101 76 57
99 74 59
99 74 57
106 79 61
99 74 57
100 74 60
101 75 60
105 79 58
102 76 59
100 75 56
99 74 55
101 76 56
100 75 56
105 79 57
101 75 60
101 76 57
95 72 52
99 74 57
98 74 56
103 78 56
103 77 57
101 74 60
102 75 60
98 73 56
100 74 58
103 77 59
100 75 57
100 74 58
100 76 56
97 73 52
100 75 56
101 75 57
98 73 57
100 74 57
103 77 57
99 75 54
96 72 55
103 78 57
98 74 54
107 80 59
104 79 56
98 74 56
99 74 58
93 70 52
100 75 55
100 75 56
104 78 58
104 79 56
100 75 56
103 76 60
103 77 57
104 79 55
101 77 56
101 77 55
98 74 55
104 78 58
101 75 59
105 78 60
104 78 59
100 75 55
100 75 55
106 79 59
104 79 57
104 78 59
100 75 55
101 76 56
100 74 58
102 76 59
106 81 55
177 125 123
215 150 155
215 150 155
215 150 155
215 150 155
215 150 155
215 150 155
215 150 155
215 149 155
215 149 155
215 149 155
214 149 155
214 149 155
214 149 155
214 149 155
214 149 156
214 149 156
214 149 156
214 149 156
214 149 156
214 149 156
214 149 156
214 149 156
214 149 156
214 149 156
214 148 156
214 148 156
214 148 156
214 148 156
214 148 156
214 148 156
214 148 157
214 148 157
214 148 157
214 148 157
213 148 157
213 148 157
213 148 157
213 148 157
213 148 157
213 148 157
213 147 157
213 147 157
213 147 157
213 147 157
213 147 157
213 147 157
213 147 158
213 147 158
213 147 158
213 147 158
213 147 158
213 147 158
213 147 158
213 147 158
213 147 158
213 147 158
213 147 158
213 146 158
212 146 158
212 146 158
212 146 158
212 146 158
212 146 158
212 146 159
212 146 159
212 146 159
212 146 159
212 146 159
212 146 159
212 146 159
212 146 159
212 146 159
212 146 159
212 146 159
212 145 159
212 145 159
212 145 159
212 145 159
212 145 159
212 145 159
212 145 160
212 145 160
212 145 160
212 145 160
212 145 160
211 145 160
211 145 160
211 145 160
211 145 160
211 145 160
211 145 160
211 145 160
211 145 160
211 144 160
211 144 160
211 144 160
211 144 160
211 144 160
211 144 160
211 144 160
211 144 161
211 144 161
211 144 161
211 144 161
211 144 161
211 144 161
211 144 161
211 144 161
211 144 161
211 144 161
211 144 161
211 144 161
211 144 161
211 144 161
211 144 161
210 143 161
210 143 161
210 143 161
210 143 161
210 143 161
210 143 161
210 143 161
210 143 162
210 143 162
210 143 162
210 143 162
210 143 162
210 143 162
210 143 162
210 143 162
210 143 162
210 143 162
210 143 162
210 143 162
210 143 162
210 143 162
210 143 162
210 143 162
210 143 162
210 143 162
210 142 162
210 142 162
210 142 162
210 142 162
210 142 162
210 142 162
209 142 163
210 142 163
210 142 163
210 142 163
210 142 163
210 142 162
210 142 162
210 142 162
210 142 162
210 142 162
210 142 162
210 142 162
210 142 162
210 143 162
210 143 162
210 143 162
210 143 162
210 143 162
210 143 162
210 143 162
210 143 162
210 143 162
210 143 162
210 143 162
210 143 162
210 143 162
210 143 162
210 143 162
210 143 162
210 143 162
210 143 162
210 143 161
210 143 161
210 143 161
210 143 161
210 143 161
210 143 161
211 144 161
211 144 161
211 144 161
211 144 161
211 144 161
211 144 161
211 144 161
211 144 161
211 144 161
211 144 161
211 144 161
211 144 161
211 144 161
211 144 161
211 144 161
211 144 160
211 144 160
211 144 160
211 144 160
211 144 160
211 144 160
211 144 160
211 145 160
211 145 160
211 145 160
211 145 160
211 145 160
211 145 160
211 145 160
211 145 160
211 145 160
212 145 160
212 145 160
212 145 160
212 145 160
212 145 159
212 145 159
212 145 159
212 145 159
212 145 159
212 145 159
212 146 159
212 146 159
212 146 159
212 146 159
212 146 159
212 146 159
212 146 159
212 146 159
212 146 159
212 146 159
212 146 159
212 146 158
212 146 158
212 146 158
212 146 158
212 146 158
213 146 158
213 146 158
213 147 158
213 147 158
213 147 158
213 147 158
213 147 158
213 147 158
213 147 158
213 147 158
213 147 158
213 147 158
213 147 157
213 147 157
213 147 157
213 147 157
213 147 157
213 147 157
213 148 157
213 148 157
213 148 157
213 148 157
213 148 157
213 148 157
213 148 157
214 148 157
214 148 157
214 148 157
214 148 156
214 148 156
214 148 156
214 148 156
214 148 156
214 148 156
214 148 156
214 149 156
214 149 156
214 149 156
214 149 156
214 149 156
214 149 156
214 149 156
214 149 156
214 149 156
214 149 155
214 149 155
214 149 155
214 149 155
214 149 155
215 149 155
215 149 155
202 142 144
111 83 63
101 76 56
101 76 57
102 77 55
104 79 56
98 74 56
101 75 59
96 73 52
108 82 58
105 80 57
102 76 57
103 79 53
100 75 57
99 75 56
99 74 57
102 76 59
100 76 54
99 75 54
101 75 59
97 72 56
98 74 55
99 74 56
103 77 58
97 72 56
99 75 55
97 72 56
98 73 56
100 75 55
102 77 56
101 77 54
99 75 53
100 75 54
100 75 56
103 76 59
99 75 54
97 74 52
99 74 57
99 74 57
99 74 57
100 75 56
101 75 59
101 77 54
103 77 59
102 75 59
99 74 57
100 74 57
96 72 55
100 75 55
100 76 53
98 73 55
99 74 57
100 75 56
100 75 57
98 72 58
99 75 54
94 70 54
97 73 54
97 72 57
102 76 59
100 74 59
102 77 56
100 75 56
103 76 62
101 76 57
95 72 51
102 76 57
103 77 60
96 72 56
100 74 59
98 73 56
99 74 55
105 80 57
99 75 54
98 74 55
98 73 55
96 72 55
99 74 57
99 74 54
101 75 59
101 75 59
103 77 57
101 76 57
102 76 59
100 75 56
98 73 57
100 75 57
104 79 57
101 75 60
100 73 61
100 75 56
104 79 56
100 75 57
99 75 53
102 77 57
100 75 56
100 75 57
104 78 58
102 76 59
102 78 54
100 76 54
101 76 55
102 76 59
103 78 57
101 75 61
98 74 55
101 76 56
101 75 58
110 83 59
203 142 144
215 149 155
215 149 155
214 149 155
214 149 155
214 149 155
214 149 155
214 149 156
214 149 156
214 149 156
214 149 156
214 149 156
214 149 156
214 149 156
214 149 156
214 149 156
214 149 156
214 148 156
214 148 156
214 148 156
214 148 156
214 148 156
214 148 156
214 148 156
214 148 157
214 148 157
214 148 157
214 148 157
213 148 157
213 148 157
213 148 157
213 148 157
213 148 157
213 148 157
213 147 157
213 147 157
213 147 157
213 147 157
213 147 157
213 147 157
213 147 158
213 147 158
213 147 158
213 147 158
213 147 158
213 147 158
213 147 158
213 147 158
213 147 158
213 147 158
213 146 158
213 146 158
212 146 158
212 146 158
212 146 158
212 146 158
212 146 158
212 146 159
212 146 159
212 146 159
212 146 159
212 146 159
212 146 159
212 146 159
212 146 159
212 146 159
212 146 159
212 146 159
212 145 159
212 145 159
212 145 159
212 145 159
212 145 159
212 145 159
212 145 160
212 145 160
212 145 160
212 145 160
211 145 160
211 145 160
211 145 160
211 145 160
211 145 160
211 145 160
211 145 160
211 145 160
211 145 160
211 144 160
211 144 160
211 144 160
211 144 160
211 144 160
211 144 160
211 144 160
211 144 161
211 144 161
211 144 161
211 144 161
211 144 161
211 144 161
211 144 161
211 144 161
211 144 161
211 144 161
211 144 161
211 144 161
211 144 161
211 144 161
211 144 161
210 143 161
210 143 161
210 143 161
210 143 161
210 143 161
210 143 161
210 143 162
210 143 162
210 143 162
210 143 162
210 143 162
210 143 162
210 143 162
210 143 162
210 143 162
210 143 162
210 143 162
210 143 162
210 143 162
210 143 162
210 143 162
210 143 162
210 143 162
210 143 162
210 142 162
210 142 162
210 142 162
210 142 162
210 142 162
210 142 162
210 142 162
210 142 163
210 142 163
210 142 163
210 142 163
210 142 163
210 142 163
209 142 163
209 142 163
209 142 163
209 142 163
209 142 163
209 142 163
209 142 163
209 142 163
210 142 163
210 142 163
210 142 163
210 142 163
210 142 163
210 142 162
210 142 162
210 142 162
210 142 162
210 142 162
210 142 162
210 142 162
210 143 162
210 143 162
210 143 162
210 143 162
210 143 162
210 143 162
210 143 162
210 143 162
210 143 162
210 143 162
210 143 162
210 143 162
210 143 162
210 143 162
210 143 162
210 143 162
210 143 162
210 143 162
210 143 161
210 143 161
210 143 161
210 143 161
210 143 161
210 143 161
210 143 161
211 144 161
211 144 161
211 144 161
211 144 161
211 144 161
211 144 161
211 144 161
211 144 161
211 144 161
211 144 161
211 144 161
211 144 161
211 144 161
211 144 161
211 144 160
211 144 160
211 144 160
211 144 160
211 144 160
211 144 160
211 144 160
211 145 160
211 145 160
211 145 160
211 145 160
211 145 160
211 145 160
211 145 160
211 145 160
212 145 160
212 145 160
212 145 160
212 145 160
212 145 159
212 145 159
212 145 159
212 145 159
212 145 159
212 145 159
212 146 159
212 146 159
212 146 159
212 146 159
212 146 159
212 146 159
212 146 159
212 146 159
212 146 159
212 146 159
212 146 159
212 146 159
212 146 158
212 146 158
212 146 158
212 146 158
212 146 158
213 146 158
213 147 158
213 147 158
213 147 158
213 147 158
213 147 158
213 147 158
213 147 158
213 147 158
213 147 158
213 147 158
213 147 157
213 147 157
213 147 157
213 147 157
213 147 157
213 147 157
213 147 157
213 148 157
213 148 157
213 148 157
213 148 157
213 148 157
213 148 157
214 148 157
214 148 157
214 148 157
214 148 157
214 148 157
214 148 156
214 148 156
214 148 156
214 148 156
214 148 156
214 148 156
214 148 156
214 149 156
214 149 156
214 149 156
214 149 156
214 149 156
214 149 156
214 149 156
214 149 156
142 103 92
102 77 56
101 77 54
103 78 56
106 79 61
104 78 59
108 82 59
103 78 58
105 79 57
100 74 60
101 75 59
103 77 58
98 73 56
102 77 57
99 75 54
100 75 56
102 77 55
99 74 57
100 75 56
100 74 58
104 78 60
98 73 58
95 70 56
99 73 59
99 74 55
96 72 55
102 76 59
103 78 57
99 75 52
99 74 56
106 79 62
101 75 60
99 74 57
100 75 57
95 71 54
103 77 59
98 74 55
100 75 56
99 74 58
100 75 57
105 79 59
101 76 57
95 72 52
103 78 58
103 77 57
100 74 59
98 73 56
100 75 56
97 72 56
97 72 56
100 75 55
96 71 56
99 74 56
100 74 57
100 75 56
103 76 61
102 76 60
101 75 59
98 72 58
98 73 55
93 70 51
101 74 61
101 76 57
99 74 55
105 78 60
101 75 58
99 75 53
97 73 54
99 73 58
101 75 59
101 76 58
103 77 60
95 71 55
96 71 57
96 72 55
98 74 54
96 73 52
99 75 53
101 75 60
101 76 55
96 72 55
101 76 57
99 74 56
100 76 53
103 77 59
100 75 57
98 73 56
100 75 56
98 74 55
102 77 57
102 78 55
100 76 55
101 75 59
103 77 59
101 76 58
99 75 55
103 77 57
99 76 51
104 78 60
103 78 55
101 76 56
102 75 60
98 73 57
103 77 59
105 79 58
106 79 60
100 75 54
102 77 56
102 76 58
140 102 88
214 149 156
214 149 156
214 149 156
214 149 156
214 149 156
214 149 156
214 149 156
214 149 156
214 149 156
214 148 156
214 148 156
214 148 156
214 148 156
214 148 156
214 148 156
214 148 156
214 148 157
214 148 157
214 148 157
213 148 157
213 148 157
213 148 157
213 148 157
213 148 157
213 148 157
213 148 157
213 147 157
213 147 157
213 147 157
213 147 157
213 147 157
213 147 157
213 147 158
213 147 158
213 147 158
213 147 158
213 147 158
213 147 158
213 147 158
213 147 158
213 147 158
213 147 158
213 147 158
213 146 158
212 146 158
212 146 158
212 146 158
212 146 158
212 146 158
212 146 159
212 146 159
212 146 159
212 146 159
212 146 159
212 146 159
212 146 159
212 146 159
212 146 159
212 146 159
212 146 159
212 145 159
212 145 159
212 145 159
212 145 159
212 145 159
212 145 159
212 145 159
212 145 160
212 145 160
212 145 160
212 145 160
211 145 160
211 145 160
211 145 160
211 145 160
211 145 160
211 145 160
211 145 160
211 145 160
211 145 160
211 144 160
211 144 160
211 144 160
211 144 160
211 144 160
211 144 160
211 144 161
211 144 161
211 144 161
211 144 161
211 144 161
211 144 161
211 144 161
211 144 161
211 144 161
211 144 161
211 144 161
211 144 161
211 144 161
211 144 161
210 143 161
210 143 161
210 143 161
210 143 161
210 143 161
210 143 161
210 143 161
210 143 161
210 143 162
210 143 162
210 143 162
210 143 162
210 143 162
210 143 162
210 143 162
210 143 162
210 143 162
210 143 162
210 143 162
210 143 162
210 143 162
210 143 162
210 143 162
210 143 162
210 143 162
210 142 162
210 142 162
210 142 162
210 142 162
210 142 162
210 142 162
210 142 162
210 142 163
210 142 163
210 142 163
210 142 163
210 142 163
209 142 163
209 142 163
209 142 163
209 142 163
209 142 163
209 142 163
209 142 163
209 142 163
209 142 163
209 142 163
209 142 163
209 142 163
209 142 163
209 142 163
209 142 163
209 142 163
209 142 163
209 142 163
209 142 163
209 142 163
209 142 163
209 142 163
209 142 163
209 142 163
210 142 163
210 142 163
210 142 163
210 142 163
210 142 162
210 142 162
210 142 162
210 142 162
210 142 162
210 142 162
210 142 162
210 143 162
210 143 162
210 143 162
210 143 162
210 143 162
210 143 162
210 143 162
210 143 162
210 143 162
210 143 162
210 143 162
210 143 162
210 143 162
210 143 162
210 143 162
210 143 162
210 143 162
210 143 161
210 143 161
210 143 161
210 143 161
210 143 161
210 143 161
210 143 161
211 144 161
211 144 161
211 144 161
211 144 161
211 144 161
211 144 161
211 144 161
211 144 161
211 144 161
211 144 161
211 144 161
211 144 161
211 144 161
211 144 161
211 144 161
211 144 160
211 144 160
211 144 160
211 144 160
211 144 160
211 144 160
211 145 160
211 145 160
211 145 160
211 145 160
211 145 160
211 145 160
211 145 160
211 145 160
211 145 160
212 145 160
212 145 160
212 145 160
212 145 160
212 145 159
212 145 159
212 145 159
212 145 159
212 145 159
212 145 159
212 146 159
212 146 159
212 146 159
212 146 159
212 146 159
212 146 159
212 146 159
212 146 159
212 146 159
212 146 159
212 146 159
212 146 158
212 146 158
212 146 158
212 146 158
212 146 158
213 146 158
213 146 158
213 147 158
213 147 158
213 147 158
213 147 158
213 147 158
213 147 158
213 147 158
213 147 158
213 147 158
213 147 158
213 147 157
213 147 157
213 147 157
213 147 157
213 147 157
213 147 157
213 147 157
213 148 157
213 148 157
213 148 157
213 148 157
213 148 157
213 148 157
214 148 157
214 148 157
214 148 157
214 148 157
214 148 157
214 148 156
214 148 156
214 148 156
214 148 156
214 148 156
214 148 156
214 148 156
188 132 135
107 81 58
105 79 58
105 78 61
101 76 56
99 76 52
103 78 58
103 77 59
100 75 57
100 76 56
100 75 57
96 72 54
105 78 61
102 76 59
102 76 59
96 72 54
96 72 54
101 75 58
102 76 58
99 74 57
100 76 55
103 77 58
99 73 60
97 72 57
98 73 56
101 76 56
103 77 58
96 72 56
102 77 57
98 72 57
99 74 55
98 73 57
102 76 58
102 77 56
97 73 55
95 70 56
91 67 53
96 71 55
101 76 54
100 73 60
98 73 56
102 77 56
99 73 57
98 73 56
97 74 52
96 71 57
99 73 58
95 71 53
94 70 52
98 74 54
97 72 57
103 77 58
102 76 59
97 73 54
98 74 55
101 77 55
103 78 56
100 74 58
101 76 57
99 75 53
98 73 57
100 75 58
98 74 54
95 70 58
98 74 54
93 69 55
98 72 59
102 78 54
101 75 58
99 74 57
100 75 56
98 72 58
96 72 53
101 76 55
94 69 57
100 75 55
97 72 57
102 77 57
97 71 58
103 77 60
102 76 58
99 75 54
103 77 59
100 75 57
97 74 52
100 75 59
99 74 59
104 78 59
101 76 57
96 72 54
97 73 54
101 75 59
97 73 55
102 76 57
102 77 57
98 72 59
98 73 55
100 74 59
103 77 58
98 74 55
103 78 57
100 75 58
99 74 55
99 74 56
102 77 55
104 78 58
101 76 56
102 76 58
104 78 59
103 78 57
102 77 54
182 129 127
214 148 156
214 148 156
214 148 156
214 148 156
214 148 156
214 148 156
214 148 156
214 148 157
214 148 157
214 148 157
214 148 157
214 148 157
213 148 157
213 148 157
213 148 157
213 148 157
213 148 157
213 148 157
213 147 157
213 147 157
213 147 157
213 147 157
213 147 157
213 147 157
213 147 158
213 147 158
213 147 158
213 147 158
213 147 158
213 147 158
213 147 158
213 147 158
213 147 158
213 147 158
213 147 158
213 146 158
213 146 158
212 146 158
212 146 158
212 146 158
212 146 158
212 146 159
212 146 159
212 146 159
212 146 159
212 146 159
212 146 159
212 146 159
212 146 159
212 146 159
212 146 159
212 146 159
212 146 159
212 145 159
212 145 159
212 145 159
212 145 159
212 145 159
212 145 159
212 145 160
212 145 160
212 145 160
212 145 160
211 145 160
211 145 160
211 145 160
211 145 160
211 145 160
211 145 160
211 145 160
211 145 160
211 145 160
211 144 160
211 144 160
211 144 160
211 144 160
211 144 160
211 144 160
211 144 161
211 144 161
211 144 161
211 144 161
211 144 161
211 144 161
211 144 161
211 144 161
211 144 161
211 144 161
211 144 161
211 144 161
211 144 161
211 144 161
211 144 161
210 143 161
210 143 161
210 143 161
210 143 161
210 143 161
210 143 161
210 143 161
210 143 162
210 143 162
210 143 162
210 143 162
210 143 162
210 143 162
210 143 162
210 143 162
210 143 162
210 143 162
210 143 162
210 143 162
210 143 162
210 143 162
210 143 162
210 143 162
210 142 162
210 142 162
210 142 162
210 142 162
210 142 162
210 142 162
210 142 162
210 142 162
210 142 163
210 142 163
210 142 163
210 142 163
209 142 163
209 142 163
209 142 163
209 142 163
209 142 163
209 142 163
209 142 163
209 142 163
209 142 163
209 142 163
209 142 163
209 142 163
209 142 163
209 142 163
209 142 163
209 142 163
209 141 163
209 141 163
209 141 163
209 141 163
209 141 163
209 141 163
209 141 163
209 141 163
209 142 163
209 142 163
209 142 163
209 142 163
209 142 163
209 142 163
209 142 163
209 142 163
209 142 163
209 142 163
209 142 163
209 142 163
209 142 163
209 142 163
209 142 163
210 142 163
210 142 163
210 142 163
210 142 163
210 142 163
210 142 162
210 142 162
210 142 162
210 142 162
210 142 162
210 142 162
210 142 162
210 143 162
210 143 162
210 143 162
210 143 162
210 143 162
210 143 162
210 143 162
210 143 162
210 143 162
210 143 162
210 143 162
210 143 162
210 143 162
210 143 162
210 143 162
210 143 162
210 143 162
210 143 161
210 143 161
210 143 161
210 143 161
210 143 161
210 143 161
211 144 161
211 144 161
211 144 161
211 144 161
211 144 161
211 144 161
211 144 161
211 144 161
211 144 161
211 144 161
211 144 161
211 144 161
211 144 161
211 144 161
211 144 161
211 144 160
211 144 160
211 144 160
211 144 160
211 144 160
211 144 160
211 145 160
211 145 160
211 145 160
211 145 160
211 145 160
211 145 160
211 145 160
211 145 160
211 145 160
212 145 160
212 145 160
212 145 160
212 145 160
212 145 159
212 145 159
212 145 159
212 145 159
212 145 159
212 145 159
212 146 159
212 146 159
212 146 159
212 146 159
212 146 159
212 146 159
212 146 159
212 146 159
212 146 159
212 146 159
212 146 159
212 146 158
212 146 158
212 146 158
212 146 158
212 146 158
213 146 158
213 146 158
213 147 158
213 147 158
213 147 158
213 147 158
213 147 158
213 147 158
213 147 158
213 147 158
213 147 158
213 147 158
213 147 158
213 147 157
213 147 157
213 147 157
213 147 157
213 147 157
213 147 157
213 147 157
213 148 157
213 148 157
213 148 157
213 148 157
213 148 157
213 148 157
213 148 157
214 148 157
214 148 157
212 147 155
117 86 72
106 79 61
102 76 59
100 75 57
99 74 55
101 76 56
103 77 60
98 73 55
101 76 56
103 78 58
102 76 60
101 76 55
98 72 58
100 75 57
102 77 55
100 75 56
99 74 58
98 74 54
100 75 56
105 79 59
100 74 59
96 73 52
100 77 52
101 75 57
100 75 56
101 75 57
101 75 58
100 75 57
100 75 56
97 72 55
97 73 55
99 74 57
96 72 55
96 73 53
97 73 55
103 77 58
103 77 60
97 73 55
104 78 57
98 73 56
92 67 57
103 76 62
98 74 54
99 74 57
99 75 55
94 69 58
103 77 59
100 73 60
98 73 57
98 74 53
100 76 54
103 77 60
93 69 55
97 71 59
99 75 52
99 73 60
97 73 55
100 74 58
100 75 58
101 76 57
96 71 57
100 74 57
97 72 56
95 71 54
96 71 56
102 76 58
101 75 58
97 74 53
96 72 52
97 73 57
98 74 53
99 74 58
98 73 58
98 73 56
95 71 55
101 76 57
96 72 54
102 77 56
93 70 52
100 76 53
95 70 57
99 74 56
99 73 59
98 73 57
98 73 55
99 74 57
97 72 56
96 71 56
99 73 59
97 73 56
103 77 59
102 76 58
101 76 57
99 75 53
95 70 57
101 76 57
100 75 56
94 71 53
96 72 56
99 74 55
101 77 54
97 72 55
101 75 58
100 75 58
102 77 58
97 73 54
99 74 55
99 74 59
103 77 59
100 74 58
104 79 58
117 86 70
212 147 154
214 148 157
214 148 157
214 148 157
213 148 157
213 148 157
213 148 157
213 148 157
213 148 157
213 148 157
213 148 157
213 147 157
213 147 157
213 147 157
213 147 157
213 147 157
213 147 157
213 147 158
213 147 158
213 147 158
213 147 158
213 147 158
213 147 158
213 147 158
213 147 158
213 147 158
213 147 158
213 147 158
213 146 158
213 146 158
212 146 158
212 146 158
212 146 158
212 146 158
212 146 158
212 146 159
212 146 159
212 146 159
212 146 159
212 146 159
212 146 159
212 146 159
212 146 159
212 146 159
212 146 159
212 146 159
212 146 159
212 145 159
212 145 159
212 145 159
212 145 159
212 145 159
212 145 160
212 145 160
212 145 160
212 145 160
211 145 160
211 145 160
211 145 160
211 145 160
211 145 160
211 145 160
211 145 160
211 145 160
211 145 160
211 144 160
211 144 160
211 144 160
211 144 160
211 144 160
211 144 160
211 144 161
211 144 161
211 144 161
211 144 161
211 144 161
211 144 161
211 144 161
211 144 161
211 144 161
211 144 161
211 144 161
211 144 161
211 144 161
211 144 161
211 144 161
210 143 161
210 143 161
210 143 161
210 143 161
210 143 161
210 143 161
210 143 161
210 143 162
210 143 162
210 143 162
210 143 162
210 143 162
210 143 162
210 143 162
210 143 162
210 143 162
210 143 162
210 143 162
210 143 162
210 143 162
210 143 162
210 143 162
210 143 162
210 142 162
210 142 162
210 142 162
210 142 162
210 142 162
210 142 162
210 142 162
210 142 163
210 142 163
210 142 163
210 142 163
210 142 163
209 142 163
209 142 163
209 142 163
209 142 163
209 142 163
209 142 163
209 142 163
209 142 163
209 142 163
209 142 163
209 142 163
209 142 163
209 142 163
209 142 163
209 142 163
209 141 163
209 141 163
209 141 163
209 141 163
209 141 163
209 141 163
209 141 163
209 141 163
209 141 164
209 141 164
209 141 164
209 141 164
209 141 164
209 141 164
209 141 164
209 141 164
209 141 163
209 141 163
209 141 163
209 141 163
209 141 163
209 141 163
209 141 163
209 142 163
209 142 163
209 142 163
209 142 163
209 142 163
209 142 163
209 142 163
209 142 163
209 142 163
209 142 163
209 142 163
209 142 163
209 142 163
209 142 163
209 142 163
209 142 163
210 142 163
210 142 163
210 142 163
210 142 163
210 142 163
210 142 162
210 142 162
210 142 162
210 142 162
210 142 162
210 142 162
210 143 162
210 143 162
210 143 162
210 143 162
210 143 162
210 143 162
210 143 162
210 143 162
210 143 162
210 143 162
210 143 162
210 143 162
210 143 162
210 143 162
210 143 162
210 143 162
210 143 162
210 143 161
210 143 161
210 143 161
210 143 161
210 143 161
210 143 161
211 144 161
211 144 161
211 144 161
211 144 161
211 144 161
211 144 161
211 144 161
211 144 161
211 144 161
211 144 161
211 144 161
211 144 161
211 144 161
211 144 161
211 144 160
211 144 160
211 144 160
211 144 160
211 144 160
211 144 160
211 144 160
211 145 160
211 145 160
211 145 160
211 145 160
211 145 160
211 145 160
211 145 160
211 145 160
211 145 160
212 145 160
212 145 160
212 145 160
212 145 159
212 145 159
212 145 159
212 145 159
212 145 159
212 145 159
212 145 159
212 146 159
212 146 159
212 146 159
212 146 159
212 146 159
212 146 159
212 146 159
212 146 159
212 146 159
212 146 159
212 146 159
212 146 158
212 146 158
212 146 158
212 146 158
212 146 158
213 146 158
213 146 158
213 147 158
213 147 158
213 147 158
213 147 158
213 147 158
213 147 158
213 147 158
213 147 158
213 147 158
213 147 158
213 147 158
213 147 158
213 147 157
213 147 157
213 147 157
213 147 157
213 147 157
213 147 157
213 147 157
213 148 157
158 112 107
106 82 54
103 77 59
98 74 53
102 76 58
101 76 56
103 76 60
100 74 57
102 76 58
99 74 56
100 74 58
102 77 55
101 76 57
99 75 55
99 75 54
98 73 55
100 75 55
97 73 54
99 73 58
97 72 56
102 77 55
99 75 55
101 75 60
102 76 60
96 70 59
101 76 56
102 76 59
97 72 54
99 75 55
98 73 59
99 73 58
98 73 57
97 72 55
97 73 55
99 75 55
96 73 53
102 76 58
98 74 53
99 74 57
99 75 56
99 75 55
102 77 58
100 75 55
99 73 58
102 76 60
98 75 52
101 76 55
89 66 53
98 73 56
99 74 58
100 75 56
99 74 56
100 75 57
99 74 55
102 76 59
95 71 55
95 72 51
99 75 54
92 69 52
93 70 53
98 73 57
98 74 55
93 70 53
96 71 57
99 74 58
97 72 58
97 72 56
98 73 58
100 75 55
97 73 53
101 75 59
94 70 56
97 73 53
98 73 57
94 70 55
102 77 58
97 71 59
99 73 57
99 74 56
100 74 59
95 70 55
98 73 57
99 74 59
102 76 60
98 74 54
100 75 57
100 75 58
100 74 58
97 72 56
101 75 57
103 78 58
96 71 58
98 72 59
100 74 58
92 69 52
98 72 60
100 75 56
100 75 57
99 76 53
101 75 58
102 76 57
98 73 56
101 75 57
105 79 61
98 73 57
102 76 59
101 76 56
96 71 56
101 75 58
101 75 61
100 74 58
98 74 54
99 75 56
162 114 114
213 148 157
213 147 157
213 147 157
213 147 157
213 147 157
213 147 157
213 147 157
213 147 157
213 147 158
213 147 158
213 147 158
213 147 158
213 147 158
213 147 158
213 147 158
213 147 158
213 147 158
213 147 158
213 147 158
213 147 158
213 146 158
213 146 158
212 146 158
212 146 158
212 146 158
212 146 158
212 146 159
212 146 159
212 146 159
212 146 159
212 146 159
212 146 159
212 146 159
212 146 159
212 146 159
212 146 159
212 146 159
212 146 159
212 145 159
212 145 159
212 145 159
212 145 159
212 145 159
212 145 159
212 145 159
212 145 160
212 145 160
212 145 160
212 145 160
211 145 160
211 145 160
211 145 160
211 145 160
211 145 160
211 145 160
211 145 160
211 145 160
211 144 160
211 144 160
211 144 160
211 144 160
211 144 160
211 144 160
211 144 160
211 144 161
211 144 161
211 144 161
211 144 161
211 144 161
211 144 161
211 144 161
211 144 161
211 144 161
211 144 161
211 144 161
211 144 161
211 144 161
210 143 161
210 143 161
210 143 161
210 143 161
210 143 161
210 143 161
210 143 161
210 143 162
210 143 162
210 143 162
210 143 162
210 143 162
210 143 162
210 143 162
210 143 162
210 143 162
210 143 162
210 143 162
210 143 162
210 143 162
210 143 162
210 143 162
210 143 162
210 142 162
210 142 162
210 142 162
210 142 162
210 142 162
210 142 162
210 142 162
210 142 162
210 142 163
210 142 163
210 142 163
210 142 163
209 142 163
209 142 163
209 142 163
209 142 163
209 142 163
209 142 163
209 142 163
209 142 163
209 142 163
209 142 163
209 142 163
209 142 163
209 142 163
209 142 163
209 142 163
209 141 163
209 141 163
209 141 163
209 141 163
209 141 163
209 141 163
209 141 163
209 141 163
209 141 164
209 141 164
209 141 164
209 141 164
209 141 164
209 141 164
209 141 164
209 141 164
209 141 164
209 141 164
209 141 164
209 141 164
209 141 164
209 141 164
209 141 164
209 141 164
209 141 164
209 141 164
209 141 164
209 141 164
209 141 164
209 141 164
209 141 164
209 141 164
209 141 163
209 141 163
209 141 163
209 141 163
209 141 163
209 141 163
209 141 163
209 141 163
209 142 163
209 142 163
209 142 163
209 142 163
209 142 163
209 142 163
209 142 163
209 142 163
209 142 163
209 142 163
209 142 163
209 142 163
209 142 163
209 142 163
210 142 163
210 142 163
210 142 163
210 142 163
210 142 163
210 142 162
210 142 162
210 142 162
210 142 162
210 142 162
210 142 162
210 142 162
210 143 162
210 143 162
210 143 162
210 143 162
210 143 162
210 143 162
210 143 162
210 143 162
210 143 162
210 143 162
210 143 162
210 143 162
210 143 162
210 143 162
210 143 162
210 143 162
210 143 162
210 143 161
210 143 161
210 143 161
210 143 161
210 143 161
210 143 161
211 144 161
211 144 161
211 144 161
211 144 161
211 144 161
211 144 161
211 144 161
211 144 161
211 144 161
211 144 161
211 144 161
211 144 161
211 144 161
211 144 161
211 144 160
211 144 160
211 144 160
211 144 160
211 144 160
211 144 160
211 145 160
211 145 160
211 145 160
211 145 160
211 145 160
211 145 160
211 145 160
211 145 160
211 145 160
212 145 160
212 145 160
212 145 160
212 145 160
212 145 159
212 145 159
212 145 159
212 145 159
212 145 159
212 145 159
212 146 159
212 146 159
212 146 159
212 146 159
212 146 159
212 146 159
212 146 159
212 146 159
212 146 159
212 146 159
212 146 159
212 146 159
212 146 158
212 146 158
212 146 158
212 146 158
212 146 158
213 146 158
213 146 158
213 147 158
213 147 158
213 147 158
213 147 158
213 147 158
213 147 158
213 147 158
213 147 158
213 147 158
213 147 158
213 147 158
203 141 149
104 77 63
100 75 57
101 76 57
97 73 54
102 76 59
105 79 58
101 75 59
95 71 54
99 74 57
96 72 55
103 78 55
101 75 58
100 75 56
103 78 55
98 73 58
97 71 58
97 72 55
99 73 60
97 73 52
98 73 55
97 73 54
99 75 55
98 73 56
100 76 53
99 74 57
97 73 54
96 71 57
94 71 51
97 72 56
103 78 55
96 72 54
103 76 60
97 72 55
96 72 55
92 68 53
100 74 58
101 76 56
102 76 59
98 73 58
97 73 56
101 75 59
104 78 58
100 74 59
101 74 61
94 71 52
99 74 57
98 72 60
95 71 54
100 75 56
102 77 56
98 72 59
93 70 51
100 75 56
99 74 55
98 74 54
96 71 56
99 74 56
100 74 58
100 74 59
95 71 56
95 72 53
100 75 57
95 70 55
96 72 55
96 71 56
98 74 56
99 74 57
98 74 55
97 72 59
93 70 54
96 71 57
96 72 54
96 72 54
99 73 58
101 75 60
95 71 55
96 72 55
96 71 56
99 74 57
92 68 55
99 73 59
98 74 55
94 71 51
99 75 55
99 74 57
94 70 54
102 75 60
100 74 57
104 76 64
99 75 53
99 74 58
100 75 57
99 75 54
101 76 57
97 74 53
99 75 55
96 70 59
103 77 60
101 75 58
100 74 60
100 75 56
99 74 56
98 73 56
100 75 57
99 74 56
99 75 53
97 73 53
100 75 57
104 78 59
100 74 60
105 79 57
103 77 58
98 74 55
108 81 62
206 143 151
213 147 158
213 147 158
213 147 158
213 147 158
213 147 158
213 147 158
213 147 158
213 147 158
213 147 158
213 147 158
213 147 158
213 146 158
213 146 158
212 146 158
212 146 158
212 146 158
212 146 158
212 146 158
212 146 159
212 146 159
212 146 159
212 146 159
212 146 159
212 146 159
212 146 159
212 146 159
212 146 159
212 146 159
212 146 159
212 146 159
212 145 159
212 145 159
212 145 159
212 145 159
212 145 159
212 145 159
212 145 160
212 145 160
212 145 160
212 145 160
211 145 160
211 145 160
211 145 160
211 145 160
211 145 160
211 145 160
211 145 160
211 145 160
211 145 160
211 144 160
211 144 160
211 144 160
211 144 160
211 144 160
211 144 160
211 144 161
211 144 161
211 144 161
211 144 161
211 144 161
211 144 161
211 144 161
211 144 161
211 144 161
211 144 161
211 144 161
211 144 161
211 144 161
211 144 161
211 144 161
210 143 161
210 143 161
210 143 161
210 143 161
210 143 161
210 143 162
210 143 162
210 143 162
210 143 162
210 143 162
210 143 162
210 143 162
210 143 162
210 143 162
210 143 162
210 143 162
210 143 162
210 143 162
210 143 162
210 143 162
210 143 162
210 143 162
210 142 162
210 142 162
210 142 162
210 142 162
210 142 162
210 142 162
210 142 162
210 142 163
210 142 163
210 142 163
210 142 163
209 142 163
209 142 163
209 142 163
209 142 163
209 142 163
209 142 163
209 142 163
209 142 163
209 142 163
209 142 163
209 142 163
209 142 163
209 142 163
209 142 163
209 142 163
209 141 163
209 141 163
209 141 163
209 141 163
209 141 163
209 141 163
209 141 163
209 141 163
209 141 164
209 141 164
209 141 164
209 141 164
209 141 164
209 141 164
209 141 164
209 141 164
209 141 164
209 141 164
209 141 164
209 141 164
209 141 164
209 141 164
209 141 164
209 141 164
208 140 164
208 141 164
208 141 164
208 141 164
209 141 164
209 141 164
209 141 164
209 141 164
209 141 164
209 141 164
209 141 164
209 141 164
209 141 164
209 141 164
209 141 164
209 141 164
209 141 164
209 141 164
209 141 164
209 141 164
209 141 164
209 141 164
209 141 164
209 141 164
209 141 164
209 141 163
209 141 163
209 141 163
209 141 163
209 141 163
209 141 163
209 141 163
209 142 163
209 142 163
209 142 163
209 142 163
209 142 163
209 142 163
209 142 163
209 142 163
209 142 163
209 142 163
209 142 163
209 142 163
209 142 163
209 142 163
209 142 163
210 142 163
210 142 163
210 142 163
210 142 163
210 142 162
210 142 162
210 142 162
210 142 162
210 142 162
210 142 162
210 142 162
210 143 162
210 143 162
210 143 162
210 143 162
210 143 162
210 143 162
210 143 162
210 143 162
210 143 162
210 143 162
210 143 162
210 143 162
210 143 162
210 143 162
210 143 162
210 143 161
210 143 161
210 143 161
210 143 161
210 143 161
210 143 161
210 143 161
211 144 161
211 144 161
211 144 161
211 144 161
211 144 161
211 144 161
211 144 161
211 144 161
211 144 161
211 144 161
211 144 161
211 144 161
211 144 161
211 144 161
211 144 160
211 144 160
211 144 160
211 144 160
211 144 160
211 144 160
211 145 160
211 145 160
211 145 160
211 145 160
211 145 160
211 145 160
211 145 160
211 145 160
211 145 160
212 145 160
212 145 160
212 145 160
212 145 160
212 145 160
212 145 159
212 145 159
212 145 159
212 145 159
212 145 159
212 145 159
212 146 159
212 146 159
212 146 159
212 146 159
212 146 159
212 146 159
212 146 159
212 146 159
212 146 159
212 146 159
212 146 159
212 146 159
212 146 159
212 146 158
212 146 158
212 146 158
212 146 158
212 146 158
213 146 158
213 147 158
213 147 158
213 147 158
152 109 102
101 75 59
100 75 57
101 75 60
99 75 54
98 74 56
102 75 60
97 73 54
100 75 56
101 76 54
96 71 56
99 75 54
96 73 53
95 70 56
96 72 57
95 71 54
99 74 56
102 76 60
100 74 60
100 75 56
101 76 57
101 76 56
96 72 55
100 74 59
98 73 58
101 75 60
96 71 57
91 68 50
97 72 57
101 76 58
99 73 57
101 74 62
100 74 58
101 74 61
101 77 54
93 69 54
98 74 56
93 69 55
97 72 56
96 71 56
93 70 52
96 71 57
102 76 59
96 71 56
97 72 56
98 73 57
92 68 53
100 75 56
96 72 56
102 76 58
93 71 50
93 70 52
96 70 60
103 77 59
100 75 58
100 75 57
96 72 55
98 73 57
99 75 54
96 72 56
100 73 61
99 74 56
95 71 54
98 72 58
92 69 53
93 71 50
99 74 55
101 75 58
94 70 54
96 71 58
97 72 55
96 71 56
94 70 55
95 69 58
99 74 57
96 71 56
101 74 60
95 71 55
101 76 57
99 73 59
99 73 60
96 71 59
97 73 53
94 70 54
100 75 56
95 70 56
100 75 57
101 75 59
96 72 53
97 73 54
95 71 52
101 76 56
102 78 54
96 72 55
99 74 57
98 73 58
98 74 55
99 73 60
98 73 55
100 74 58
94 71 52
99 74 58
100 74 58
95 71 54
100 74 59
98 73 56
101 75 61
101 75 59
100 75 56
101 76 57
97 72 57
99 75 56
98 74 55
101 76 58
102 77 53
152 109 99
213 147 158
213 147 158
213 146 158
213 146 158
212 146 158
212 146 158
212 146 158
212 146 158
212 146 158
212 146 158
212 146 159
212 146 159
212 146 159
212 146 159
212 146 159
212 146 159
212 146 159
212 146 159
212 146 159
212 146 159
212 146 159
212 146 159
212 145 159
212 145 159
212 145 159
212 145 159
212 145 159
212 145 159
212 145 159
212 145 160
212 145 160
212 145 160
211 145 160
211 145 160
211 145 160
211 145 160
211 145 160
211 145 160
211 145 160
211 145 160
211 145 160
211 144 160
211 144 160
211 144 160
211 144 160
211 144 160
211 144 160
211 144 160
211 144 161
211 144 161
211 144 161
211 144 161
211 144 161
211 144 161
211 144 161
211 144 161
211 144 161
211 144 161
211 144 161
211 144 161
211 144 161
210 143 161
210 143 161
210 143 161
210 143 161
210 143 161
210 143 161
210 143 161
210 143 162
210 143 162
210 143 162
210 143 162
210 143 162
210 143 162
210 143 162
210 143 162
210 143 162
210 143 162
210 143 162
210 143 162
210 143 162
210 143 162
210 143 162
210 143 162
210 142 162
210 142 162
210 142 162
210 142 162
210 142 162
210 142 162
210 142 162
210 142 163
210 142 163
210 142 163
210 142 163
210 142 163
209 142 163
209 142 163
209 142 163
209 142 163
209 142 163
209 142 163
209 142 163
209 142 163
209 142 163
209 142 163
209 142 163
209 142 163
209 142 163
209 142 163
209 141 163
209 141 163
209 141 163
209 141 163
209 141 163
209 141 163
209 141 163
209 141 164
209 141 164
209 141 164
209 141 164
209 141 164
209 141 164
209 141 164
209 141 164
209 141 164
209 141 164
209 141 164
209 141 164
209 141 164
209 141 164
209 141 164
209 141 164
209 141 164
209 141 164
209 141 164
209 141 164
209 141 164
208 141 164
208 141 164
208 140 164
208 140 164
208 140 165
208 140 165
208 140 164
208 140 164
208 140 164
208 140 164
208 140 164
208 140 164
208 140 164
208 140 164
208 141 164
208 141 164
208 141 164
209 141 164
209 141 164
209 141 164
209 141 164
209 141 164
209 141 164
209 141 164
209 141 164
209 141 164
209 141 164
209 141 164
209 141 164
209 141 164
209 141 164
209 141 164
209 141 164
209 141 164
209 141 164
209 141 164
209 141 164
209 141 163
209 141 163
209 141 163
209 141 163
209 141 163
209 141 163
209 141 163
209 142 163
209 142 163
209 142 163
209 142 163
209 142 163
209 142 163
209 142 163
209 142 163
209 142 163
209 142 163
209 142 163
209 142 163
209 142 163
209 142 163
209 142 163
210 142 163
210 142 163
210 142 163
210 142 163
210 142 162
210 142 162
210 142 162
210 142 162
210 142 162
210 142 162
210 143 162
210 143 162
210 143 162
210 143 162
210 143 162
210 143 162
210 143 162
210 143 162
210 143 162
210 143 162
210 143 162
210 143 162
210 143 162
210 143 162
210 143 162
210 143 162
210 143 162
210 143 161
210 143 161
210 143 161
210 143 161
210 143 161
210 143 161
211 144 161
211 144 161
211 144 161
211 144 161
211 144 161
211 144 161
211 144 161
211 144 161
211 144 161
211 144 161
211 144 161
211 144 161
211 144 161
211 144 161
211 144 160
211 144 160
211 144 160
211 144 160
211 144 160
211 144 160
211 144 160
211 145 160
211 145 160
211 145 160
211 145 160
211 145 160
211 145 160
211 145 160
211 145 160
212 145 160
212 145 160
212 145 160
212 145 160
212 145 160
212 145 159
212 145 159
212 145 159
212 145 159
212 145 159
212 145 159
212 145 159
212 146 159
212 146 159
212 146 159
212 146 159
212 146 159
212 146 159
212 146 159
212 146 159
212 146 159
212 146 159
212 146 159
212 146 159
204 141 150
101 77 55
99 74 55
96 72 55
97 73 53
95 72 51
97 72 58
98 74 55
99 73 58
101 75 59
100 75 58
101 76 57
96 71 55
97 72 55
99 74 57
100 75 57
96 73 52
95 71 54
100 74 58
98 74 54
97 73 53
100 74 58
98 73 57
98 73 58
99 74 54
99 74 56
101 75 57
99 74 57
97 74 53
94 71 53
96 71 56
95 71 54
96 71 58
98 73 55
97 72 55
92 69 51
96 72 54
96 72 56
96 71 56
98 72 59
100 73 61
97 72 58
96 72 55
96 72 53
101 76 57
95 72 54
95 70 58
98 73 55
97 73 54
101 75 58
97 73 53
92 68 53
96 72 55
101 75 58
94 70 54
95 72 52
93 68 55
99 73 59
99 73 59
99 74 56
100 74 59
100 75 57
96 71 59
99 75 54
99 74 55
93 69 55
98 73 57
98 73 59
97 73 55
103 77 59
97 72 55
98 74 54
97 73 55
100 75 55
100 74 59
98 73 59
96 72 55
94 70 56
98 73 57
100 74 58
97 72 55
96 71 55
98 72 59
100 75 55
95 71 54
97 72 57
98 74 56
96 71 57
97 73 55
93 70 52
100 74 60
99 74 57
91 68 51
99 74 56
92 68 56
98 73 56
97 73 55
101 75 59
104 77 60
104 78 60
101 75 59
97 72 56
99 74 55
98 73 55
100 75 55
94 71 52
95 71 54
99 74 57
96 72 55
99 74 58
96 72 55
98 74 56
103 77 58
101 76 57
104 78 59
103 77 60
107 79 63
206 142 152
212 146 159
212 146 159
212 146 159
212 146 159
212 146 159
212 146 159
212 146 159
212 146 159
212 146 159
212 146 159
212 146 159
212 146 159
212 146 159
212 145 159
212 145 159
212 145 159
212 145 159
212 145 159
212 145 159
212 145 160
212 145 160
212 145 160
212 145 160
212 145 160
211 145 160
211 145 160
211 145 160
211 145 160
211 145 160
211 145 160
211 145 160
211 145 160
211 145 160
211 144 160
211 144 160
211 144 160
211 144 160
211 144 160
211 144 160
211 144 161
211 144 161
211 144 161
211 144 161
211 144 161
211 144 161
211 144 161
211 144 161
211 144 161
211 144 161
211 144 161
211 144 161
211 144 161
211 144 161
210 143 161
210 143 161
210 143 161
210 143 161
210 143 161
210 143 161
210 143 161
210 143 162
210 143 162
210 143 162
210 143 162
210 143 162
210 143 162
210 143 162
210 143 162
210 143 162
210 143 162
210 143 162
210 143 162
210 143 162
210 143 162
210 143 162
210 142 162
210 142 162
210 142 162
210 142 162
210 142 162
210 142 162
210 142 162
210 142 163
210 142 163
210 142 163
210 142 163
209 142 163
209 142 163
209 142 163
209 142 163
209 142 163
209 142 163
209 142 163
209 142 163
209 142 163
209 142 163
209 142 163
209 142 163
209 142 163
209 142 163
209 142 163
209 141 163
209 141 163
209 141 163
209 141 163
209 141 163
209 141 163
209 141 163
209 141 164
209 141 164
209 141 164
209 141 164
209 141 164
209 141 164
209 141 164
209 141 164
209 141 164
209 141 164
209 141 164
209 141 164
209 141 164
209 141 164
209 141 164
209 141 164
209 141 164
209 141 164
209 141 164
209 141 164
208 141 164
208 141 164
208 141 164
208 140 164
208 140 164
208 140 164
208 140 164
208 140 164
208 140 164
208 140 164
208 140 164
208 140 165
208 140 165
208 140 165
208 140 165
208 140 165
208 140 165
208 140 165
208 140 165
208 140 165
208 140 165
208 140 165
208 140 165
208 140 165
208 140 164
208 140 164
208 140 164
208 140 164
208 140 164
208 140 164
208 140 164
208 140 164
208 141 164
208 141 164
208 141 164
209 141 164
209 141 164
209 141 164
209 141 164
209 141 164
209 141 164
209 141 164
209 141 164
209 141 164
209 141 164
209 141 164
209 141 164
209 141 164
209 141 164
209 141 164
209 141 164
209 141 164
209 141 164
209 141 164
209 141 164
209 141 163
209 141 163
209 141 163
209 141 163
209 141 163
209 141 163
209 141 163
209 142 163
209 142 163
209 142 163
209 142 163
209 142 163
209 142 163
209 142 163
209 142 163
209 142 163
209 142 163
209 142 163
209 142 163
209 142 163
210 142 163
210 142 163
210 142 163
210 142 163
210 142 163
210 142 162
210 142 162
210 142 162
210 142 162
210 142 162
210 142 162
210 142 162
210 143 162
210 143 162
210 143 162
210 143 162
210 143 162
210 143 162
210 143 162
210 143 162
210 143 162
210 143 162
210 143 162
210 143 162
210 143 162
210 143 162
210 143 162
210 143 162
210 143 161
210 143 161
210 143 161
210 143 161
210 143 161
210 143 161
211 144 161
211 144 161
211 144 161
211 144 161
211 144 161
211 144 161
211 144 161
211 144 161
211 144 161
211 144 161
211 144 161
211 144 161
211 144 161
211 144 161
211 144 160
211 144 160
211 144 160
211 144 160
211 144 160
211 144 160
211 144 160
211 145 160
211 145 160
211 145 160
211 145 160
211 145 160
211 145 160
211 145 160
211 145 160
211 145 160
212 145 160
212 145 160
212 145 160
212 145 160
212 145 159
212 145 159
212 145 159
212 145 159
212 145 159
212 145 159
212 145 159
212 146 159
212 146 159
212 146 159
212 146 159
156 110 109
102 77 54
96 71 57
95 71 53
98 74 56
98 73 58
101 75 58
96 70 59
97 71 60
97 72 55
100 74 58
97 73 54
102 77 56
95 70 57
98 72 57
96 71 55
95 72 53
96 72 55
96 73 51
101 75 58
97 74 53
98 73 57
98 73 57
95 71 55
97 72 58
99 73 57
94 69 58
94 69 55
97 72 57
101 75 58
99 74 58
99 74 57
100 75 57
95 72 52
96 71 55
97 73 55
97 71 57
95 71 55
100 76 55
97 72 56
101 76 58
99 74 57
95 71 55
97 73 53
100 76 55
99 74 57
102 76 58
95 70 58
103 77 59
97 73 55
90 67 53
98 72 57
94 71 52
92 68 54
94 70 52
101 75 57
96 71 56
97 73 56
95 71 56
93 69 54
93 70 53
101 75 60
92 69 51
94 70 54
96 72 53
102 76 58
99 73 57
98 74 55
98 73 56
97 71 59
96 72 55
101 76 57
97 73 56
99 73 57
91 69 50
100 73 61
98 73 58
96 72 53
100 75 56
98 73 55
93 69 53
100 75 56
98 72 60
98 73 56
95 71 55
99 74 56
98 74 54
95 71 54
99 74 57
96 72 54
100 75 57
98 73 56
95 73 50
98 74 56
95 72 52
96 71 56
96 72 55
97 73 54
97 73 54
104 78 59
91 68 51
98 72 58
99 74 57
99 74 57
97 73 54
99 74 56
98 73 54
96 71 56
98 73 55
99 75 55
102 77 56
101 75 58
96 72 54
95 71 53
100 74 59
101 73 63
105 79 59
143 102 97
212 146 159
212 146 159
212 146 159
212 145 159
212 145 159
212 145 159
212 145 159
212 145 159
212 145 159
212 145 159
212 145 160
212 145 160
212 145 160
212 145 160
212 145 160
211 145 160
211 145 160
211 145 160
211 145 160
211 145 160
211 145 160
211 145 160
211 145 160
211 145 160
211 145 160
211 144 160
211 144 160
211 144 160
211 144 160
211 144 160
211 144 160
211 144 161
211 144 161
211 144 161
211 144 161
211 144 161
211 144 161
211 144 161
211 144 161
211 144 161
211 144 161
211 144 161
211 144 161
211 144 161
211 144 161
210 143 161
210 143 161
210 143 161
210 143 161
210 143 161
210 143 161
210 143 161
210 143 162
210 143 162
210 143 162
210 143 162
210 143 162
210 143 162
210 143 162
210 143 162
210 143 162
210 143 162
210 143 162
210 143 162
210 143 162
210 143 162
210 143 162
210 142 162
210 142 162
210 142 162
210 142 162
210 142 162
210 142 162
210 142 162
210 142 163
210 142 163
210 142 163
210 142 163
209 142 163
209 142 163
209 142 163
209 142 163
209 142 163
209 142 163
209 142 163
209 142 163
209 142 163
209 142 163
209 142 163
209 142 163
209 142 163
209 142 163
209 142 163
209 141 163
209 141 163
209 141 163
209 141 163
209 141 163
209 141 163
209 141 163
209 141 164
209 141 164
209 141 164
209 141 164
209 141 164
209 141 164
209 141 164
209 141 164
209 141 164
209 141 164
209 141 164
209 141 164
209 141 164
209 141 164
209 141 164
209 141 164
209 141 164
209 141 164
209 141 164
208 141 164
208 141 164
208 141 164
208 140 164
208 140 164
208 140 164
208 140 164
208 140 164
208 140 164
208 140 164
208 140 164
208 140 165
208 140 165
208 140 165
208 140 165
208 140 165
208 140 165
208 140 165
208 140 165
208 140 165
208 140 165
208 140 165
208 140 165
208 140 165
208 140 165
208 140 165
208 140 165
208 140 165
208 140 165
208 140 165
208 140 165
208 140 165
208 140 165
208 140 165
208 140 165
208 140 165
208 140 165
208 140 165
208 140 165
208 140 165
208 140 165
208 140 165
208 140 165
208 140 164
208 140 164
208 140 164
208 140 164
208 140 164
208 140 164
208 140 164
208 141 164
208 141 164
208 141 164
209 141 164
209 141 164
209 141 164
209 141 164
209 141 164
209 141 164
209 141 164
209 141 164
209 141 164
209 141 164
209 141 164
209 141 164
209 141 164
209 141 164
209 141 164
209 141 164
209 141 164
209 141 164
209 141 164
209 141 163
209 141 163
209 141 163
209 141 163
209 141 163
209 141 163
209 141 163
209 142 163
209 142 163
209 142 163
209 142 163
209 142 163
209 142 163
209 142 163
209 142 163
209 142 163
209 142 163
209 142 163
209 142 163
209 142 163
209 142 163
210 142 163
210 142 163
210 142 163
210 142 163
210 142 162
210 142 162
210 142 162
210 142 162
210 142 162
210 142 162
210 142 162
210 143 162
210 143 162
210 143 162
210 143 162
210 143 162
210 143 162
210 143 162
210 143 162
210 143 162
210 143 162
210 143 162
210 143 162
210 143 162
210 143 162
210 143 162
210 143 162
210 143 161
210 143 161
210 143 161
210 143 161
210 143 161
210 143 161
211 144 161
211 144 161
211 144 161
211 144 161
211 144 161
211 144 161
211 144 161
211 144 161
211 144 161
211 144 161
211 144 161
211 144 161
211 144 161
211 144 161
211 144 161
211 144 160
211 144 160
211 144 160
211 144 160
211 144 160
211 144 160
211 145 160
211 145 160
211 145 160
211 145 160
211 145 160
211 145 160
211 145 160
211 145 160
211 145 160
211 145 160
211 145 160
212 145 160
212 145 160
212 145 160
212 145 160
205 141 153
110 82 65
101 75 58
103 77 57
99 75 54
96 71 57
102 75 60
98 75 51
103 77 59
96 73 53
92 69 53
97 72 56
97 73 53
96 72 55
97 72 58
97 73 53
101 75 58
93 70 53
101 76 56
100 74 57
99 75 55
99 74 57
92 68 54
93 69 52
98 73 55
95 72 53
98 73 58
97 72 55
100 76 54
98 73 57
100 75 57
98 72 59
96 71 58
95 71 55
97 73 55
99 75 54
98 72 58
95 71 56
97 72 56
92 69 52
98 72 58
97 73 56
101 76 57
93 69 53
94 70 54
97 73 56
99 75 54
95 71 56
93 70 53
97 72 57
99 75 55
93 68 57
95 72 53
95 72 51
95 71 53
97 72 56
96 72 55
101 76 58
98 73 55
95 71 55
95 71 55
98 75 52
101 75 59
96 72 54
95 72 52
89 65 54
92 70 50
95 70 57
99 75 54
95 70 56
98 74 52
94 69 55
94 70 55
95 72 52
96 72 53
99 75 54
98 72 60
93 70 53
95 71 54
95 71 56
94 71 50
98 72 58
97 72 57
97 73 55
98 73 55
99 74 56
98 72 58
101 77 54
93 71 50
96 71 58
91 68 53
94 70 54
98 74 55
96 73 53
98 73 57
99 74 57
95 70 56
97 72 55
94 70 56
96 72 54
95 72 53
101 74 60
99 75 54
99 73 59
97 72 56
100 75 58
99 74 57
98 73 56
96 73 53
99 75 55
96 72 53
95 71 56
99 74 58
99 73 59
96 72 53
101 76 55
98 73 58
97 72 55
109 80 64
204 140 152
212 145 160
212 145 160
212 145 160
212 145 160
212 145 160
211 145 160
211 145 160
211 145 160
211 145 160
211 145 160
211 145 160
211 145 160
211 145 160
211 145 160
211 144 160
211 144 160
211 144 160
211 144 160
211 144 160
211 144 160
211 144 160
211 144 160
211 144 161
211 144 161
211 144 161
211 144 161
211 144 161
211 144 161
211 144 161
211 144 161
211 144 161
211 144 161
211 144 161
211 144 161
211 144 161
211 144 161
210 143 161
210 143 161
210 143 161
210 143 161
210 143 161
210 143 161
210 143 162
210 143 162
210 143 162
210 143 162
210 143 162
210 143 162
210 143 162
210 143 162
210 143 162
210 143 162
210 143 162
210 143 162
210 143 162
210 143 162
210 143 162
210 142 162
210 142 162
210 142 162
210 142 162
210 142 162
210 142 162
210 142 162
210 142 163
210 142 163
210 142 163
210 142 163
210 142 163
209 142 163
209 142 163
209 142 163
209 142 163
209 142 163
209 142 163
209 142 163
209 142 163
209 142 163
209 142 163
209 142 163
209 142 163
209 142 163
209 142 163
209 141 163
209 141 163
209 141 163
209 141 163
209 141 163
209 141 163
209 141 163
209 141 164
209 141 164
209 141 164
209 141 164
209 141 164
209 141 164
209 141 164
209 141 164
209 141 164
209 141 164
209 141 164
209 141 164
209 141 164
209 141 164
209 141 164
209 141 164
209 141 164
209 141 164
209 141 164
208 141 164
208 141 164
208 140 164
208 140 164
208 140 164
208 140 164
208 140 164
208 140 164
208 140 164
208 140 164
208 140 165
208 140 165
208 140 165
208 140 165
208 140 165
208 140 165
208 140 165
208 140 165
208 140 165
208 140 165
208 140 165
208 140 165
208 140 165
208 140 165
208 140 165
208 140 165
208 140 165
208 140 165
208 140 165
208 140 165
208 140 165
208 139 165
208 139 165
208 139 165
208 139 165
208 140 165
208 140 165
208 140 165
208 140 165
208 140 165
208 140 165
208 140 165
208 140 165
208 140 165
208 140 165
208 140 165
208 140 165
208 140 165
208 140 165
208 140 165
208 140 165
208 140 165
208 140 165
208 140 165
208 140 165
208 140 165
208 140 165
208 140 165
208 140 165
208 140 165
208 140 165
208 140 165
208 140 164
208 140 164
208 140 164
208 140 164
208 140 164
208 140 164
208 141 164
208 141 164
208 141 164
209 141 164
209 141 164
209 141 164
209 141 164
209 141 164
209 141 164
209 141 164
209 141 164
209 141 164
209 141 164
209 141 164
209 141 164
209 141 164
209 141 164
209 141 164
209 141 164
209 141 164
209 141 164
209 141 164
209 141 163
209 141 163
209 141 163
209 141 163
209 141 163
209 141 163
209 141 163
209 142 163
209 142 163
209 142 163
209 142 163
209 142 163
209 142 163
209 142 163
209 142 163
209 142 163
209 142 163
209 142 163
209 142 163
209 142 163
209 142 163
210 142 163
210 142 163
210 142 163
210 142 163
210 142 162
210 142 162
210 142 162
210 142 162
210 142 162
210 142 162
210 143 162
210 143 162
210 143 162
210 143 162
210 143 162
210 143 162
210 143 162
210 143 162
210 143 162
210 143 162
210 143 162
210 143 162
210 143 162
210 143 162
210 143 162
210 143 162
210 143 161
210 143 161
210 143 161
210 143 161
210 143 161
210 143 161
210 143 161
211 144 161
211 144 161
211 144 161
211 144 161
211 144 161
211 144 161
211 144 161
211 144 161
211 144 161
211 144 161
211 144 161
211 144 161
211 144 161
211 144 161
211 144 161
211 144 160
211 144 160
211 144 160
211 144 160
211 144 160
211 144 160
211 144 160
211 145 160
211 145 160
211 145 160
211 145 160
211 145 160
173 121 124
100 75 58
100 76 55
95 72 54
99 73 59
99 74 57
100 75 57
100 76 54
99 73 58
100 75 56
95 71 54
96 71 57
101 75 60
96 71 56
96 70 59
93 70 52
97 72 57
97 74 53
96 71 58
96 71 56
94 69 57
96 73 53
98 73 58
95 71 56
97 72 55
94 70 53
94 70 54
97 72 57
93 69 55
99 73 58
100 74 60
96 72 55
96 73 52
102 76 58
95 71 54
97 72 55
97 72 57
95 71 55
99 74 56
99 75 56
98 74 56
95 71 55
96 72 56
92 68 56
98 72 60
98 73 56
93 69 54
99 74 57
98 73 57
101 76 55
94 70 56
98 73 57
95 71 54
99 74 57
100 74 59
96 71 57
93 70 53
100 74 58
95 71 57
99 74 55
101 76 56
93 70 53
99 75 55
99 74 56
91 68 51
95 71 54
94 71 51
99 73 58
96 71 57
100 74 58
95 70 57
96 73 53
96 71 55
93 69 57
98 74 54
97 72 56
98 73 55
94 70 56
96 71 59
100 74 59
97 73 54
96 72 54
96 71 57
99 73 59
101 75 60
93 70 52
99 73 57
97 73 55
88 67 47
95 70 57
97 72 56
97 73 55
93 70 52
98 73 56
95 72 53
95 70 56
98 73 58
95 72 51
97 72 55
99 73 58
99 73 59
98 73 58
98 73 57
94 70 53
94 71 51
97 72 56
98 73 56
96 72 53
95 71 54
96 72 54
99 74 57
99 73 58
100 75 58
96 71 57
97 74 54
99 74 56
101 75 59
101 76 56
98 74 53
175 121 127
211 145 160
211 145 160
211 145 160
211 145 160
211 145 160
211 144 160
211 144 160
211 144 160
211 144 160
211 144 160
211 144 160
211 144 160
211 144 161
211 144 161
211 144 161
211 144 161
211 144 161
211 144 161
211 144 161
211 144 161
211 144 161
211 144 161
211 144 161
211 144 161
211 144 161
211 144 161
211 144 161
210 143 161
210 143 161
210 143 161
210 143 161
210 143 161
210 143 161
210 143 162
210 143 162
210 143 162
210 143 162
210 143 162
210 143 162
210 143 162
210 143 162
210 143 162
210 143 162
210 143 162
210 143 162
210 143 162
210 143 162
210 143 162
210 143 162
210 142 162
210 142 162
210 142 162
210 142 162
210 142 162
210 142 162
210 142 162
210 142 163
210 142 163
210 142 163
210 142 163
209 142 163
209 142 163
209 142 163
209 142 163
209 142 163
209 142 163
209 142 163
209 142 163
209 142 163
209 142 163
209 142 163
209 142 163
209 142 163
209 142 163
209 141 163
209 141 163
209 141 163
209 141 163
209 141 163
209 141 163
209 141 163
209 141 164
209 141 164
209 141 164
209 141 164
209 141 164
209 141 164
209 141 164
209 141 164
209 141 164
209 141 164
209 141 164
209 141 164
209 141 164
209 141 164
209 141 164
209 141 164
209 141 164
209 141 164
209 141 164
208 141 164
208 141 164
208 140 164
208 140 164
208 140 164
208 140 164
208 140 164
208 140 164
208 140 164
208 140 165
208 140 165
208 140 165
208 140 165
208 140 165
208 140 165
208 140 165
208 140 165
208 140 165
208 140 165
208 140 165
208 140 165
208 140 165
208 140 165
208 140 165
208 140 165
208 140 165
208 140 165
208 140 165
208 140 165
208 140 165
208 140 165
208 140 165
208 140 165
208 140 165
208 140 165
208 140 165
208 140 165
208 139 165
208 139 165
208 139 165
208 139 166
208 139 166
208 139 166
208 139 166
208 139 166
208 139 165
208 139 165
208 139 165
208 139 165
208 139 165
208 139 165
208 139 165
208 139 165
208 139 165
208 140 165
208 140 165
208 140 165
208 140 165
208 140 165
208 140 165
208 140 165
208 140 165
208 140 165
208 140 165
208 140 165
208 140 165
208 140 165
208 140 165
208 140 165
208 140 165
208 140 165
208 140 165
208 140 165
208 140 165
208 140 165
208 140 165
208 140 165
208 140 165
208 140 165
208 140 165
208 140 164
208 140 164
208 140 164
208 140 164
208 140 164
208 140 164
208 140 164
208 141 164
208 141 164
208 141 164
209 141 164
209 141 164
209 141 164
209 141 164
209 141 164
209 141 164
209 141 164
209 141 164
209 141 164
209 141 164
209 141 164
209 141 164
209 141 164
209 141 164
209 141 164
209 141 164
209 141 164
209 141 164
209 141 163
209 141 163
209 141 163
209 141 163
209 141 163
209 141 163
209 141 163
209 142 163
209 142 163
209 142 163
209 142 163
209 142 163
209 142 163
209 142 163
209 142 163
209 142 163
209 142 163
209 142 163
209 142 163
209 142 163
209 142 163
210 142 163
210 142 163
210 142 163
210 142 163
210 142 162
210 142 162
210 142 162
210 142 162
210 142 162
210 142 162
210 142 162
210 143 162
210 143 162
210 143 162
210 143 162
210 143 162
210 143 162
210 143 162
210 143 162
210 143 162
210 143 162
210 143 162
210 143 162
210 143 162
210 143 162
210 143 162
210 143 162
210 143 161
210 143 161
210 143 161
210 143 161
210 143 161
210 143 161
211 144 161
211 144 161
211 144 161
211 144 161
211 144 161
211 144 161
211 144 161
211 144 161
211 144 161
211 144 161
211 144 161
211 144 161
211 144 161
211 144 161
211 144 161
211 144 161
211 144 160
211 144 160
113 82 70
97 73 55
100 75 57
102 76 58
99 74 57
96 71 57
98 73 58
99 74 57
99 73 57
98 72 57
98 73 56
96 72 54
100 75 56
96 71 57
99 74 58
98 73 55
96 71 56
95 71 55
101 75 58
101 76 55
93 70 54
104 79 58
95 71 55
96 71 56
98 74 55
97 73 55
95 71 54
93 68 57
96 72 55
98 74 55
99 73 61
97 72 57
96 73 54
97 73 55
90 68 51
99 75 54
98 73 58
94 70 54
97 73 56
94 71 53
94 70 53
97 74 53
94 70 56
95 70 56
95 70 55
99 74 57
91 69 49
95 71 54
97 73 56
89 67 50
92 69 51
98 74 53
96 71 56
94 71 53
89 66 51
98 73 55
98 73 56
95 71 56
99 74 58
94 69 57
99 74 58
97 71 58
95 71 55
88 66 51
98 73 57
96 70 58
100 76 56
97 72 56
93 70 52
96 71 57
93 69 53
97 71 58
97 73 55
98 73 55
95 72 53
96 73 53
97 73 54
98 73 57
98 73 54
98 74 56
97 73 55
89 67 51
97 71 58
94 71 52
93 69 54
97 72 56
100 75 57
96 71 57
97 72 56
93 69 54
95 71 55
97 72 58
97 73 54
96 72 56
94 72 50
95 70 56
91 67 53
98 74 53
102 76 57
98 73 56
99 74 57
100 75 56
99 73 58
99 72 62
100 75 58
99 74 56
99 74 58
96 71 56
98 73 57
99 73 58
92 68 55
96 72 53
97 72 56
97 72 57
104 78 58
98 73 56
99 74 56
98 74 55
95 71 56
114 84 70
210 144 160
211 144 160
211 144 161
211 144 161
211 144 161
211 144 161
211 144 161
211 144 161
211 144 161
211 144 161
211 144 161
211 144 161
211 144 161
211 144 161
211 144 161
211 144 161
211 144 161
211 144 161
210 143 161
210 143 161
210 143 161
210 143 161
210 143 161
210 143 161
210 143 161
210 143 162
210 143 162
210 143 162
210 143 162
210 143 162
210 143 162
210 143 162
210 143 162
210 143 162
210 143 162
210 143 162
210 143 162
210 143 162
210 143 162
210 143 162
210 142 162
210 142 162
210 142 162
210 142 162
210 142 162
210 142 162
210 142 162
210 142 163
210 142 163
210 142 163
210 142 163
210 142 163
209 142 163
209 142 163
209 142 163
209 142 163
209 142 163
209 142 163
209 142 163
209 142 163
209 142 163
209 142 163
209 142 163
209 142 163
209 142 163
209 141 163
209 141 163
209 141 163
209 141 163
209 141 163
209 141 163
209 141 163
209 141 164
209 141 164
209 141 164
209 141 164
209 141 164
209 141 164
209 141 164
209 141 164
209 141 164
209 141 164
209 141 164
209 141 164
209 141 164
209 141 164
209 141 164
209 141 164
209 141 164
209 141 164
208 141 164
208 141 164
208 141 164
208 140 164
208 140 164
208 140 164
208 140 164
208 140 164
208 140 164
208 140 164
208 140 164
208 140 165
208 140 165
208 140 165
208 140 165
208 140 165
208 140 165
208 140 165
208 140 165
208 140 165
208 140 165
208 140 165
208 140 165
208 140 165
208 140 165
208 140 165
208 140 165
208 140 165
208 140 165
208 140 165
208 140 165
208 140 165
208 140 165
208 140 165
208 140 165
208 140 165
208 140 165
208 139 165
208 139 165
208 139 165
208 139 165
208 139 165
208 139 165
208 139 165
208 139 165
208 139 166
208 139 166
208 139 166
208 139 166
208 139 166
207 139 166
207 139 166
207 139 166
207 139 166
207 139 166
207 139 166
207 139 166
207 139 166
207 139 166
207 139 166
208 139 166
208 139 166
208 139 166
208 139 166
208 139 166
208 139 166
208 139 165
208 139 165
208 139 165
208 139 165
208 139 165
208 139 165
208 139 165
208 139 165
208 140 165
208 140 165
208 140 165
208 140 165
208 140 165
208 140 165
208 140 165
208 140 165
208 140 165
208 140 165
208 140 165
208 140 165
208 140 165
208 140 165
208 140 165
208 140 165
208 140 165
208 140 165
208 140 165
208 140 165
208 140 165
208 140 165
208 140 165
208 140 165
208 140 165
208 140 165
208 140 164
208 140 164
208 140 164
208 140 164
208 140 164
208 140 164
208 140 164
208 141 164
208 141 164
208 141 164
209 141 164
209 141 164
209 141 164
209 141 164
209 141 164
209 141 164
209 141 164
209 141 164
209 141 164
209 141 164
209 141 164
209 141 164
209 141 164
209 141 164
209 141 164
209 141 164
209 141 164
209 141 164
209 141 163
209 141 163
209 141 163
209 141 163
209 141 163
209 141 163
209 141 163
209 142 163
209 142 163
209 142 163
209 142 163
209 142 163
209 142 163
209 142 163
209 142 163
209 142 163
209 142 163
209 142 163
209 142 163
209 142 163
210 142 163
210 142 163
210 142 163
210 142 163
210 142 163
210 142 162
210 142 162
210 142 162
210 142 162
210 142 162
210 142 162
210 143 162
210 143 162
210 143 162
210 143 162
210 143 162
210 143 162
210 143 162
210 143 162
210 143 162
210 143 162
210 143 162
210 143 162
210 143 162
210 143 162
210 143 162
210 143 162
210 143 162
210 143 161
210 143 161
210 143 161
210 143 161
210 143 161
210 143 161
210 143 161
211 144 161
211 144 161
211 144 161
211 144 161
211 144 161
211 144 161
182 126 134
96 72 53
97 73 54
99 75 56
100 75 56
95 70 57
98 73 57
96 73 53
97 72 57
99 74 54
95 71 55
96 71 58
98 72 58
97 72 58
94 69 55
92 69 52
95 71 56
94 71 54
100 74 61
93 70 53
97 72 57
96 72 54
96 71 55
91 68 51
92 68 54
96 71 55
104 77 61
92 68 53
100 74 59
97 73 55
95 70 56
92 69 52
94 69 57
100 74 60
97 73 54
98 72 60
92 68 55
90 67 50
94 69 56
97 72 55
98 73 56
96 71 56
92 70 50
97 72 55
97 72 57
92 69 53
95 71 53
92 68 53
94 70 55
93 69 56
95 70 59
94 68 58
92 70 49
93 70 51
96 71 56
91 67 54
95 72 54
93 69 56
94 70 54
98 74 55
96 71 56
99 74 57
101 75 61
94 70 55
96 72 54
96 72 56
96 73 50
98 73 57
96 71 55
96 73 52
94 70 55
91 67 54
95 70 56
98 73 55
97 72 57
95 71 55
99 74 58
99 74 56
99 73 57
99 74 55
95 71 54
94 70 55
97 72 56
96 71 55
95 71 53
97 72 57
94 71 54
100 75 56
98 72 58
97 73 55
92 69 53
102 76 57
96 71 57
98 73 56
89 66 51
93 71 50
90 67 53
96 72 53
98 74 54
94 70 54
95 72 52
96 71 57
94 70 54
99 74 58
98 72 59
94 70 55
93 70 52
93 70 53
97 73 55
91 68 53
94 70 55
93 69 54
96 70 57
95 70 57
97 71 60
98 73 56
97 72 58
97 72 56
100 74 58
101 76 57
99 75 55
177 122 131
211 144 161
211 144 161
211 144 161
211 144 161
211 144 161
211 144 161
211 144 161
210 143 161
210 143 161
210 143 161
210 143 161
210 143 161
210 143 161
210 143 162
210 143 162
210 143 162
210 143 162
210 143 162
210 143 162
210 143 162
210 143 162
210 143 162
210 143 162
210 143 162
210 143 162
210 143 162
210 143 162
210 143 162
210 143 162
210 143 162
210 142 162
210 142 162
210 142 162
210 142 162
210 142 162
210 142 162
210 142 163
210 142 163
210 142 163
210 142 163
210 142 163
209 142 163
209 142 163
209 142 163
209 142 163
209 142 163
209 142 163
209 142 163
209 142 163
209 142 163
209 142 163
209 142 163
209 142 163
209 142 163
209 142 163
209 141 163
209 141 163
209 141 163
209 141 163
209 141 163
209 141 163
209 141 163
209 141 164
209 141 164
209 141 164
209 141 164
209 141 164
209 141 164
209 141 164
209 141 164
209 141 164
209 141 164
209 141 164
209 141 164
209 141 164
209 141 164
209 141 164
209 141 164
209 141 164
209 141 164
208 141 164
208 140 164
208 140 164
208 140 164
208 140 164
208 140 164
208 140 164
208 140 164
208 140 164
208 140 165
208 140 165
208 140 165
208 140 165
208 140 165
208 140 165
208 140 165
208 140 165
208 140 165
208 140 165
208 140 165
208 140 165
208 140 165
208 140 165
208 140 165
208 140 165
208 140 165
208 140 165
208 140 165
208 140 165
208 140 165
208 140 165
208 140 165
208 140 165
208 140 165
208 140 165
208 139 165
208 139 165
208 139 165
208 139 165
208 139 165
208 139 165
208 139 165
208 139 165
208 139 166
208 139 166
208 139 166
208 139 166
208 139 166
207 139 166
207 139 166
207 139 166
207 139 166
207 139 166
207 139 166
207 139 166
207 139 166
207 139 166
207 139 166
207 139 166
207 139 166
207 139 166
207 139 166
207 139 166
207 139 166
207 139 166
207 139 166
207 139 166
207 139 166
207 139 166
207 139 166
207 139 166
207 139 166
207 139 166
207 139 166
207 139 166
207 139 166
207 139 166
207 139 166
207 139 166
207 139 166
208 139 166
208 139 166
208 139 166
208 139 166
208 139 166
208 139 166
208 139 165
208 139 165
208 139 165
208 139 165
208 139 165
208 139 165
208 139 165
208 139 165
208 140 165
208 140 165
208 140 165
208 140 165
208 140 165
208 140 165
208 140 165
208 140 165
208 140 165
208 140 165
208 140 165
208 140 165
208 140 165
208 140 165
208 140 165
208 140 165
208 140 165
208 140 165
208 140 165
208 140 165
208 140 165
208 140 165
208 140 165
208 140 165
208 140 165
208 140 164
208 140 164
208 140 164
208 140 164
208 140 164
208 140 164
208 140 164
208 141 164
208 141 164
209 141 164
209 141 164
209 141 164
209 141 164
209 141 164
209 141 164
209 141 164
209 141 164
209 141 164
209 141 164
209 141 164
209 141 164
209 141 164
209 141 164
209 141 164
209 141 164
209 141 164
209 141 164
209 141 164
209 141 163
209 141 163
209 141 163
209 141 163
209 141 163
209 141 163
209 142 163
209 142 163
209 142 163
209 142 163
209 142 163
209 142 163
209 142 163
209 142 163
209 142 163
209 142 163
209 142 163
209 142 163
209 142 163
209 142 163
210 142 163
210 142 163
210 142 163
210 142 163
210 142 162
210 142 162
210 142 162
210 142 162
210 142 162
210 142 162
210 142 162
210 143 162
210 143 162
210 143 162
210 143 162
210 143 162
210 143 162
210 143 162
210 143 162
210 143 162
210 143 162
210 143 162
210 143 162
210 143 162
210 143 162
210 143 162
210 143 162
210 143 162
210 143 161
210 143 161
210 143 161
143 102 98
103 76 60
94 70 56
100 74 59
99 73 59
96 70 60
100 74 59
98 74 55
89 67 51
102 76 59
100 75 55
95 71 54
98 73 58
93 70 51
101 76 58
97 72 55
97 72 57
95 71 54
101 76 57
98 74 55
100 75 57
92 69 53
95 71 54
93 68 55
95 71 53
91 69 50
96 72 55
97 72 57
93 70 52
93 70 53
95 70 56
101 76 55
96 71 57
93 69 55
96 72 55
95 71 54
93 70 52
97 72 57
94 71 53
91 68 53
94 70 54
93 69 53
98 73 57
95 71 56
97 73 54
95 71 56
92 69 53
94 69 55
94 70 54
99 74 57
96 71 55
95 70 56
98 73 55
94 70 55
91 68 53
93 69 53
94 70 55
100 75 57
98 73 58
96 71 57
93 69 53
90 67 52
98 72 58
94 70 55
93 70 54
95 70 57
93 70 52
96 72 55
95 71 54
96 71 58
95 71 55
96 71 58
97 72 58
94 70 56
96 72 55
93 70 52
94 69 56
100 74 59
94 72 50
97 71 58
99 73 60
96 72 55
96 71 57
95 71 57
94 72 51
95 71 56
95 70 56
97 71 59
96 70 59
94 72 50
96 72 53
91 69 51
94 70 53
87 66 47
93 69 53
95 71 53
92 69 52
98 73 57
94 71 52
95 71 53
98 74 54
97 72 56
96 71 56
97 73 52
95 70 59
97 73 55
99 73 58
95 70 56
93 70 52
99 74 57
97 74 52
95 71 53
96 72 53
91 68 54
97 72 56
94 70 56
100 74 58
97 71 59
98 73 59
96 73 52
95 72 52
152 106 108
210 143 161
210 143 161
210 143 161
210 143 162
210 143 162
210 143 162
210 143 162
210 143 162
210 143 162
210 143 162
210 143 162
210 143 162
210 143 162
210 143 162
210 143 162
210 143 162
210 143 162
210 143 162
210 143 162
210 143 162
210 142 162
210 142 162
210 142 162
210 142 162
210 142 162
210 142 162
210 142 162
210 142 163
210 142 163
210 142 163
210 142 163
209 142 163
209 142 163
209 142 163
209 142 163
209 142 163
209 142 163
209 142 163
209 142 163
209 142 163
209 142 163
209 142 163
209 142 163
209 142 163
209 142 163
209 141 163
209 141 163
209 141 163
209 141 163
209 141 163
209 141 163
209 141 163
209 141 164
209 141 164
209 141 164
209 141 164
209 141 164
209 141 164
209 141 164
209 141 164
209 141 164
209 141 164
209 141 164
209 141 164
209 141 164
209 141 164
209 141 164
209 141 164
209 141 164
208 141 164
208 141 164
208 141 164
208 140 164
208 140 164
208 140 164
208 140 164
208 140 164
208 140 164
208 140 164
208 140 164
208 140 165
208 140 165
208 140 165
208 140 165
208 140 165
208 140 165
208 140 165
208 140 165
208 140 165
208 140 165
208 140 165
208 140 165
208 140 165
208 140 165
208 140 165
208 140 165
208 140 165
208 140 165
208 140 165
208 140 165
208 140 165
208 140 165
208 140 165
208 140 165
208 140 165
208 139 165
208 139 165
208 139 165
208 139 165
208 139 165
208 139 165
208 139 165
208 139 166
208 139 166
208 139 166
208 139 166
208 139 166
208 139 166
207 139 166
207 139 166
207 139 166
207 139 166
207 139 166
207 139 166
207 139 166
207 139 166
207 139 166
207 139 166
207 139 166
207 139 166
207 139 166
207 139 166
207 139 166
207 139 166
207 139 166
207 139 166
207 139 166
207 139 166
207 139 166
207 138 166
207 138 166
207 138 166
207 138 166
207 138 166
207 138 166
207 138 166
207 139 166
207 139 166
207 139 166
207 139 166
207 139 166
207 139 166
207 139 166
207 139 166
207 139 166
207 139 166
207 139 166
207 139 166
207 139 166
207 139 166
207 139 166
207 139 166
207 139 166
207 139 166
207 139 166
207 139 166
207 139 166
207 139 166
207 139 166
207 139 166
207 139 166
208 139 166
208 139 166
208 139 166
208 139 166
208 139 166
208 139 166
208 139 165
208 139 165
208 139 165
208 139 165
208 139 165
208 139 165
208 139 165
208 139 165
208 140 165
208 140 165
208 140 165
208 140 165
208 140 165
208 140 165
208 140 165
208 140 165
208 140 165
208 140 165
208 140 165
208 140 165
208 140 165
208 140 165
208 140 165
208 140 165
208 140 165
208 140 165
208 140 165
208 140 165
208 140 165
208 140 165
208 140 165
208 140 165
208 140 164
208 140 164
208 140 164
208 140 164
208 140 164
208 140 164
208 140 164
208 141 164
208 141 164
208 141 164
209 141 164
209 141 164
209 141 164
209 141 164
209 141 164
209 141 164
209 141 164
209 141 164
209 141 164
209 141 164
209 141 164
209 141 164
209 141 164
209 141 164
209 141 164
209 141 164
209 141 164
209 141 163
209 141 163
209 141 163
209 141 163
209 141 163
209 141 163
209 141 163
209 142 163
209 142 163
209 142 163
209 142 163
209 142 163
209 142 163
209 142 163
209 142 163
209 142 163
209 142 163
209 142 163
209 142 163
209 142 163
209 142 163
209 142 163
210 142 163
210 142 163
210 142 163
210 142 163
210 142 162
210 142 162
210 142 162
210 142 162
210 142 162
210 142 162
210 142 162
210 143 162
210 143 162
210 143 162
210 143 162
210 143 162
210 143 162
210 143 162
210 143 162
207 141 159
103 75 64
97 73 53
99 74 57
98 73 58
96 72 54
95 71 55
99 74 58
91 68 52
93 69 53
94 70 53
95 72 53
95 71 54
98 73 56
97 71 61
97 72 57
95 71 55
92 69 52
95 71 55
99 74 58
90 67 53
94 70 55
95 69 57
92 68 53
97 73 54
103 78 57
94 70 55
95 72 53
94 70 52
88 65 52
96 72 55
91 68 52
95 70 57
98 73 56
96 70 59
93 68 56
91 68 52
91 68 51
99 75 54
100 73 62
93 70 52
96 71 55
95 70 56
98 72 58
96 71 56
90 66 53
93 69 53
93 69 54
98 74 54
96 71 55
95 70 56
94 70 55
93 70 52
96 72 55
98 73 58
99 74 57
95 71 53
97 73 54
92 69 52
97 73 54
92 69 51
94 71 53
97 71 60
91 68 51
96 71 55
98 73 58
96 71 56
96 72 57
97 73 53
93 68 57
95 71 56
94 70 55
90 66 54
91 68 53
95 71 55
99 74 56
97 72 57
95 72 52
94 71 53
96 72 54
96 70 60
99 74 58
93 69 57
91 67 53
93 70 51
93 70 53
99 72 62
96 70 60
97 73 54
97 74 54
97 72 57
96 72 56
95 71 55
95 71 52
95 71 55
96 71 58
94 70 53
98 73 56
98 74 53
93 69 54
93 69 56
91 68 52
93 69 55
101 75 58
95 70 56
96 72 54
98 73 56
94 70 55
96 71 57
99 74 58
94 70 54
99 73 60
93 68 57
100 74 59
96 71 54
91 69 51
100 75 57
98 73 58
100 73 60
95 72 49
95 71 53
98 73 55
111 81 67
204 139 156
210 143 162
210 143 162
210 143 162
210 143 162
210 143 162
210 143 162
210 143 162
210 143 162
210 142 162
210 142 162
210 142 162
210 142 162
210 142 162
210 142 162
210 142 162
210 142 163
210 142 163
210 142 163
210 142 163
210 142 163
209 142 163
209 142 163
209 142 163
209 142 163
209 142 163
209 142 163
209 142 163
209 142 163
209 142 163
209 142 163
209 142 163
209 142 163
209 142 163
209 141 163
209 141 163
209 141 163
209 141 163
209 141 163
209 141 163
209 141 163
209 141 163
209 141 164
209 141 164
209 141 164
209 141 164
209 141 164
209 141 164
209 141 164
209 141 164
209 141 164
209 141 164
209 141 164
209 141 164
209 141 164
209 141 164
209 141 164
209 141 164
209 141 164
208 141 164
208 141 164
208 141 164
208 140 164
208 140 164
208 140 164
208 140 164
208 140 164
208 140 164
208 140 164
208 140 165
208 140 165
208 140 165
208 140 165
208 140 165
208 140 165
208 140 165
208 140 165
208 140 165
208 140 165
208 140 165
208 140 165
208 140 165
208 140 165
208 140 165
208 140 165
208 140 165
208 140 165
208 140 165
208 140 165
208 140 165
208 140 165
208 140 165
208 140 165
208 140 165
208 139 165
208 139 165
208 139 165
208 139 165
208 139 165
208 139 165
208 139 165
208 139 166
208 139 166
208 139 166
208 139 166
208 139 166
208 139 166
207 139 166
207 139 166
207 139 166
207 139 166
207 139 166
207 139 166
207 139 166
207 139 166
207 139 166
207 139 166
207 139 166
207 139 166
207 139 166
207 139 166
207 139 166
207 139 166
207 139 166
207 139 166
207 139 166
207 139 166
207 139 166
207 139 166
207 139 166
207 139 166
207 139 166
207 139 166
207 138 166
207 138 166
207 138 166
207 138 166
207 138 166
207 138 166
207 138 167
207 138 167
207 138 167
207 138 167
207 138 167
207 138 167
207 138 167
207 138 167
207 138 167
207 138 167
207 138 166
207 138 166
207 138 166
207 138 166
207 138 166
207 138 166
207 138 166
207 138 166
207 139 166
207 139 166
207 139 166
207 139 166
207 139 166
207 139 166
207 139 166
207 139 166
207 139 166
207 139 166
207 139 166
207 139 166
207 139 166
207 139 166
207 139 166
207 139 166
207 139 166
207 139 166
207 139 166
207 139 166
207 139 166
207 139 166
207 139 166
207 139 166
207 139 166
207 139 166
208 139 166
208 139 166
208 139 166
208 139 166
208 139 166
208 139 165
208 139 165
208 139 165
208 139 165
208 139 165
208 139 165
208 139 165
208 139 165
208 140 165
208 140 165
208 140 165
208 140 165
208 140 165
208 140 165
208 140 165
208 140 165
208 140 165
208 140 165
208 140 165
208 140 165
208 140 165
208 140 165
208 140 165
208 140 165
208 140 165
208 140 165
208 140 165
208 140 165
208 140 165
208 140 165
208 140 165
208 140 165
208 140 164
208 140 164
208 140 164
208 140 164
208 140 164
208 140 164
208 140 164
208 141 164
208 141 164
209 141 164
209 141 164
209 141 164
209 141 164
209 141 164
209 141 164
209 141 164
209 141 164
209 141 164
209 141 164
209 141 164
209 141 164
209 141 164
209 141 164
209 141 164
209 141 164
209 141 164
209 141 164
209 141 164
209 141 163
209 141 163
209 141 163
209 141 163
209 141 163
209 141 163
209 141 163
209 142 163
209 142 163
209 142 163
209 142 163
209 142 163
209 142 163
209 142 163
209 142 163
209 142 163
209 142 163
209 142 163
209 142 163
209 142 163
209 142 163
210 142 163
210 142 163
210 142 163
210 142 163
210 142 163
210 142 162
210 142 162
210 142 162
175 121 129
93 69 56
95 71 53
92 69 54
94 70 55
99 75 53
93 69 55
93 70 53
91 68 52
95 70 55
96 71 57
97 72 57
103 76 63
98 72 58
94 71 51
95 69 59
95 71 55
96 71 56
94 71 52
94 70 55
93 69 53
95 72 53
95 72 52
95 70 57
90 67 53
95 70 59
93 70 52
96 71 57
95 71 54
98 73 58
95 71 55
96 71 56
94 71 53
98 74 55
100 75 57
94 70 55
91 69 52
97 71 60
95 71 53
95 72 53
89 65 55
99 74 56
99 73 58
93 69 54
98 73 58
95 71 55
93 70 52
95 71 55
95 72 52
98 73 57
94 69 56
94 69 56
91 67 54
94 69 58
98 72 61
93 69 54
98 71 60
94 70 54
94 70 55
95 71 54
90 67 54
94 70 54
93 70 53
97 73 54
89 65 55
95 71 56
96 71 55
92 69 54
94 69 58
93 69 56
91 69 49
97 73 52
92 67 58
95 71 57
91 67 53
91 69 51
94 70 54
95 70 57
93 69 54
97 71 59
91 68 52
95 70 55
97 72 56
94 70 56
98 73 55
102 76 57
95 71 55
98 73 57
96 70 60
99 74 55
96 71 56
94 69 56
92 69 54
91 67 55
94 69 56
96 72 55
94 70 56
99 73 61
96 73 52
93 70 54
95 70 55
96 72 54
93 70 51
94 70 53
96 73 53
94 70 56
97 72 55
96 72 55
93 70 53
96 72 55
96 72 54
96 71 57
96 73 52
92 69 53
96 71 56
95 71 55
96 73 52
92 70 51
92 67 60
96 71 56
96 72 56
98 73 57
92 68 53
174 119 130
210 142 162
210 142 162
210 142 162
210 142 162
210 142 163
210 142 163
210 142 163
210 142 163
209 142 163
209 142 163
209 142 163
209 142 163
209 142 163
209 142 163
209 142 163
209 142 163
209 142 163
209 142 163
209 142 163
209 142 163
209 142 163
209 142 163
209 142 163
209 141 163
209 141 163
209 141 163
209 141 163
209 141 163
209 141 163
209 141 164
209 141 164
209 141 164
209 141 164
209 141 164
209 141 164
209 141 164
209 141 164
209 141 164
209 141 164
209 141 164
209 141 164
209 141 164
209 141 164
209 141 164
209 141 164
209 141 164
209 141 164
209 141 164
208 141 164
208 141 164
208 140 164
208 140 164
208 140 164
208 140 164
208 140 164
208 140 164
208 140 164
208 140 165
208 140 165
208 140 165
208 140 165
208 140 165
208 140 165
208 140 165
208 140 165
208 140 165
208 140 165
208 140 165
208 140 165
208 140 165
208 140 165
208 140 165
208 140 165
208 140 165
208 140 165
208 140 165
208 140 165
208 140 165
208 140 165
208 140 165
208 140 165
208 139 165
208 139 165
208 139 165
208 139 165
208 139 165
208 139 165
208 139 165
208 139 165
208 139 166
208 139 166
208 139 166
208 139 166
208 139 166
207 139 166
207 139 166
207 139 166
207 139 166
207 139 166
207 139 166
207 139 166
207 139 166
207 139 166
207 139 166
207 139 166
207 139 166
207 139 166
207 139 166
207 139 166
207 139 166
207 139 166
207 139 166
207 139 166
207 139 166
207 139 166
207 139 166
207 139 166
207 139 166
207 139 166
207 139 166
207 138 166
207 138 166
207 138 166
207 138 166
207 138 166
207 138 166
207 138 166
207 138 166
207 138 167
207 138 167
207 138 167
207 138 167
207 138 167
207 138 167
207 138 167
207 138 167
207 138 167
207 138 167
207 138 167
207 138 167
207 138 167
207 138 167
207 138 167
207 138 167
207 138 167
207 138 167
207 138 167
207 138 167
207 138 167
207 138 167
207 138 167
207 138 167
207 138 167
207 138 167
207 138 167
207 138 167
207 138 167
207 138 167
207 138 167
207 138 167
207 138 166
207 138 166
207 138 166
207 138 166
207 138 166
207 138 166
207 138 166
207 138 166
207 138 166
207 139 166
207 139 166
207 139 166
207 139 166
207 139 166
207 139 166
207 139 166
207 139 166
207 139 166
207 139 166
207 139 166
207 139 166
207 139 166
207 139 166
207 139 166
207 139 166
207 139 166
207 139 166
207 139 166
207 139 166
207 139 166
207 139 166
207 139 166
207 139 166
208 139 166
208 139 166
208 139 166
208 139 166
208 139 166
208 139 166
208 139 165
208 139 165
208 139 165
208 139 165
208 139 165
208 139 165
208 140 165
208 140 165
208 140 165
208 140 165
208 140 165
208 140 165
208 140 165
208 140 165
208 140 165
208 140 165
208 140 165
208 140 165
208 140 165
208 140 165
208 140 165
208 140 165
208 140 165
208 140 165
208 140 165
208 140 165
208 140 165
208 140 165
208 140 165
208 140 165
208 140 165
208 140 164
208 140 164
208 140 164
208 140 164
208 140 164
208 140 164
208 140 164
208 141 164
208 141 164
209 141 164
209 141 164
209 141 164
209 141 164
209 141 164
209 141 164
209 141 164
209 141 164
209 141 164
209 141 164
209 141 164
209 141 164
209 141 164
209 141 164
209 141 164
209 141 164
209 141 164
209 141 164
209 141 164
209 141 163
209 141 163
209 141 163
209 141 163
209 141 163
209 141 163
209 141 163
209 142 163
209 142 163
209 142 163
209 142 163
209 142 163
209 142 163
209 142 163
209 142 163
209 142 163
209 142 163
209 142 163
129 92 86
97 72 58
100 74 58
98 73 57
95 71 56
98 73 57
97 73 53
93 69 54
94 69 55
100 75 58
94 70 54
95 71 55
98 73 57
96 71 57
101 76 57
95 70 55
95 69 59
91 67 53
89 67 50
90 67 52
96 71 57
98 73 59
97 72 57
96 72 54
90 66 55
97 72 56
95 72 52
91 68 50
100 75 55
93 69 53
90 68 51
98 73 57
97 71 60
93 69 53
101 76 56
92 69 52
93 70 52
95 71 54
93 70 53
92 69 53
93 68 55
95 71 56
92 68 56
97 72 56
99 74 58
91 68 54
88 66 50
92 68 54
93 70 53
95 70 56
91 67 55
96 72 55
90 67 53
94 70 54
97 71 58
92 68 54
100 74 58
96 71 56
92 68 56
94 70 53
94 69 57
89 66 53
98 72 60
89 66 52
94 70 55
92 68 53
90 67 53
91 69 50
97 72 56
89 66 51
91 68 52
94 70 55
92 69 52
93 69 55
96 71 57
96 71 57
90 67 54
98 72 59
97 72 56
83 62 47
89 67 51
93 69 53
99 74 56
91 68 54
93 70 51
97 71 57
92 69 51
88 65 53
95 71 53
94 70 54
96 72 55
101 76 57
95 70 56
97 73 54
88 66 50
90 67 51
92 68 55
92 68 55
96 72 55
94 70 55
94 70 55
97 72 58
98 72 59
92 67 55
97 72 54
94 70 54
96 72 54
100 75 57
92 69 52
96 71 56
98 72 58
93 70 53
97 72 58
95 71 55
95 71 54
94 70 54
97 73 55
97 73 55
96 72 56
97 72 56
94 69 58
98 73 55
95 70 55
148 103 106
209 142 163
209 142 163
209 142 163
209 142 163
209 142 163
209 142 163
209 142 163
209 142 163
209 142 163
209 142 163
209 142 163
209 141 163
209 141 163
209 141 163
209 141 163
209 141 163
209 141 163
209 141 163
209 141 164
209 141 164
209 141 164
209 141 164
209 141 164
209 141 164
209 141 164
209 141 164
209 141 164
209 141 164
209 141 164
209 141 164
209 141 164
209 141 164
209 141 164
209 141 164
209 141 164
209 141 164
209 141 164
208 141 164
208 141 164
208 140 164
208 140 164
208 140 164
208 140 164
208 140 164
208 140 164
208 140 164
208 140 165
208 140 165
208 140 165
208 140 165
208 140 165
208 140 165
208 140 165
208 140 165
208 140 165
208 140 165
208 140 165
208 140 165
208 140 165
208 140 165
208 140 165
208 140 165
208 140 165
208 140 165
208 140 165
208 140 165
208 140 165
208 140 165
208 140 165
208 140 165
208 139 165
208 139 165
208 139 165
208 139 165
208 139 165
208 139 165
208 139 165
208 139 166
208 139 166
208 139 166
208 139 166
208 139 166
207 139 166
207 139 166
207 139 166
207 139 166
207 139 166
207 139 166
207 139 166
207 139 166
207 139 166
207 139 166
207 139 166
207 139 166
207 139 166
207 139 166
207 139 166
207 139 166
207 139 166
207 139 166
207 139 166
207 139 166
207 139 166
207 139 166
207 139 166
207 139 166
207 139 166
207 138 166
207 138 166
207 138 166
207 138 166
207 138 166
207 138 166
207 138 166
207 138 166
207 138 166
207 138 167
207 138 167
207 138 167
207 138 167
207 138 167
207 138 167
207 138 167
207 138 167
207 138 167
207 138 167
207 138 167
207 138 167
207 138 167
207 138 167
207 138 167
207 138 167
207 138 167
207 138 167
207 138 167
207 138 167
207 138 167
207 138 167
206 138 167
206 138 167
206 138 167
206 138 167
206 138 167
206 138 167
207 138 167
207 138 167
207 138 167
207 138 167
207 138 167
207 138 167
207 138 167
207 138 167
207 138 167
207 138 167
207 138 167
207 138 167
207 138 167
207 138 167
207 138 167
207 138 167
207 138 167
207 138 167
207 138 167
207 138 167
207 138 167
207 138 167
207 138 167
207 138 167
207 138 167
207 138 167
207 138 167
207 138 167
207 138 166
207 138 166
207 138 166
207 138 166
207 138 166
207 138 166
207 138 166
207 138 166
207 138 166
207 138 166
207 139 166
207 139 166
207 139 166
207 139 166
207 139 166
207 139 166
207 139 166
207 139 166
207 139 166
207 139 166
207 139 166
207 139 166
207 139 166
207 139 166
207 139 166
207 139 166
207 139 166
207 139 166
207 139 166
207 139 166
207 139 166
207 139 166
207 139 166
207 139 166
208 139 166
208 139 166
208 139 166
208 139 166
208 139 166
208 139 165
208 139 165
208 139 165
208 139 165
208 139 165
208 139 165
208 139 165
208 140 165
208 140 165
208 140 165
208 140 165
208 140 165
208 140 165
208 140 165
208 140 165
208 140 165
208 140 165
208 140 165
208 140 165
208 140 165
208 140 165
208 140 165
208 140 165
208 140 165
208 140 165
208 140 165
208 140 165
208 140 165
208 140 165
208 140 165
208 140 165
208 140 164
208 140 164
208 140 164
208 140 164
208 140 164
208 140 164
208 140 164
208 141 164
208 141 164
208 141 164
209 141 164
209 141 164
209 141 164
209 141 164
209 141 164
209 141 164
209 141 164
209 141 164
209 141 164
209 141 164
209 141 164
209 141 164
209 141 164
209 141 164
209 141 164
209 141 164
209 141 164
209 141 164
209 141 164
209 141 163
209 141 163
209 141 163
209 141 163
209 141 163
107 78 66
97 72 55
95 72 51
97 72 57
90 67 52
96 72 55
98 73 56
97 73 55
94 70 55
96 71 56
91 68 52
100 75 57
95 71 54
90 66 55
93 69 56
91 68 53
92 68 53
100 74 59
91 68 53
95 70 57
90 67 53
98 72 58
97 72 57
90 67 53
98 73 55
97 71 59
95 71 54
98 72 59
89 67 50
93 70 53
97 72 58
97 71 58
94 71 52
92 67 56
90 67 52
97 72 57
94 69 56
93 69 53
92 69 53
91 67 56
92 68 56
93 70 54
99 74 56
90 67 52
93 71 51
90 68 51
96 72 54
89 66 52
94 69 56
89 67 50
97 72 57
94 70 55
97 72 55
96 72 53
95 71 56
91 68 52
90 66 54
92 69 52
94 71 52
97 72 57
92 68 55
95 70 58
94 69 55
94 71 52
94 70 54
93 69 54
93 69 54
96 71 57
93 70 53
95 70 56
98 73 57
90 66 55
94 70 54
92 69 53
92 67 57
95 71 54
95 70 56
91 68 51
97 70 63
97 72 58
91 69 51
91 67 53
95 70 57
90 67 50
94 69 57
95 71 53
94 69 56
92 69 53
88 65 51
96 72 55
96 72 54
95 70 58
100 74 58
95 71 55
93 69 55
92 69 51
99 73 59
90 66 53
96 71 57
91 68 52
86 64 50
93 69 54
95 71 54
92 69 52
93 69 56
94 70 55
92 69 53
94 71 53
92 67 55
94 69 57
99 74 57
97 72 57
94 69 56
93 70 50
97 73 54
96 71 57
91 68 51
91 67 54
96 71 55
96 71 56
99 73 59
94 70 52
94 70 53
105 77 65
206 140 160
209 141 163
209 141 163
209 141 163
209 141 163
209 141 164
209 141 164
209 141 164
209 141 164
209 141 164
209 141 164
209 141 164
209 141 164
209 141 164
209 141 164
209 141 164
209 141 164
209 141 164
209 141 164
209 141 164
209 141 164
209 141 164
209 141 164
209 141 164
209 141 164
208 141 164
208 141 164
208 140 164
208 140 164
208 140 164
208 140 164
208 140 164
208 140 164
208 140 164
208 140 165
208 140 165
208 140 165
208 140 165
208 140 165
208 140 165
208 140 165
208 140 165
208 140 165
208 140 165
208 140 165
208 140 165
208 140 165
208 140 165
208 140 165
208 140 165
208 140 165
208 140 165
208 140 165
208 140 165
208 140 165
208 140 165
208 140 165
208 140 165
208 139 165
208 139 165
208 139 165
208 139 165
208 139 165
208 139 165
208 139 165
208 139 166
208 139 166
208 139 166
208 139 166
208 139 166
207 139 166
207 139 166
207 139 166
207 139 166
207 139 166
207 139 166
207 139 166
207 139 166
207 139 166
207 139 166
207 139 166
207 139 166
207 139 166
207 139 166
207 139 166
207 139 166
207 139 166
207 139 166
207 139 166
207 139 166
207 139 166
207 139 166
207 139 166
207 139 166
207 139 166
207 138 166
207 138 166
207 138 166
207 138 166
207 138 166
207 138 166
207 138 166
207 138 166
207 138 167
207 138 167
207 138 167
207 138 167
207 138 167
207 138 167
207 138 167
207 138 167
207 138 167
207 138 167
207 138 167
207 138 167
207 138 167
207 138 167
207 138 167
207 138 167
207 138 167
207 138 167
207 138 167
207 138 167
207 138 167
207 138 167
207 138 167
207 138 167
207 138 167
207 138 167
207 138 167
207 138 167
207 138 167
206 138 167
206 138 167
206 138 167
206 138 167
206 138 167
206 138 167
206 137 168
206 137 168
206 137 167
206 137 167
206 137 167
206 137 167
206 137 167
206 137 167
206 137 167
206 137 167
206 137 167
206 138 167
206 138 167
206 138 167
206 138 167
206 138 167
206 138 167
206 138 167
206 138 167
206 138 167
206 138 167
207 138 167
207 138 167
207 138 167
207 138 167
207 138 167
207 138 167
207 138 167
207 138 167
207 138 167
207 138 167
207 138 167
207 138 167
207 138 167
207 138 167
207 138 167
207 138 167
207 138 167
207 138 167
207 138 167
207 138 167
207 138 167
207 138 167
207 138 167
207 138 167
207 138 167
207 138 167
207 138 167
207 138 166
207 138 166
207 138 166
207 138 166
207 138 166
207 138 166
207 138 166
207 138 166
207 139 166
207 139 166
207 139 166
207 139 166
207 139 166
207 139 166
207 139 166
207 139 166
207 139 166
207 139 166
207 139 166
207 139 166
207 139 166
207 139 166
207 139 166
207 139 166
207 139 166
207 139 166
207 139 166
207 139 166
207 139 166
207 139 166
207 139 166
207 139 166
207 139 166
208 139 166
208 139 166
208 139 166
208 139 166
208 139 165
208 139 165
208 139 165
208 139 165
208 139 165
208 139 165
208 139 165
208 139 165
208 140 165
208 140 165
208 140 165
208 140 165
208 140 165
208 140 165
208 140 165
208 140 165
208 140 165
208 140 165
208 140 165
208 140 165
208 140 165
208 140 165
208 140 165
208 140 165
208 140 165
208 140 165
208 140 165
208 140 165
208 140 165
208 140 165
208 140 165
208 140 165
208 140 164
208 140 164
208 140 164
208 140 164
208 140 164
208 140 164
208 141 164
208 141 164
208 141 164
208 141 164
209 141 164
209 141 164
209 141 164
209 141 164
209 141 164
209 141 164
209 141 164
209 141 164
209 141 164
209 141 164
188 129 143
92 68 54
94 72 51
90 68 51
94 70 54
91 68 51
96 71 57
97 72 58
100 75 56
95 70 55
95 71 53
95 70 57
96 71 58
95 71 56
93 68 57
97 73 56
96 72 54
94 70 54
96 71 57
90 67 51
92 69 51
89 65 56
95 70 55
92 67 57
96 72 54
90 67 51
92 69 53
92 67 56
101 74 62
94 71 54
91 69 49
90 67 52
92 69 53
96 71 55
94 70 54
88 65 50
94 70 56
95 70 57
96 71 56
90 67 50
90 67 53
92 69 53
90 67 53
93 70 52
90 67 52
92 67 56
94 70 55
92 69 52
95 70 57
89 66 52
96 72 56
94 70 55
95 70 58
92 68 55
95 69 58
96 71 57
95 71 56
95 70 57
89 66 52
91 68 51
97 72 58
91 68 52
92 68 55
96 71 56
91 68 53
95 70 58
94 71 53
92 70 49
92 68 53
91 67 55
96 70 60
92 67 56
91 68 53
93 69 55
96 72 55
94 70 55
92 67 58
97 73 54
93 70 51
95 70 56
99 75 56
92 68 55
96 72 54
93 69 54
94 69 58
92 69 52
90 66 54
96 71 55
95 70 57
96 71 58
97 71 58
89 66 51
92 69 55
94 70 56
91 67 55
95 70 58
89 65 53
92 68 55
94 69 57
96 71 57
97 72 56
96 71 58
94 70 56
96 72 55
96 71 56
95 70 55
96 71 56
88 65 52
95 71 55
95 71 54
100 74 59
95 71 55
96 72 54
92 70 51
92 68 53
96 72 55
96 71 56
93 70 54
92 70 48
95 71 53
99 74 56
93 70 52
99 73 57
99 74 55
92 68 55
182 124 140
209 141 164
209 141 164
209 141 164
209 141 164
209 141 164
209 141 164
209 141 164
209 141 164
209 141 164
209 141 164
208 141 164
208 141 164
208 141 164
208 140 164
208 140 164
208 140 164
208 140 164
208 140 164
208 140 164
208 140 164
208 140 165
208 140 165
208 140 165
208 140 165
208 140 165
208 140 165
208 140 165
208 140 165
208 140 165
208 140 165
208 140 165
208 140 165
208 140 165
208 140 165
208 140 165
208 140 165
208 140 165
208 140 165
208 140 165
208 140 165
208 140 165
208 140 165
208 140 165
208 140 165
208 139 165
208 139 165
208 139 165
208 139 165
208 139 165
208 139 165
208 139 165
208 139 165
208 139 165
208 139 166
208 139 166
208 139 166
207 139 166
207 139 166
207 139 166
207 139 166
207 139 166
207 139 166
207 139 166
207 139 166
207 139 166
207 139 166
207 139 166
207 139 166
207 139 166
207 139 166
207 139 166
207 139 166
207 139 166
207 139 166
207 139 166
207 139 166
207 139 166
207 139 166
207 139 166
207 139 166
207 138 166
207 138 166
207 138 166
207 138 166
207 138 166
207 138 166
207 138 166
207 138 166
207 138 166
207 138 167
207 138 167
207 138 167
207 138 167
207 138 167
207 138 167
207 138 167
207 138 167
207 138 167
207 138 167
207 138 167
207 138 167
207 138 167
207 138 167
207 138 167
207 138 167
207 138 167
207 138 167
207 138 167
207 138 167
207 138 167
207 138 167
207 138 167
207 138 167
207 138 167
207 138 167
207 138 167
207 138 167
206 138 167
206 138 167
206 138 167
206 138 167
206 138 167
206 138 167
206 138 167
206 138 167
206 138 167
206 137 167
206 137 167
206 137 167
206 137 167
206 137 167
206 137 167
206 137 167
206 137 167
206 137 167
206 137 167
206 137 168
206 137 168
206 137 168
206 137 168
206 137 168
206 137 168
206 137 168
206 137 168
206 137 168
206 137 168
206 137 168
206 137 168
206 137 168
206 137 168
206 137 168
206 137 168
206 137 168
206 137 168
206 137 167
206 137 167
206 137 167
206 137 167
206 137 167
206 137 167
206 137 167
206 137 167
206 137 167
206 138 167
206 138 167
206 138 167
206 138 167
206 138 167
206 138 167
206 138 167
206 138 167
206 138 167
207 138 167
207 138 167
207 138 167
207 138 167
207 138 167
207 138 167
207 138 167
207 138 167
207 138 167
207 138 167
207 138 167
207 138 167
207 138 167
207 138 167
207 138 167
207 138 167
207 138 167
207 138 167
207 138 167
207 138 167
207 138 167
207 138 167
207 138 167
207 138 167
207 138 167
207 138 167
207 138 167
207 138 166
207 138 166
207 138 166
207 138 166
207 138 166
207 138 166
207 138 166
207 138 166
207 139 166
207 139 166
207 139 166
207 139 166
207 139 166
207 139 166
207 139 166
207 139 166
207 139 166
207 139 166
207 139 166
207 139 166
207 139 166
207 139 166
207 139 166
207 139 166
207 139 166
207 139 166
207 139 166
207 139 166
207 139 166
207 139 166
207 139 166
208 139 166
208 139 166
208 139 166
208 139 166
208 139 166
208 139 165
208 139 165
208 139 165
208 139 165
208 139 165
208 139 165
208 139 165
208 139 165
208 140 165
208 140 165
208 140 165
208 140 165
208 140 165
208 140 165
208 140 165
208 140 165
208 140 165
208 140 165
208 140 165
208 140 165
208 140 165
208 140 165
208 140 165
208 140 165
208 140 165
208 140 165
208 140 165
208 140 165
208 140 165
208 140 165
208 140 165
208 140 165
208 140 165
208 140 164
208 140 164
208 140 164
208 140 164
208 140 164
208 140 164
148 103 105
96 71 56
91 69 51
94 70 54
96 72 56
94 69 59
91 68 53
94 70 56
93 69 54
95 70 56
90 67 51
94 70 54
95 70 57
92 69 52
100 74 60
91 67 55
97 72 58
97 72 57
91 68 52
90 67 53
95 71 54
97 72 56
93 69 54
95 71 54
93 69 55
89 66 52
91 68 52
95 71 56
91 68 53
96 71 57
88 65 54
94 70 56
87 65 49
97 72 58
94 71 52
94 70 54
93 69 55
93 69 54
95 71 55
92 69 53
93 71 50
92 68 55
89 66 53
94 70 55
89 66 53
97 72 57
100 74 60
96 72 55
91 67 55
90 67 51
91 68 53
94 70 53
93 69 56
94 70 55
96 71 57
94 71 53
95 71 54
93 69 54
93 69 55
92 69 52
95 69 58
93 68 56
94 70 54
98 74 54
89 66 53
94 70 53
91 68 52
96 72 55
94 69 57
94 70 54
98 72 59
95 71 56
94 70 54
98 73 57
94 69 57
97 71 59
95 70 57
94 70 55
89 67 50
95 70 56
96 71 56
92 68 55
97 72 60
96 72 55
95 71 53
95 71 53
94 71 54
95 69 59
91 68 51
93 69 55
90 67 52
97 72 55
90 66 55
99 74 55
91 67 56
93 69 57
93 70 52
95 70 58
90 68 49
96 72 53
93 69 54
92 69 53
93 69 53
90 67 54
91 68 54
93 69 55
91 66 57
87 65 49
94 70 53
93 70 52
90 67 52
92 69 51
96 71 57
101 75 57
90 66 56
95 71 53
90 67 51
93 69 52
94 70 55
93 69 55
95 70 56
97 72 57
98 72 59
91 68 53
99 74 57
141 98 102
208 140 164
208 140 164
208 140 164
208 140 164
208 140 164
208 140 164
208 140 165
208 140 165
208 140 165
208 140 165
208 140 165
208 140 165
208 140 165
208 140 165
208 140 165
208 140 165
208 140 165
208 140 165
208 140 165
208 140 165
208 140 165
208 140 165
208 140 165
208 140 165
208 140 165
208 140 165
208 140 165
208 140 165
208 140 165
208 140 165
208 140 165
208 139 165
208 139 165
208 139 165
208 139 165
208 139 165
208 139 165
208 139 165
208 139 165
208 139 166
208 139 166
208 139 166
208 139 166
208 139 166
207 139 166
207 139 166
207 139 166
207 139 166
207 139 166
207 139 166
207 139 166
207 139 166
207 139 166
207 139 166
207 139 166
207 139 166
207 139 166
207 139 166
207 139 166
207 139 166
207 139 166
207 139 166
207 139 166
207 139 166
207 139 166
207 139 166
207 139 166
207 138 166
207 138 166
207 138 166
207 138 166
207 138 166
207 138 166
207 138 166
207 138 166
207 138 167
207 138 167
207 138 167
207 138 167
207 138 167
207 138 167
207 138 167
207 138 167
207 138 167
207 138 167
207 138 167
207 138 167
207 138 167
207 138 167
207 138 167
207 138 167
207 138 167
207 138 167
207 138 167
207 138 167
207 138 167
207 138 167
207 138 167
207 138 167
207 138 167
207 138 167
207 138 167
206 138 167
206 138 167
206 138 167
206 138 167
206 138 167
206 138 167
206 138 167
206 138 167
206 138 167
206 138 167
206 137 167
206 137 167
206 137 167
206 137 167
206 137 167
206 137 167
206 137 167
206 137 167
206 137 167
206 137 168
206 137 168
206 137 168
206 137 168
206 137 168
206 137 168
206 137 168
206 137 168
206 137 168
206 137 168
206 137 168
206 137 168
206 137 168
206 137 168
206 137 168
206 137 168
206 137 168
206 137 168
206 137 168
206 137 168
206 137 168
206 137 168
206 137 168
206 137 168
206 137 168
206 137 168
206 137 168
206 137 168
206 137 168
206 137 168
206 137 168
206 137 168
206 137 168
206 137 168
206 137 168
206 137 168
206 137 168
206 137 168
206 137 168
206 137 168
206 137 168
206 137 168
206 137 168
206 137 168
206 137 168
206 137 168
206 137 168
206 137 167
206 137 167
206 137 167
206 137 167
206 137 167
206 137 167
206 137 167
206 137 167
206 137 167
206 137 167
206 137 167
206 138 167
206 138 167
206 138 167
206 138 167
206 138 167
206 138 167
206 138 167
206 138 167
207 138 167
207 138 167
207 138 167
207 138 167
207 138 167
207 138 167
207 138 167
207 138 167
207 138 167
207 138 167
207 138 167
207 138 167
207 138 167
207 138 167
207 138 167
207 138 167
207 138 167
207 138 167
207 138 167
207 138 167
207 138 167
207 138 167
207 138 167
207 138 167
207 138 167
207 138 167
207 138 166
207 138 166
207 138 166
207 138 166
207 138 166
207 138 166
207 138 166
207 138 166
207 139 166
207 139 166
207 139 166
207 139 166
207 139 166
207 139 166
207 139 166
207 139 166
207 139 166
207 139 166
207 139 166
207 139 166
207 139 166
207 139 166
207 139 166
207 139 166
207 139 166
207 139 166
207 139 166
207 139 166
207 139 166
207 139 166
207 139 166
208 139 166
208 139 166
208 139 166
208 139 166
208 139 166
208 139 165
208 139 165
208 139 165
208 139 165
208 139 165
208 139 165
208 139 165
208 139 165
208 140 165
208 140 165
208 140 165
208 140 165
208 140 165
208 140 165
208 140 165
208 140 165
208 140 165
208 140 165
208 140 165
208 140 165
208 140 165
208 140 165
208 140 165
208 140 165
208 140 165
121 86 84
89 67 50
95 71 56
95 71 54
94 70 54
97 73 55
100 74 58
93 70 54
96 71 56
98 74 53
93 70 54
87 65 50
99 74 56
93 70 53
98 72 59
97 73 55
95 71 54
90 67 51
92 68 55
89 66 51
95 71 54
96 72 55
91 68 52
98 72 58
98 73 57
94 70 53
93 69 54
97 73 53
92 69 53
92 69 53
97 71 58
97 72 58
95 71 56
89 66 50
93 70 52
97 72 56
92 69 53
95 72 52
93 70 53
93 68 56
93 69 56
95 70 56
92 68 54
93 69 54
96 71 57
92 69 53
89 65 54
98 73 56
92 68 54
90 67 52
99 73 57
90 67 52
94 70 56
92 70 50
94 70 55
90 66 56
93 69 56
91 67 55
92 69 52
94 70 56
94 69 57
91 68 52
88 65 53
90 67 52
90 67 53
95 69 59
92 69 53
96 71 57
97 72 57
91 68 52
90 66 54
92 68 54
92 69 52
94 71 53
95 70 56
86 63 53
87 65 50
90 66 53
96 72 56
95 70 56
93 69 53
87 65 50
93 69 55
89 65 54
95 72 54
94 70 55
90 68 52
93 70 54
91 68 53
87 65 50
93 69 54
91 67 53
92 68 53
92 67 56
91 69 50
95 71 53
92 68 55
93 69 54
92 68 55
93 70 52
92 67 56
94 70 54
92 69 52
98 72 58
95 71 55
92 68 55
93 67 58
88 65 52
95 71 57
96 71 57
90 67 51
92 68 53
94 70 54
91 68 52
94 70 53
91 68 51
93 69 55
99 74 58
89 66 53
91 68 51
94 69 58
95 71 55
98 74 54
91 67 53
98 73 58
123 87 83
208 140 165
208 140 165
208 140 165
208 140 165
208 140 165
208 140 165
208 140 165
208 140 165
208 140 165
208 140 165
208 140 165
208 140 165
208 140 165
208 140 165
208 140 165
208 140 165
208 140 165
208 139 165
208 139 165
208 139 165
208 139 165
208 139 165
208 139 165
208 139 165
208 139 166
208 139 166
208 139 166
208 139 166
208 139 166
208 139 166
207 139 166
207 139 166
207 139 166
207 139 166
207 139 166
207 139 166
207 139 166
207 139 166
207 139 166
207 139 166
207 139 166
207 139 166
207 139 166
207 139 166
207 139 166
207 139 166
207 139 166
207 139 166
207 139 166
207 139 166
207 139 166
207 139 166
207 139 166
207 138 166
207 138 166
207 138 166
207 138 166
207 138 166
207 138 166
207 138 166
207 138 166
207 138 167
207 138 167
207 138 167
207 138 167
207 138 167
207 138 167
207 138 167
207 138 167
207 138 167
207 138 167
207 138 167
207 138 167
207 138 167
207 138 167
207 138 167
207 138 167
207 138 167
207 138 167
207 138 167
207 138 167
207 138 167
207 138 167
207 138 167
207 138 167
207 138 167
207 138 167
206 138 167
206 138 167
206 138 167
206 138 167
206 138 167
206 138 167
206 138 167
206 138 167
206 138 167
206 137 167
206 137 167
206 137 167
206 137 167
206 137 167
206 137 167
206 137 167
206 137 167
206 137 167
206 137 168
206 137 168
206 137 168
206 137 168
206 137 168
206 137 168
206 137 168
206 137 168
206 137 168
206 137 168
206 137 168
206 137 168
206 137 168
206 137 168
206 137 168
206 137 168
206 137 168
206 137 168
206 137 168
206 137 168
206 137 168
206 137 168
206 137 168
206 137 168
206 137 168
206 137 168
206 137 168
206 137 168
206 137 168
206 137 168
206 137 168
206 137 168
206 137 168
206 137 168
206 137 168
206 137 168
206 137 168
206 137 168
206 137 168
206 137 168
206 137 168
206 137 168
206 137 168
206 137 168
206 137 168
206 137 168
206 137 168
206 137 168
206 137 168
206 137 168
206 137 168
206 137 168
206 137 168
206 137 168
206 137 168
206 137 168
206 137 168
206 137 168
206 137 168
206 137 168
206 137 168
206 137 168
206 137 168
206 137 168
206 137 168
206 137 168
206 137 168
206 137 168
206 137 168
206 137 168
206 137 168
206 137 168
206 137 168
206 137 168
206 137 168
206 137 168
206 137 168
206 137 168
206 137 168
206 137 168
206 137 167
206 137 167
206 137 167
206 137 167
206 137 167
206 137 167
206 137 167
206 137 167
206 138 167
206 138 167
206 138 167
206 138 167
206 138 167
206 138 167
206 138 167
206 138 167
206 138 167
207 138 167
207 138 167
207 138 167
207 138 167
207 138 167
207 138 167
207 138 167
207 138 167
207 138 167
207 138 167
207 138 167
207 138 167
207 138 167
207 138 167
207 138 167
207 138 167
207 138 167
207 138 167
207 138 167
207 138 167
207 138 167
207 138 167
207 138 167
207 138 167
207 138 167
207 138 167
207 138 166
207 138 166
207 138 166
207 138 166
207 138 166
207 138 166
207 138 166
207 138 166
207 139 166
207 139 166
207 139 166
207 139 166
207 139 166
207 139 166
207 139 166
207 139 166
207 139 166
207 139 166
207 139 166
207 139 166
207 139 166
207 139 166
207 139 166
207 139 166
207 139 166
207 139 166
207 139 166
207 139 166
207 139 166
207 139 166
207 139 166
208 139 166
208 139 166
208 139 166
208 139 166
208 139 166
208 139 166
208 139 166
208 139 165
208 139 165
208 139 165
208 139 165
208 139 165
208 139 165
208 139 165
206 138 164
98 72 58
96 70 59
94 70 53
94 70 52
94 69 56
93 69 54
91 67 55
87 65 52
92 69 53
95 70 57
94 68 59
92 67 56
93 68 58
93 70 54
93 69 54
94 70 53
97 72 58
95 71 56
95 72 52
92 69 53
92 70 51
96 71 56
94 69 56
97 72 57
90 67 51
93 69 56
94 70 53
89 66 53
93 68 56
90 67 52
95 70 58
89 67 52
94 69 57
94 69 57
89 66 52
90 67 51
92 68 55
97 72 56
97 72 56
90 67 53
93 70 53
94 70 54
90 66 55
96 71 59
96 72 55
88 66 49
93 69 55
88 67 49
90 67 52
93 68 58
90 67 53
94 70 54
95 70 55
94 70 54
90 67 53
95 71 54
96 70 59
94 70 53
92 67 56
86 64 49
89 65 54
94 70 57
91 68 53
94 70 54
91 68 53
87 64 53
94 69 58
97 72 58
92 68 54
96 72 55
91 66 58
94 70 55
93 68 55
95 70 59
92 69 54
95 71 54
91 67 55
89 67 51
94 71 54
92 68 55
92 68 53
91 68 51
94 70 56
90 68 51
90 67 53
93 69 55
95 70 55
95 70 56
92 69 54
95 71 55
94 69 57
95 70 55
95 69 58
93 70 52
92 68 55
89 67 50
93 70 51
91 68 54
87 65 51
96 72 54
92 68 54
92 69 52
98 72 60
95 71 55
89 66 52
88 65 52
92 69 54
95 70 56
97 73 55
97 73 56
97 73 55
90 66 53
90 66 55
92 69 52
86 64 49
94 70 57
94 70 55
96 72 54
96 71 57
98 73 56
88 66 50
91 68 52
94 70 53
96 71 57
94 69 56
100 73 61
203 137 161
208 139 165
208 139 165
208 139 165
208 139 165
208 139 165
208 139 165
208 139 165
208 139 165
208 139 166
208 139 166
208 139 166
208 139 166
208 139 166
207 139 166
207 139 166
207 139 166
207 139 166
207 139 166
207 139 166
207 139 166
207 139 166
207 139 166
207 139 166
207 139 166
207 139 166
207 139 166
207 139 166
207 139 166
207 139 166
207 139 166
207 139 166
207 139 166
207 139 166
207 139 166
207 139 166
207 139 166
207 139 166
207 138 166
207 138 166
207 138 166
207 138 166
207 138 166
207 138 166
207 138 167
207 138 167
207 138 167
207 138 167
207 138 167
207 138 167
207 138 167
207 138 167
207 138 167
207 138 167
207 138 167
207 138 167
207 138 167
207 138 167
207 138 167
207 138 167
207 138 167
207 138 167
207 138 167
207 138 167
207 138 167
207 138 167
207 138 167
207 138 167
207 138 167
207 138 167
207 138 167
207 138 167
206 138 167
206 138 167
206 138 167
206 138 167
206 138 167
206 138 167
206 138 167
206 138 167
206 137 167
206 137 167
206 137 167
206 137 167
206 137 167
206 137 167
206 137 167
206 137 167
206 137 167
206 137 167
206 137 168
206 137 168
206 137 168
206 137 168
206 137 168
206 137 168
206 137 168
206 137 168
206 137 168
206 137 168
206 137 168
206 137 168
206 137 168
206 137 168
206 137 168
206 137 168
206 137 168
206 137 168
206 137 168
206 137 168
206 137 168
206 137 168
206 137 168
206 137 168
206 137 168
206 137 168
206 137 168
206 137 168
206 137 168
206 137 168
206 137 168
206 137 168
206 137 168
206 137 168
206 137 168
206 137 168
206 137 168
206 137 168
206 137 168
206 137 168
206 137 168
206 137 168
206 137 168
206 137 168
206 137 168
206 137 168
206 137 168
206 136 169
206 136 169
206 136 169
206 136 169
206 136 169
206 136 169
206 136 169
206 136 169
206 136 168
206 136 168
206 136 168
206 136 168
206 136 168
206 136 168
206 136 168
206 136 168
206 136 168
206 136 168
206 137 168
206 137 168
206 137 168
206 137 168
206 137 168
206 137 168
206 137 168
206 137 168
206 137 168
206 137 168
206 137 168
206 137 168
206 137 168
206 137 168
206 137 168
206 137 168
206 137 168
206 137 168
206 137 168
206 137 168
206 137 168
206 137 168
206 137 168
206 137 168
206 137 168
206 137 168
206 137 168
206 137 168
206 137 168
206 137 168
206 137 168
206 137 168
206 137 168
206 137 168
206 137 168
206 137 168
206 137 168
206 137 168
206 137 168
206 137 168
206 137 168
206 137 168
206 137 168
206 137 168
206 137 168
206 137 168
206 137 167
206 137 167
206 137 167
206 137 167
206 137 167
206 137 167
206 137 167
206 137 167
206 137 167
206 138 167
206 138 167
206 138 167
206 138 167
206 138 167
206 138 167
206 138 167
206 138 167
207 138 167
207 138 167
207 138 167
207 138 167
207 138 167
207 138 167
207 138 167
207 138 167
207 138 167
207 138 167
207 138 167
207 138 167
207 138 167
207 138 167
207 138 167
207 138 167
207 138 167
207 138 167
207 138 167
207 138 167
207 138 167
207 138 167
207 138 167
207 138 167
207 138 167
207 138 167
207 138 167
207 138 166
207 138 166
207 138 166
207 138 166
207 138 166
207 138 166
207 138 166
207 138 166
207 139 166
207 139 166
207 139 166
207 139 166
207 139 166
207 139 166
207 139 166
207 139 166
207 139 166
207 139 166
207 139 166
207 139 166
207 139 166
207 139 166
207 139 166
207 139 166
207 139 166
207 139 166
207 139 166
207 139 166
185 125 144
91 68 53
92 69 52
91 67 54
92 68 55
96 71 57
95 70 56
90 66 55
90 66 55
92 69 53
94 69 56
91 68 50
92 69 54
92 69 54
91 69 51
92 68 55
96 72 55
95 71 57
94 70 53
92 68 56
89 66 52
92 68 55
98 73 58
94 69 56
92 68 54
89 66 51
90 67 54
96 71 56
96 70 59
92 69 52
91 67 54
92 68 53
86 65 45
90 67 52
90 67 51
92 68 54
94 70 55
93 69 55
88 65 53
87 64 53
92 69 49
88 65 53
91 68 51
94 69 55
91 68 52
93 69 54
100 75 57
92 68 55
92 68 54
92 69 53
91 69 50
94 70 54
96 70 60
94 70 55
89 66 54
88 66 50
92 67 57
92 69 51
90 67 51
95 70 57
91 68 52
97 72 57
93 69 54
92 69 52
89 66 53
89 67 50
94 69 55
93 69 56
93 69 54
96 72 54
95 71 55
90 65 56
87 65 48
90 67 53
97 73 55
96 72 55
90 68 50
95 71 54
92 69 53
94 70 55
92 68 54
93 69 57
93 69 54
92 67 56
90 67 53
92 69 51
93 69 53
90 67 52
91 67 55
86 64 51
95 71 53
91 67 54
93 70 53
94 70 55
87 65 49
93 69 56
90 66 55
90 67 52
96 71 56
92 68 55
95 71 56
91 67 53
88 66 49
94 69 59
94 70 55
93 69 53
95 69 59
92 68 54
97 72 57
95 69 59
90 68 50
91 67 53
92 68 54
92 69 53
95 71 54
92 70 49
95 70 56
94 71 51
92 68 53
90 67 52
95 70 56
97 72 59
92 68 54
91 68 52
97 73 55
90 67 52
93 69 56
192 129 151
207 139 166
207 139 166
207 139 166
207 139 166
207 139 166
207 139 166
207 139 166
207 139 166
207 139 166
207 139 166
207 139 166
207 139 166
207 139 166
207 139 166
207 139 166
207 139 166
207 139 166
207 139 166
207 139 166
207 139 166
207 139 166
207 138 166
207 138 166
207 138 166
207 138 166
207 138 166
207 138 166
207 138 166
207 138 166
207 138 167
207 138 167
207 138 167
207 138 167
207 138 167
207 138 167
207 138 167
207 138 167
207 138 167
207 138 167
207 138 167
207 138 167
207 138 167
207 138 167
207 138 167
207 138 167
207 138 167
207 138 167
207 138 167
207 138 167
207 138 167
207 138 167
207 138 167
207 138 167
207 138 167
207 138 167
206 138 167
206 138 167
206 138 167
206 138 167
206 138 167
206 138 167
206 138 167
206 138 167
206 138 167
206 137 167
206 137 167
206 137 167
206 137 167
206 137 167
206 137 167
206 137 167
206 137 167
206 137 168
206 137 168
206 137 168
206 137 168
206 137 168
206 137 168
206 137 168
206 137 168
206 137 168
206 137 168
206 137 168
206 137 168
206 137 168
206 137 168
206 137 168
206 137 168
206 137 168
206 137 168
206 137 168
206 137 168
206 137 168
206 137 168
206 137 168
206 137 168
206 137 168
206 137 168
206 137 168
206 137 168
206 137 168
206 137 168
206 137 168
206 137 168
206 137 168
206 137 168
206 137 168
206 137 168
206 137 168
206 137 168
206 137 168
206 137 168
206 137 168
206 137 168
206 137 168
206 137 168
206 137 168
206 136 168
206 136 168
206 136 168
206 136 168
206 136 168
206 136 168
206 136 168
206 136 168
206 136 168
206 136 168
206 136 168
206 136 169
206 136 169
206 136 169
206 136 169
206 136 169
206 136 169
206 136 169
206 136 169
205 136 169
205 136 169
205 136 169
205 136 169
205 136 169
205 136 169
205 136 169
205 136 169
205 136 169
205 136 169
205 136 169
205 136 169
205 136 169
205 136 169
205 136 169
205 136 169
205 136 169
205 136 169
205 136 169
206 136 169
206 136 169
206 136 169
206 136 169
206 136 169
206 136 169
206 136 169
206 136 169
206 136 169
206 136 168
206 136 168
206 136 168
206 136 168
206 136 168
206 136 168
206 136 168
206 136 168
206 136 168
206 137 168
206 137 168
206 137 168
206 137 168
206 137 168
206 137 168
206 137 168
206 137 168
206 137 168
206 137 168
206 137 168
206 137 168
206 137 168
206 137 168
206 137 168
206 137 168
206 137 168
206 137 168
206 137 168
206 137 168
206 137 168
206 137 168
206 137 168
206 137 168
206 137 168
206 137 168
206 137 168
206 137 168
206 137 168
206 137 168
206 137 168
206 137 168
206 137 168
206 137 168
206 137 168
206 137 168
206 137 168
206 137 168
206 137 168
206 137 168
206 137 168
206 137 168
206 137 168
206 137 168
206 137 168
206 137 167
206 137 167
206 137 167
206 137 167
206 137 167
206 137 167
206 137 167
206 137 167
206 138 167
206 138 167
206 138 167
206 138 167
206 138 167
206 138 167
206 138 167
206 138 167
207 138 167
207 138 167
207 138 167
207 138 167
207 138 167
207 138 167
207 138 167
207 138 167
207 138 167
207 138 167
207 138 167
207 138 167
207 138 167
207 138 167
207 138 167
207 138 167
207 138 167
207 138 167
207 138 167
207 138 167
207 138 167
207 138 167
207 138 167
207 138 167
207 138 167
207 138 167
207 138 167
207 138 166
207 138 166
207 138 166
207 138 166
207 138 166
207 138 166
207 138 166
207 138 166
207 138 166
207 139 166
207 139 166
151 104 110
87 65 49
96 71 59
93 69 56
94 70 55
94 70 54
96 70 58
94 70 54
93 70 54
93 70 53
93 69 56
88 66 50
90 67 53
89 67 52
91 68 53
92 69 52
94 70 57
93 68 57
97 72 58
94 71 54
91 68 53
89 66 51
92 68 56
92 68 54
90 67 54
87 65 49
94 70 53
94 71 52
84 64 46
91 67 54
91 67 54
93 69 53
96 71 55
97 71 58
87 65 50
93 68 55
95 71 55
92 68 55
87 65 49
93 69 53
94 69 58
94 70 56
91 68 52
94 69 57
96 70 60
88 65 52
94 70 56
95 69 59
94 70 55
96 70 59
86 65 48
91 68 54
94 70 56
92 67 55
98 72 59
93 69 55
97 72 57
93 69 55
91 68 54
89 66 55
94 70 56
91 68 53
90 66 55
93 70 50
94 70 55
91 68 52
96 72 55
96 71 57
92 68 56
97 71 59
93 70 53
96 72 53
91 67 54
86 63 52
89 66 51
95 71 54
89 66 54
95 70 56
95 70 58
92 68 54
91 68 54
88 66 50
90 66 53
95 71 55
90 66 53
93 69 54
89 66 52
91 66 57
96 71 58
98 73 58
93 68 56
93 68 58
88 66 51
94 70 56
93 70 52
90 67 52
92 68 54
92 69 53
92 68 54
84 63 49
95 70 58
93 69 53
90 67 52
94 70 55
92 68 55
91 67 54
92 68 54
92 68 54
91 68 53
99 74 58
90 67 52
94 69 56
97 72 56
92 68 55
92 68 53
94 69 56
91 68 53
91 68 52
89 66 52
94 70 54
93 68 56
88 65 53
92 68 54
97 72 56
97 72 56
92 69 52
92 69 55
161 111 120
207 139 166
207 139 166
207 139 166
207 138 166
207 138 166
207 138 166
207 138 166
207 138 166
207 138 166
207 138 166
207 138 167
207 138 167
207 138 167
207 138 167
207 138 167
207 138 167
207 138 167
207 138 167
207 138 167
207 138 167
207 138 167
207 138 167
207 138 167
207 138 167
207 138 167
207 138 167
207 138 167
207 138 167
207 138 167
207 138 167
207 138 167
207 138 167
207 138 167
207 138 167
207 138 167
207 138 167
207 138 167
207 138 167
206 138 167
206 138 167
206 138 167
206 138 167
206 138 167
206 138 167
206 138 167
206 138 167
206 137 167
206 137 167
206 137 167
206 137 167
206 137 167
206 137 167
206 137 167
206 137 168
206 137 168
206 137 168
206 137 168
206 137 168
206 137 168
206 137 168
206 137 168
206 137 168
206 137 168
206 137 168
206 137 168
206 137 168
206 137 168
206 137 168
206 137 168
206 137 168
206 137 168
206 137 168
206 137 168
206 137 168
206 137 168
206 137 168
206 137 168
206 137 168
206 137 168
206 137 168
206 137 168
206 137 168
206 137 168
206 137 168
206 137 168
206 137 168
206 137 168
206 137 168
206 137 168
206 137 168
206 137 168
206 137 168
206 137 168
206 137 168
206 137 168
206 137 168
206 137 168
206 137 168
206 136 168
206 136 168
206 136 168
206 136 168
206 136 168
206 136 168
206 136 168
206 136 168
206 136 168
206 136 168
206 136 169
206 136 169
206 136 169
206 136 169
206 136 169
206 136 169
206 136 169
206 136 169
205 136 169
206 136 169
205 136 169
205 136 169
205 136 169
205 136 169
205 136 169
205 136 169
205 136 169
205 136 169
205 136 169
205 136 169
205 136 169
205 136 169
205 136 169
205 136 169
205 136 169
205 136 169
205 136 169
205 136 169
205 136 169
205 136 169
205 136 169
205 136 169
205 136 169
205 136 169
205 136 169
205 136 169
205 136 169
205 136 169
205 136 169
205 136 169
205 136 169
205 136 169
205 136 169
205 136 169
205 136 169
205 136 169
205 136 169
205 136 169
205 136 169
205 136 169
205 136 169
205 136 169
205 136 169
205 136 169
205 136 169
205 136 169
205 136 169
205 136 169
205 136 169
205 136 169
205 136 169
205 136 169
205 136 169
205 136 169
205 136 169
205 136 169
205 136 169
206 136 169
206 136 169
206 136 169
206 136 169
206 136 169
206 136 169
206 136 169
206 136 169
206 136 169
206 136 168
206 136 168
206 136 168
206 136 168
206 136 168
206 136 168
206 136 168
206 136 168
206 136 168
206 137 168
206 137 168
206 137 168
206 137 168
206 137 168
206 137 168
206 137 168
206 137 168
206 137 168
206 137 168
206 137 168
206 137 168
206 137 168
206 137 168
206 137 168
206 137 168
206 137 168
206 137 168
206 137 168
206 137 168
206 137 168
206 137 168
206 137 168
206 137 168
206 137 168
206 137 168
206 137 168
206 137 168
206 137 168
206 137 168
206 137 168
206 137 168
206 137 168
206 137 168
206 137 168
206 137 168
206 137 168
206 137 168
206 137 168
206 137 168
206 137 168
206 137 168
206 137 168
206 137 168
206 137 167
206 137 167
206 137 167
206 137 167
206 137 167
206 137 167
206 137 167
206 137 167
206 138 167
206 138 167
206 138 167
206 138 167
206 138 167
206 138 167
206 138 167
206 138 167
206 138 167
207 138 167
207 138 167
207 138 167
207 138 167
207 138 167
207 138 167
207 138 167
207 138 167
207 138 167
207 138 167
207 138 167
207 138 167
207 138 167
207 138 167
207 138 167
207 138 167
207 138 167
207 138 167
143 100 103
95 70 57
93 68 57
94 69 57
90 68 52
95 70 56
94 69 56
91 67 55
90 67 53
89 68 49
89 66 52
93 69 56
97 71 57
94 70 56
94 71 53
90 67 52
98 72 59
90 67 53
94 69 55
95 71 56
95 71 54
91 68 50
95 70 56
93 69 54
94 70 53
92 68 55
87 66 48
93 69 55
90 67 52
89 67 51
93 68 57
93 68 57
93 69 53
91 68 51
88 65 50
98 73 58
87 65 51
94 71 53
89 66 54
85 63 51
89 66 53
95 69 58
90 67 52
91 67 55
93 69 54
95 71 55
92 69 53
92 69 50
96 72 54
91 67 56
89 66 53
90 69 49
92 68 56
91 67 54
92 69 52
90 66 53
92 68 55
93 69 54
93 67 59
91 66 58
88 66 49
91 67 56
89 66 53
91 67 57
91 67 54
90 66 55
96 71 58
92 69 51
91 68 52
84 63 47
94 70 56
88 65 50
94 69 57
90 66 53
93 68 55
95 70 57
93 69 54
90 66 55
89 67 51
91 68 52
91 68 52
92 68 53
94 70 56
94 70 56
90 68 51
90 68 52
90 66 54
94 70 56
92 68 55
91 68 53
87 65 50
92 68 54
92 68 54
96 72 55
91 68 51
92 68 55
94 70 54
93 69 55
92 68 55
92 70 50
87 65 49
92 69 53
94 68 60
90 66 54
91 68 54
93 69 54
93 70 53
90 66 53
94 69 57
91 68 53
98 72 58
92 68 54
93 70 54
93 69 53
92 69 52
95 70 55
94 70 54
89 66 50
94 70 55
91 67 53
90 67 53
92 68 55
91 68 54
91 68 54
93 70 54
93 69 54
94 69 57
145 101 104
207 138 167
207 138 167
207 138 167
207 138 167
207 138 167
207 138 167
207 138 167
207 138 167
207 138 167
207 138 167
207 138 167
207 138 167
207 138 167
207 138 167
207 138 167
207 138 167
207 138 167
207 138 167
206 138 167
206 138 167
206 138 167
206 138 167
206 138 167
206 138 167
206 138 167
206 138 167
206 138 167
206 137 167
206 137 167
206 137 167
206 137 167
206 137 167
206 137 167
206 137 167
206 137 167
206 137 167
206 137 168
206 137 168
206 137 168
206 137 168
206 137 168
206 137 168
206 137 168
206 137 168
206 137 168
206 137 168
206 137 168
206 137 168
206 137 168
206 137 168
206 137 168
206 137 168
206 137 168
206 137 168
206 137 168
206 137 168
206 137 168
206 137 168
206 137 168
206 137 168
206 137 168
206 137 168
206 137 168
206 137 168
206 137 168
206 137 168
206 137 168
206 137 168
206 137 168
206 137 168
206 137 168
206 137 168
206 137 168
206 137 168
206 137 168
206 137 168
206 137 168
206 137 168
206 137 168
206 136 168
206 136 168
206 136 168
206 136 168
206 136 168
206 136 168
206 136 168
206 136 168
206 136 168
206 136 169
206 136 168
206 136 169
206 136 169
206 136 169
206 136 169
206 136 169
206 136 169
205 136 169
205 136 169
205 136 169
205 136 169
205 136 169
205 136 169
205 136 169
205 136 169
205 136 169
205 136 169
205 136 169
205 136 169
205 136 169
205 136 169
205 136 169
205 136 169
205 136 169
205 136 169
205 136 169
205 136 169
205 136 169
205 136 169
205 136 169
205 136 169
205 136 169
205 136 169
205 136 169
205 136 169
205 136 169
205 136 169
205 136 169
205 136 169
205 136 169
205 136 169
205 136 169
205 136 169
205 136 169
205 136 169
205 136 169
205 136 169
205 135 169
205 135 169
205 135 169
205 135 169
205 135 169
205 135 169
205 136 169
205 136 169
205 136 169
205 136 169
205 136 169
205 136 169
205 136 169
205 136 169
205 136 169
205 136 169
205 136 169
205 136 169
205 136 169
205 136 169
205 136 169
205 136 169
205 136 169
205 136 169
205 136 169
205 136 169
205 136 169
205 136 169
205 136 169
205 136 169
205 136 169
205 136 169
205 136 169
205 136 169
205 136 169
205 136 169
205 136 169
205 136 169
205 136 169
205 136 169
205 136 169
205 136 169
205 136 169
205 136 169
205 136 169
205 136 169
205 136 169
205 136 169
205 136 169
205 136 169
205 136 169
205 136 169
205 136 169
205 136 169
205 136 169
205 136 169
205 136 169
205 136 169
205 136 169
205 136 169
205 136 169
206 136 169
206 136 169
206 136 169
206 136 169
206 136 169
206 136 169
206 136 169
206 136 169
206 136 168
206 136 168
206 136 168
206 136 168
206 136 168
206 136 168
206 136 168
206 137 168
206 136 168
206 137 168
206 137 168
206 137 168
206 137 168
206 137 168
206 137 168
206 137 168
206 137 168
206 137 168
206 137 168
206 137 168
206 137 168
206 137 168
206 137 168
206 137 168
206 137 168
206 137 168
206 137 168
206 137 168
206 137 168
206 137 168
206 137 168
206 137 168
206 137 168
206 137 168
206 137 168
206 137 168
206 137 168
206 137 168
206 137 168
206 137 168
206 137 168
206 137 168
206 137 168
206 137 168
206 137 168
206 137 168
206 137 168
206 137 168
206 137 168
206 137 168
206 137 168
206 137 168
206 137 168
206 137 167
206 137 167
206 137 167
206 137 167
206 137 167
206 137 167
206 137 167
206 137 167
206 137 167
206 138 167
206 138 167
206 138 167
206 138 167
206 138 167
112 80 75
93 69 54
91 68 52
93 70 50
97 72 55
94 70 55
93 70 53
88 66 50
91 68 52
89 65 53
86 65 47
92 68 54
86 64 49
89 66 52
95 70 58
91 68 54
93 70 52
96 71 56
87 65 50
89 66 53
93 69 53
94 70 52
92 69 51
92 69 52
88 66 52
92 69 53
91 67 54
93 69 53
91 69 50
91 67 54
92 69 51
89 65 56
94 70 56
90 67 51
92 69 53
94 70 57
93 68 56
92 67 58
92 69 54
90 67 53
93 69 55
88 65 51
87 64 51
91 67 54
96 72 55
94 69 57
93 69 53
88 66 51
93 69 53
90 68 51
84 63 48
91 68 52
94 70 55
87 65 50
87 64 50
92 68 53
94 70 53
92 67 57
91 68 52
92 68 55
89 67 51
91 67 53
95 70 56
97 72 58
85 63 52
95 71 52
88 66 50
94 70 55
93 68 57
91 67 54
93 69 57
95 70 57
98 73 59
92 69 52
91 67 55
93 70 53
86 64 49
92 68 53
91 67 55
93 68 57
91 68 53
86 64 51
90 66 54
87 65 50
87 64 53
91 67 53
92 69 52
92 68 55
93 68 57
92 67 56
93 68 57
91 67 52
90 67 53
91 68 50
95 70 55
91 69 51
89 66 53
92 68 55
93 69 54
95 70 57
88 64 56
91 68 53
91 68 53
96 71 57
93 70 53
90 67 52
89 67 51
97 72 57
88 65 51
93 70 51
90 67 52
90 67 52
90 65 56
90 67 54
94 69 56
93 69 53
91 68 52
95 71 53
97 72 56
95 70 56
97 73 55
94 69 56
90 68 50
92 69 53
94 71 51
91 67 53
94 69 58
109 79 71
206 138 167
206 138 167
206 138 167
206 138 167
206 138 167
206 138 167
206 137 167
206 137 167
206 137 167
206 137 167
206 137 167
206 137 167
206 137 167
206 137 167
206 137 168
206 137 168
206 137 168
206 137 168
206 137 168
206 137 168
206 137 168
206 137 168
206 137 168
206 137 168
206 137 168
206 137 168
206 137 168
206 137 168
206 137 168
206 137 168
206 137 168
206 137 168
206 137 168
206 137 168
206 137 168
206 137 168
206 137 168
206 137 168
206 137 168
206 137 168
206 137 168
206 137 168
206 137 168
206 137 168
206 137 168
206 137 168
206 137 168
206 137 168
206 137 168
206 137 168
206 137 168
206 137 168
206 137 168
206 137 168
206 137 168
206 137 168
206 137 168
206 137 168
206 136 168
206 136 168
206 136 168
206 136 168
206 136 168
206 136 168
206 136 168
206 136 168
206 136 168
206 136 168
206 136 169
206 136 169
206 136 169
206 136 169
206 136 169
206 136 169
206 136 169
205 136 169
205 136 169
205 136 169
205 136 169
205 136 169
205 136 169
205 136 169
205 136 169
205 136 169
205 136 169
205 136 169
205 136 169
205 136 169
205 136 169
205 136 169
205 136 169
205 136 169
205 136 169
205 136 169
205 136 169
205 136 169
205 136 169
205 136 169
205 136 169
205 136 169
205 136 169
205 136 169
205 136 169
205 136 169
205 136 169
205 136 169
205 136 169
205 136 169
205 136 169
205 136 169
205 136 169
205 136 169
205 136 169
205 136 169
205 136 169
205 136 169
205 136 169
205 136 169
205 136 169
205 136 169
205 136 169
205 136 169
205 136 169
205 136 169
205 136 169
205 136 169
205 136 169
205 136 169
205 136 169
205 136 169
205 135 169
205 135 169
205 135 169
205 135 169
205 135 169
205 135 169
205 135 170
205 135 170
205 135 170
205 135 170
205 135 170
205 135 170
205 135 170
205 135 170
205 135 170
205 135 170
205 135 170
205 135 170
205 135 170
205 135 170
205 135 170
205 135 170
205 135 170
205 135 170
205 135 170
205 135 170
205 135 169
205 135 169
205 135 169
205 135 169
205 135 169
205 135 169
205 135 169
205 135 169
205 135 169
205 135 169
205 135 169
205 135 169
205 136 169
205 136 169
205 136 169
205 136 169
205 136 169
205 136 169
205 136 169
205 136 169
205 136 169
205 136 169
205 136 169
205 136 169
205 136 169
205 136 169
205 136 169
205 136 169
205 136 169
205 136 169
205 136 169
205 136 169
205 136 169
205 136 169
205 136 169
205 136 169
205 136 169
205 136 169
205 136 169
205 136 169
205 136 169
205 136 169
205 136 169
205 136 169
205 136 169
205 136 169
205 136 169
205 136 169
205 136 169
205 136 169
205 136 169
205 136 169
205 136 169
205 136 169
205 136 169
205 136 169
205 136 169
205 136 169
205 136 169
205 136 169
205 136 169
205 136 169
205 136 169
206 136 169
206 136 169
206 136 169
206 136 169
206 136 169
206 136 169
206 136 169
206 136 168
206 136 168
206 136 168
206 136 168
206 136 168
206 136 168
206 136 168
206 136 168
206 136 168
206 137 168
206 137 168
206 137 168
206 137 168
206 137 168
206 137 168
206 137 168
206 137 168
206 137 168
206 137 168
206 137 168
206 137 168
206 137 168
206 137 168
206 137 168
206 137 168
206 137 168
206 137 168
206 137 168
206 137 168
206 137 168
206 137 168
206 137 168
206 137 168
206 137 168
206 137 168
206 137 168
206 137 168
206 137 168
206 137 168
206 137 168
206 137 168
206 137 168
206 137 168
206 137 168
206 137 168
204 135 166
98 72 60
95 71 52
90 67 51
90 66 55
91 68 52
93 70 52
95 71 56
88 64 54
94 69 55
91 67 53
92 69 53
89 65 54
93 69 54
90 67 54
94 69 56
93 69 54
90 67 52
90 66 55
93 68 56
90 66 55
88 66 50
91 68 54
92 69 54
87 65 50
92 68 53
89 66 51
92 68 56
91 66 57
91 68 52
87 63 54
89 66 53
93 68 56
89 66 51
90 67 53
94 69 55
90 67 52
91 67 54
90 67 52
92 68 55
91 67 53
95 70 57
89 66 53
94 70 55
90 67 52
94 69 56
95 71 54
88 66 50
92 67 55
93 69 52
89 67 52
92 67 56
86 64 51
91 67 56
97 71 57
86 65 49
91 68 52
90 66 55
90 68 49
93 68 56
87 65 51
94 70 56
89 66 53
97 71 59
91 67 55
92 69 53
88 65 52
90 66 54
89 66 53
88 65 53
91 68 53
94 69 56
92 69 54
90 66 55
90 68 50
91 68 53
92 68 55
88 66 49
89 67 50
90 67 52
89 66 53
97 71 57
90 66 55
90 67 53
91 68 53
90 67 54
92 68 56
92 68 54
92 68 52
94 69 56
90 67 52
85 63 51
89 65 54
91 67 53
92 67 56
87 64 51
94 69 58
87 65 50
95 69 59
95 71 55
89 66 52
93 69 55
90 67 54
88 66 49
87 64 53
89 65 54
91 68 54
93 70 54
91 69 51
90 66 55
94 69 55
88 66 48
90 66 54
89 67 52
93 70 53
91 68 52
89 66 52
92 68 53
89 66 53
90 66 54
92 68 56
92 67 56
92 68 54
93 69 54
91 67 54
94 69 56
96 72 54
91 68 53
102 75 63
206 137 168
206 137 168
206 137 168
206 137 168
206 137 168
206 137 168
206 137 168
206 137 168
206 137 168
206 137 168
206 137 168
206 137 168
206 137 168
206 137 168
206 137 168
206 137 168
206 137 168
206 137 168
206 137 168
206 137 168
206 137 168
206 137 168
206 137 168
206 137 168
206 137 168
206 137 168
206 137 168
206 137 168
206 137 168
206 137 168
206 137 168
206 137 168
206 137 168
206 137 168
206 137 168
206 137 168
206 136 168
206 136 168
206 136 168
206 136 168
206 136 168
206 136 168
206 136 168
206 136 168
206 136 168
206 136 169
206 136 169
206 136 169
206 136 169
206 136 169
206 136 169
206 136 169
206 136 169
205 136 169
205 136 169
205 136 169
205 136 169
205 136 169
205 136 169
205 136 169
205 136 169
205 136 169
205 136 169
205 136 169
205 136 169
205 136 169
205 136 169
205 136 169
205 136 169
205 136 169
205 136 169
205 136 169
205 136 169
205 136 169
205 136 169
205 136 169
205 136 169
205 136 169
205 136 169
205 136 169
205 136 169
205 136 169
205 136 169
205 136 169
205 136 169
205 136 169
205 136 169
205 136 169
205 136 169
205 136 169
205 136 169
205 136 169
205 136 169
205 136 169
205 136 169
205 136 169
205 136 169
205 136 169
205 136 169
205 136 169
205 136 169
205 136 169
205 136 169
205 136 169
205 136 169
205 135 169
205 135 169
205 135 169
205 135 169
205 135 169
205 135 169
205 135 169
205 135 169
205 135 169
205 135 169
205 135 169
205 135 169
205 135 170
205 135 170
205 135 170
205 135 170
205 135 170
205 135 170
205 135 170
205 135 170
205 135 170
205 135 170
205 135 170
205 135 170
205 135 170
205 135 170
205 135 170
205 135 170
205 135 170
205 135 170
205 135 170
205 135 170
205 135 170
205 135 170
205 135 170
205 135 170
205 135 170
205 135 170
205 135 170
205 135 170
205 135 170
205 135 170
205 135 170
205 135 170
205 135 170
205 135 170
205 135 170
205 135 170
205 135 170
205 135 170
205 135 170
205 135 170
205 135 170
205 135 170
205 135 170
205 135 170
205 135 170
205 135 170
205 135 170
205 135 170
205 135 170
205 135 170
205 135 170
205 135 170
205 135 170
205 135 170
205 135 170
205 135 170
205 135 170
205 135 170
205 135 170
205 135 170
205 135 170
205 135 170
205 135 170
205 135 170
205 135 169
205 135 170
205 135 169
205 135 169
205 135 169
205 135 169
205 135 169
205 135 169
205 135 169
205 135 169
205 135 169
205 135 169
205 135 169
205 135 169
205 136 169
205 136 169
205 136 169
205 136 169
205 136 169
205 136 169
205 136 169
205 136 169
205 136 169
205 136 169
205 136 169
205 136 169
205 136 169
205 136 169
205 136 169
205 136 169
205 136 169
205 136 169
205 136 169
205 136 169
205 136 169
205 136 169
205 136 169
205 136 169
205 136 169
205 136 169
205 136 169
205 136 169
205 136 169
205 136 169
205 136 169
205 136 169
205 136 169
205 136 169
205 136 169
205 136 169
205 136 169
205 136 169
205 136 169
205 136 169
205 136 169
205 136 169
205 136 169
205 136 169
205 136 169
205 136 169
205 136 169
205 136 169
205 136 169
205 136 169
206 136 169
206 136 169
206 136 169
206 136 169
206 136 169
206 136 169
206 136 168
206 136 168
206 136 168
206 136 168
206 136 168
206 136 168
206 136 168
206 136 168
206 136 168
206 136 168
206 137 168
206 137 168
206 137 168
206 137 168
206 137 168
206 137 168
206 137 168
206 137 168
206 137 168
206 137 168
194 129 158
92 69 52
87 64 52
94 69 56
98 73 56
93 69 55
95 70 58
93 69 55
89 66 53
90 67 51
90 67 53
90 67 53
92 68 55
90 67 53
90 67 52
93 69 55
96 71 58
92 69 53
90 66 55
93 69 55
92 68 54
92 68 56
87 65 50
95 71 54
93 69 55
90 67 53
91 66 58
89 65 54
85 63 49
89 65 55
91 68 52
91 67 56
92 67 58
91 68 52
90 68 51
89 66 54
89 66 54
89 67 49
90 67 52
91 67 55
88 66 48
90 66 54
91 68 51
88 66 49
93 69 55
94 70 55
83 62 48
91 67 54
89 67 50
88 65 53
92 69 53
92 68 55
92 68 55
94 70 55
86 64 50
90 67 53
90 67 51
89 67 50
89 66 52
94 70 57
88 65 52
92 69 52
93 68 57
89 66 54
89 66 54
93 70 52
89 66 54
93 68 56
88 66 50
91 67 54
87 65 49
93 68 58
95 70 56
89 67 52
92 68 55
92 68 55
93 69 55
89 66 53
92 68 56
92 68 57
92 68 55
91 68 52
93 69 54
91 68 52
92 69 52
91 68 52
89 66 52
94 70 52
92 68 56
92 68 55
94 69 58
94 70 57
93 69 56
96 71 56
91 68 52
94 69 57
91 66 55
93 68 56
91 68 52
86 64 50
90 68 50
87 64 51
91 67 54
91 67 54
89 66 52
91 68 51
95 71 56
92 68 55
99 73 60
93 69 55
88 66 50
94 70 54
90 66 53
88 66 49
93 68 58
86 64 52
91 68 54
91 67 54
93 69 55
94 71 53
96 72 54
92 69 54
89 66 51
95 71 54
89 65 54
92 69 53
93 69 55
90 67 52
93 68 58
196 131 159
206 137 168
206 137 168
206 137 168
206 137 168
206 137 168
206 137 168
206 137 168
206 137 168
206 137 168
206 136 168
206 136 168
206 136 168
206 136 168
206 136 168
206 136 168
206 136 168
206 136 168
206 136 168
206 136 168
206 136 169
206 136 169
206 136 169
206 136 169
206 136 169
206 136 169
206 136 169
205 136 169
206 136 169
205 136 169
205 136 169
205 136 169
205 136 169
205 136 169
205 136 169
205 136 169
205 136 169
205 136 169
205 136 169
205 136 169
205 136 169
205 136 169
205 136 169
205 136 169
205 136 169
205 136 169
205 136 169
205 136 169
205 136 169
205 136 169
205 136 169
205 136 169
205 136 169
205 136 169
205 136 169
205 136 169
205 136 169
205 136 169
205 136 169
205 136 169
205 136 169
205 136 169
205 136 169
205 136 169
205 136 169
205 136 169
205 136 169
205 136 169
205 136 169
205 136 169
205 136 169
205 136 169
205 136 169
205 136 169
205 136 169
205 136 169
205 136 169
205 136 169
205 135 169
205 135 169
205 135 169
205 135 169
205 135 169
205 135 169
205 135 169
205 135 169
205 135 169
205 135 169
205 135 169
205 135 170
205 135 170
205 135 170
205 135 170
205 135 170
205 135 170
205 135 170
205 135 170
205 135 170
205 135 170
205 135 170
205 135 170
205 135 170
205 135 170
205 135 170
205 135 170
205 135 170
205 135 170
205 135 170
205 135 170
205 135 170
205 135 170
205 135 170
205 135 170
205 135 170
205 135 170
205 135 170
205 135 170
205 135 170
205 135 170
205 135 170
205 135 170
205 135 170
205 135 170
205 135 170
205 135 170
205 135 170
205 135 170
205 135 170
205 135 170
205 135 170
205 135 170
205 135 170
205 135 170
205 135 170
205 135 170
205 135 170
204 135 170
204 135 170
204 135 170
204 135 170
204 135 170
204 135 170
204 135 170
204 135 170
204 135 170
204 135 170
204 135 170
204 135 170
204 135 170
204 135 170
204 135 170
204 135 170
204 135 170
204 135 170
205 135 170
205 135 170
205 135 170
205 135 170
205 135 170
205 135 170
205 135 170
205 135 170
205 135 170
205 135 170
205 135 170
205 135 170
205 135 170
205 135 170
205 135 170
205 135 170
205 135 170
205 135 170
205 135 170
205 135 170
205 135 170
205 135 170
205 135 170
205 135 170
205 135 170
205 135 170
205 135 170
205 135 170
205 135 170
205 135 170
205 135 170
205 135 170
205 135 170
205 135 170
205 135 170
205 135 170
205 135 170
205 135 170
205 135 170
205 135 170
205 135 170
205 135 170
205 135 170
205 135 170
205 135 170
205 135 170
205 135 170
205 135 170
205 135 170
205 135 170
205 135 170
205 135 170
205 135 170
205 135 170
205 135 170
205 135 170
205 135 170
205 135 169
205 135 169
205 135 169
205 135 169
205 135 169
205 135 169
205 135 169
205 135 169
205 135 169
205 135 169
205 136 169
205 135 169
205 136 169
205 136 169
205 136 169
205 136 169
205 136 169
205 136 169
205 136 169
205 136 169
205 136 169
205 136 169
205 136 169
205 136 169
205 136 169
205 136 169
205 136 169
205 136 169
205 136 169
205 136 169
205 136 169
205 136 169
205 136 169
205 136 169
205 136 169
205 136 169
205 136 169
205 136 169
205 136 169
205 136 169
205 136 169
205 136 169
205 136 169
205 136 169
205 136 169
205 136 169
205 136 169
205 136 169
205 136 169
205 136 169
205 136 169
205 136 169
205 136 169
205 136 169
205 136 169
205 136 169
205 136 169
205 136 169
205 136 169
205 136 169
187 125 150
93 68 55
93 70 51
90 66 54
94 70 55
87 64 54
93 69 55
94 69 56
89 67 50
92 69 54
92 68 54
93 68 57
87 65 50
90 66 55
90 66 56
86 62 55
90 66 55
93 68 56
90 68 50
95 71 56
90 67 52
90 66 56
91 67 53
93 69 55
87 64 52
94 69 56
89 66 54
88 65 53
92 68 55
85 64 49
94 68 58
85 63 50
93 69 54
88 65 54
91 67 53
90 66 54
91 66 57
94 69 55
89 66 50
83 62 46
90 67 53
93 69 54
90 66 55
93 68 57
91 67 54
93 69 56
90 66 52
90 66 54
91 66 56
89 65 53
88 65 53
86 64 50
87 64 54
90 67 54
91 67 54
86 64 51
87 65 50
90 67 51
89 67 51
94 69 57
91 68 54
92 68 56
88 65 53
88 65 52
91 68 52
88 67 48
91 67 55
92 68 52
88 65 51
91 68 53
85 64 49
89 66 53
90 67 52
95 70 57
85 63 49
90 67 53
85 62 53
91 68 52
84 63 48
92 68 54
91 67 53
90 66 55
91 67 52
87 63 54
89 65 56
86 64 51
89 65 55
86 64 51
95 70 56
93 69 55
86 64 48
91 67 54
88 66 50
94 69 56
91 67 54
88 65 53
93 68 57
91 67 54
89 67 50
87 65 50
93 70 52
89 67 51
88 64 54
87 66 49
92 69 54
90 66 54
86 63 52
91 68 53
91 68 53
90 67 53
88 65 52
91 69 50
90 67 52
89 66 52
90 68 51
86 64 51
89 65 53
92 68 56
93 69 54
92 68 56
92 68 54
92 68 54
91 67 54
93 69 56
91 67 53
88 65 53
96 71 57
89 67 50
90 67 53
178 119 142
205 136 169
205 136 169
205 136 169
205 136 169
205 136 169
205 136 169
205 136 169
205 136 169
205 136 169
205 136 169
205 136 169
205 136 169
205 136 169
205 136 169
205 136 169
205 136 169
205 136 169
205 136 169
205 136 169
205 136 169
205 136 169
205 136 169
205 136 169
205 136 169
205 136 169
205 136 169
205 136 169
205 136 169
205 136 169
205 136 169
205 136 169
205 136 169
205 136 169
205 136 169
205 136 169
205 136 169
205 136 169
205 136 169
205 136 169
205 136 169
205 136 169
205 136 169
205 136 169
205 136 169
205 136 169
205 136 169
205 136 169
205 136 169
205 136 169
205 135 169
205 135 169
205 135 169
205 135 169
205 135 169
205 135 169
205 135 169
205 135 169
205 135 169
205 135 169
205 135 169
205 135 170
205 135 170
205 135 170
205 135 170
205 135 170
205 135 170
205 135 170
205 135 170
205 135 170
205 135 170
205 135 170
205 135 170
205 135 170
205 135 170
205 135 170
205 135 170
205 135 170
205 135 170
205 135 170
205 135 170
205 135 170
205 135 170
205 135 170
205 135 170
205 135 170
205 135 170
205 135 170
205 135 170
205 135 170
205 135 170
205 135 170
205 135 170
205 135 170
205 135 170
205 135 170
205 135 170
205 135 170
205 135 170
205 135 170
205 135 170
205 135 170
205 135 170
205 135 170
205 135 170
205 135 170
205 135 170
205 135 170
205 135 170
205 135 170
205 135 170
205 135 170
205 135 170
205 135 170
205 135 170
205 135 170
205 135 170
205 135 170
205 135 170
204 135 170
204 135 170
204 135 170
204 135 170
204 135 170
204 135 170
204 135 170
204 135 170
204 135 170
204 135 170
204 135 170
204 135 170
204 135 170
204 135 170
204 135 170
204 135 170
204 135 170
204 134 171
204 134 171
204 134 170
204 134 170
204 134 170
204 134 170
204 134 170
204 134 170
204 134 170
204 134 170
204 134 170
204 134 170
204 134 170
204 134 170
204 134 170
204 134 170
204 134 170
204 134 170
204 134 170
204 135 170
204 135 170
204 135 170
204 135 170
204 135 170
204 135 170
204 135 170
204 135 170
204 135 170
204 135 170
204 135 170
204 135 170
204 135 170
204 135 170
204 135 170
204 135 170
204 135 170
204 135 170
204 135 170
204 135 170
204 135 170
204 135 170
204 135 170
204 135 170
204 135 170
204 135 170
204 135 170
204 135 170
204 135 170
204 135 170
204 135 170
204 135 170
204 135 170
205 135 170
205 135 170
205 135 170
205 135 170
205 135 170
205 135 170
205 135 170
205 135 170
205 135 170
205 135 170
205 135 170
205 135 170
205 135 170
205 135 170
205 135 170
205 135 170
205 135 170
205 135 170
205 135 170
205 135 170
205 135 170
205 135 170
205 135 170
205 135 170
205 135 170
205 135 170
205 135 170
205 135 170
205 135 170
205 135 170
205 135 170
205 135 170
205 135 170
205 135 170
205 135 170
205 135 170
205 135 170
205 135 170
205 135 170
205 135 170
205 135 170
205 135 170
205 135 170
205 135 170
205 135 170
205 135 170
205 135 170
205 135 170
205 135 170
205 135 170
205 135 170
205 135 170
205 135 170
205 135 170
205 135 170
205 135 169
205 135 169
205 135 169
205 135 169
205 135 169
205 135 169
205 135 169
205 135 169
205 135 169
205 135 169
205 135 169
205 135 169
205 135 169
205 136 169
205 136 169
205 136 169
205 136 169
205 136 169
205 136 169
205 136 169
205 136 169
205 136 169
205 136 169
205 136 169
205 136 169
205 136 169
205 136 169
205 136 169
169 114 132
90 67 52
90 65 57
86 64 50
93 69 56
89 67 51
91 68 54
86 64 49
96 72 57
91 68 52
88 65 52
94 69 58
84 62 50
96 71 56
84 62 50
92 69 54
82 61 48
87 65 50
90 68 49
90 67 52
91 67 53
88 66 51
92 68 53
89 66 51
90 67 52
90 66 54
90 66 55
85 64 48
87 65 50
86 64 49
94 70 54
90 67 52
91 67 55
91 67 55
90 67 50
92 68 53
91 66 55
85 64 46
96 71 57
90 67 52
87 65 49
88 65 54
82 62 47
96 70 59
86 63 52
83 63 44
88 65 52
92 68 55
92 70 50
90 66 54
95 70 56
88 66 50
89 66 52
89 66 52
86 65 49
87 64 52
88 65 52
91 68 53
84 62 50
94 69 55
87 65 50
90 67 53
90 67 51
89 67 51
89 66 54
89 66 53
92 68 55
86 64 50
87 65 51
93 69 56
88 65 52
88 66 51
92 67 58
93 70 54
88 65 52
91 67 56
85 63 50
86 64 52
89 66 54
89 65 53
93 69 55
92 68 54
90 66 53
91 67 55
86 64 49
90 67 53
87 65 51
87 65 49
86 64 50
82 61 46
92 68 54
90 66 54
89 66 50
91 68 54
84 63 47
89 66 51
86 63 52
89 65 53
90 66 54
89 66 51
87 65 49
91 68 51
91 67 54
95 71 55
88 66 50
91 68 53
92 68 56
88 65 53
89 67 51
85 63 50
93 69 54
91 68 53
93 69 52
88 66 51
93 69 55
89 66 52
91 67 53
94 69 57
89 66 52
97 72 58
92 68 56
94 70 56
87 65 49
92 69 52
89 66 52
89 65 53
93 68 55
93 68 56
90 66 54
164 111 128
205 136 169
205 136 169
205 136 169
205 136 169
205 136 169
205 136 169
205 136 169
205 136 169
205 136 169
205 136 169
205 136 169
205 136 169
205 136 169
205 136 169
205 136 169
205 136 169
205 136 169
205 136 169
205 135 169
205 135 169
205 135 169
205 135 169
205 135 169
205 135 169
205 135 169
205 135 169
205 135 169
205 135 169
205 135 170
205 135 170
205 135 170
205 135 170
205 135 170
205 135 170
205 135 170
205 135 170
205 135 170
205 135 170
205 135 170
205 135 170
205 135 170
205 135 170
205 135 170
205 135 170
205 135 170
205 135 170
205 135 170
205 135 170
205 135 170
205 135 170
205 135 170
205 135 170
205 135 170
205 135 170
205 135 170
205 135 170
205 135 170
205 135 170
205 135 170
205 135 170
205 135 170
205 135 170
205 135 170
205 135 170
205 135 170
205 135 170
205 135 170
205 135 170
205 135 170
205 135 170
205 135 170
205 135 170
205 135 170
205 135 170
205 135 170
205 135 170
205 135 170
205 135 170
205 135 170
205 135 170
205 135 170
204 135 170
205 135 170
205 135 170
204 135 170
204 135 170
204 135 170
204 135 170
204 135 170
204 135 170
204 135 170
204 135 170
204 135 170
204 135 170
204 135 170
204 135 170
204 135 170
204 135 170
204 135 170
204 135 170
204 135 170
204 135 170
204 135 170
204 135 170
204 135 170
204 135 170
204 135 170
204 135 170
204 135 170
204 135 170
204 135 170
204 135 170
204 135 170
204 135 170
204 135 170
204 134 170
204 134 170
204 134 170
204 134 170
204 134 170
204 134 170
204 134 170
204 134 170
204 134 170
204 134 170
204 134 170
204 134 170
204 134 170
204 134 170
204 134 170
204 134 170
204 134 170
204 134 170
204 134 171
204 134 171
204 134 171
204 134 171
204 134 171
204 134 171
204 134 171
204 134 171
204 134 171
204 134 171
204 134 171
204 134 171
204 134 171
204 134 171
204 134 171
204 134 171
204 134 171
204 134 171
204 134 171
204 134 171
204 134 171
204 134 171
204 134 171
204 134 171
204 134 171
204 134 171
204 134 171
204 134 171
204 134 171
204 134 171
204 134 171
204 134 171
204 134 171
204 134 171
204 134 171
204 134 171
204 134 171
204 134 171
204 134 171
204 134 171
204 134 171
204 134 171
204 134 171
204 134 171
204 134 171
204 134 170
204 134 171
204 134 170
204 134 170
204 134 170
204 134 170
204 134 170
204 134 170
204 134 170
204 134 170
204 134 170
204 134 170
204 134 170
204 134 170
204 134 170
204 135 170
204 135 170
204 135 170
204 135 170
204 135 170
204 135 170
204 135 170
204 135 170
204 135 170
204 135 170
204 135 170
204 135 170
204 135 170
204 135 170
204 135 170
204 135 170
204 135 170
204 135 170
204 135 170
204 135 170
204 135 170
204 135 170
204 135 170
204 135 170
204 135 170
204 135 170
204 135 170
204 135 170
204 135 170
204 135 170
204 135 170
204 135 170
205 135 170
205 135 170
205 135 170
205 135 170
205 135 170
205 135 170
205 135 170
205 135 170
205 135 170
205 135 170
205 135 170
205 135 170
205 135 170
205 135 170
205 135 170
205 135 170
205 135 170
205 135 170
205 135 170
205 135 170
205 135 170
205 135 170
205 135 170
205 135 170
205 135 170
205 135 170
205 135 170
205 135 170
205 135 170
205 135 170
205 135 170
205 135 170
205 135 170
205 135 170
205 135 170
205 135 170
205 135 170
205 135 170
205 135 170
205 135 170
205 135 170
205 135 170
205 135 170
205 135 170
205 135 170
150 101 116
83 61 51
92 67 56
87 64 51
87 64 54
92 67 55
94 70 56
92 68 54
90 66 55
91 67 53
95 69 60
92 69 53
89 66 52
93 68 55
94 69 56
90 67 52
91 67 56
92 69 54
86 63 51
87 64 52
91 67 56
93 69 55
88 66 50
88 66 50
89 66 52
90 66 56
95 71 54
91 68 51
86 64 52
88 64 53
88 65 52
89 65 54
95 71 55
93 70 54
90 67 53
90 67 53
86 64 50
85 63 49
90 67 52
87 64 54
90 66 54
89 65 53
91 67 55
87 64 51
86 64 50
87 65 49
88 66 49
90 67 52
92 68 55
92 68 54
92 68 55
90 67 54
85 63 50
89 66 52
90 67 52
89 67 51
88 66 50
90 67 52
89 65 56
89 66 52
91 67 53
89 65 54
94 70 56
86 63 52
88 65 50
91 67 53
90 67 54
92 68 53
90 66 53
91 66 57
92 69 51
91 67 53
89 65 54
91 67 55
94 70 54
89 67 49
88 66 52
93 69 55
87 64 50
93 68 57
93 69 54
89 67 49
92 68 54
88 65 52
86 63 54
90 66 53
89 67 51
91 67 55
87 65 51
93 69 55
89 65 53
91 67 54
92 69 53
93 69 53
83 62 47
87 65 49
90 66 52
92 68 55
84 62 49
91 67 53
92 68 53
90 66 53
91 67 54
86 65 48
92 67 58
89 66 52
91 68 52
91 67 53
89 66 50
91 67 53
89 68 49
89 66 51
90 66 54
91 67 55
88 66 52
87 65 52
92 67 55
87 64 53
89 67 49
93 68 58
92 69 52
90 67 54
89 66 53
89 66 53
94 70 54
91 67 54
88 66 50
90 67 53
93 69 55
145 100 109
205 135 170
205 135 170
205 135 170
205 135 170
205 135 170
205 135 170
205 135 170
205 135 170
205 135 170
205 135 170
205 135 170
205 135 170
205 135 170
205 135 170
205 135 170
205 135 170
205 135 170
205 135 170
205 135 170
205 135 170
205 135 170
205 135 170
205 135 170
205 135 170
205 135 170
205 135 170
205 135 170
205 135 170
205 135 170
205 135 170
205 135 170
205 135 170
205 135 170
205 135 170
205 135 170
205 135 170
205 135 170
205 135 170
205 135 170
205 135 170
205 135 170
205 135 170
205 135 170
205 135 170
204 135 170
204 135 170
204 135 170
204 135 170
204 135 170
204 135 170
204 135 170
204 135 170
204 135 170
204 135 170
204 135 170
204 135 170
204 135 170
204 135 170
204 135 170
204 135 170
204 135 170
204 135 170
204 135 170
204 135 170
204 135 170
204 135 170
204 135 170
204 135 170
204 135 170
204 135 170
204 135 170
204 135 170
204 135 170
204 135 170
204 135 170
204 135 170
204 134 170
204 134 170
204 134 170
204 134 170
204 134 170
204 134 170
204 134 170
204 134 170
204 134 170
204 134 170
204 134 170
204 134 170
204 134 170
204 134 171
204 134 170
204 134 171
204 134 171
204 134 171
204 134 171
204 134 171
204 134 171
204 134 171
204 134 171
204 134 171
204 134 171
204 134 171
204 134 171
204 134 171
204 134 171
204 134 171
204 134 171
204 134 171
204 134 171
204 134 171
204 134 171
204 134 171
204 134 171
204 134 171
204 134 171
204 134 171
204 134 171
204 134 171
204 134 171
204 134 171
204 134 171
204 134 171
204 134 171
204 134 171
204 134 171
204 134 171
204 134 171
204 134 171
204 134 171
204 134 171
204 134 171
204 134 171
204 134 171
204 134 171
204 134 171
204 134 171
204 134 171
204 134 171
204 134 171
204 134 171
204 134 171
204 134 171
204 134 171
204 134 171
204 134 171
204 134 171
204 134 171
204 134 171
204 134 171
204 134 171
204 134 171
204 134 171
204 134 171
204 134 171
204 134 171
204 134 171
204 134 171
204 134 171
204 134 171
204 134 171
204 134 171
204 134 171
204 134 171
204 134 171
204 134 171
204 134 171
204 134 171
204 134 171
204 134 171
204 134 171
204 134 171
204 134 171
204 134 171
204 134 171
204 134 171
204 134 171
204 134 171
204 134 171
204 134 171
204 134 171
204 134 171
204 134 171
204 134 171
204 134 171
204 134 171
204 134 171
204 134 171
204 134 171
204 134 171
204 134 171
204 134 171
204 134 171
204 134 171
204 134 171
204 134 171
204 134 171
204 134 171
204 134 171
204 134 171
204 134 171
204 134 171
204 134 171
204 134 171
204 134 171
204 134 171
204 134 171
204 134 171
204 134 171
204 134 171
204 134 171
204 134 171
204 134 171
204 134 171
204 134 171
204 134 171
204 134 171
204 134 171
204 134 171
204 134 171
204 134 171
204 134 171
204 134 171
204 134 171
204 134 170
204 134 171
204 134 170
204 134 170
204 134 170
204 134 170
204 134 170
204 134 170
204 134 170
204 134 170
204 134 170
204 134 170
204 134 170
204 134 170
204 135 170
204 134 170
204 134 170
204 135 170
204 135 170
204 135 170
204 135 170
204 135 170
204 135 170
204 135 170
204 135 170
204 135 170
204 135 170
204 135 170
204 135 170
204 135 170
204 135 170
204 135 170
204 135 170
204 135 170
204 135 170
204 135 170
204 135 170
204 135 170
204 135 170
204 135 170
204 135 170
204 135 170
204 135 170
204 135 170
204 135 170
204 135 170
204 135 170
134 92 99
89 66 52
93 70 53
90 67 51
89 66 52
89 66 51
93 68 55
90 66 55
86 64 48
90 68 51
94 69 58
89 66 51
90 67 54
90 67 54
89 66 52
90 67 52
93 68 57
92 68 54
90 66 55
92 68 55
88 65 54
90 67 52
89 65 54
86 63 53
87 65 50
87 65 49
88 65 53
92 68 55
91 68 52
87 64 53
89 66 51
88 65 54
87 65 49
91 67 56
88 64 55
89 67 51
89 66 51
91 66 55
93 69 57
90 67 53
90 67 54
94 70 54
88 66 50
89 67 51
92 68 54
91 67 56
89 65 53
90 67 51
91 67 56
91 67 55
93 69 54
87 65 52
93 69 55
87 65 51
87 64 52
85 64 49
93 69 55
89 67 51
88 65 53
90 67 53
86 63 53
92 69 52
92 68 53
91 68 53
86 63 52
90 67 53
82 60 51
90 66 55
90 66 53
92 68 54
87 65 52
89 66 52
86 63 52
87 65 51
88 64 54
88 65 53
88 66 51
91 67 54
87 65 50
89 66 51
88 65 52
86 63 51
94 69 56
90 67 53
87 64 52
89 66 53
91 66 57
87 65 52
89 66 51
85 64 49
89 65 54
88 65 52
88 65 52
88 65 54
93 68 55
86 64 51
90 66 54
89 66 51
88 65 52
93 68 57
89 65 55
89 65 54
90 67 55
90 67 54
89 66 50
91 68 54
87 66 48
90 67 53
87 64 52
85 63 50
95 70 55
87 65 51
92 68 54
90 67 52
88 66 51
90 65 56
89 67 51
90 68 51
89 66 52
90 67 54
94 69 57
89 66 52
94 70 53
93 69 55
88 66 49
92 68 55
92 68 54
93 69 56
91 67 54
155 105 120
204 135 170
204 135 170
204 135 170
204 135 170
204 135 170
204 135 170
204 135 170
204 135 170
204 135 170
204 135 170
204 135 170
204 135 170
204 135 170
204 135 170
204 135 170
204 135 170
204 135 170
204 135 170
204 135 170
204 135 170
204 135 170
204 135 170
204 135 170
204 135 170
204 135 170
204 135 170
204 135 170
204 135 170
204 135 170
204 134 170
204 134 170
204 134 170
204 134 170
204 134 170
204 134 170
204 134 170
204 134 170
204 134 170
204 134 170
204 134 170
204 134 170
204 134 170
204 134 170
204 134 170
204 134 170
204 134 171
204 134 171
204 134 171
204 134 171
204 134 171
204 134 171
204 134 171
204 134 171
204 134 171
204 134 171
204 134 171
204 134 171
204 134 171
204 134 171
204 134 171
204 134 171
204 134 171
204 134 171
204 134 171
204 134 171
204 134 171
204 134 171
204 134 171
204 134 171
204 134 171
204 134 171
204 134 171
204 134 171
204 134 171
204 134 171
204 134 171
204 134 171
204 134 171
204 134 171
204 134 171
204 134 171
204 134 171
204 134 171
204 134 171
204 134 171
204 134 171
204 134 171
204 134 171
204 134 171
204 134 171
204 134 171
204 134 171
204 134 171
204 134 171
204 134 171
204 134 171
204 134 171
204 134 171
204 134 171
204 134 171
204 134 171
204 134 171
204 134 171
204 134 171
204 134 171
204 134 171
204 134 171
204 134 171
204 134 171
204 134 171
204 134 171
204 134 171
204 134 171
204 134 171
204 134 171
204 134 171
204 134 171
204 134 171
204 134 171
204 134 171
204 134 171
204 134 171
204 134 171
204 134 171
204 134 171
204 134 171
204 134 171
204 134 171
204 134 171
204 134 171
204 134 171
204 134 171
204 134 171
204 134 171
204 134 171
204 134 171
204 134 171
204 134 171
204 134 171
204 134 171
204 134 171
204 134 171
204 134 171
204 134 171
204 134 171
204 134 171
204 134 171
204 134 171
204 134 171
204 134 171
204 134 171
204 134 171
204 134 171
204 134 171
204 134 171
204 134 171
204 134 171
204 134 171
204 134 171
204 134 171
204 134 171
204 134 171
204 134 171
204 134 171
204 134 171
204 134 171
204 134 171
204 134 171
204 134 171
204 134 171
204 134 171
204 134 171
204 134 171
204 134 171
204 134 171
204 134 171
204 134 171
204 134 171
204 134 171
204 134 171
204 134 171
204 134 171
204 134 171
204 134 171
204 134 171
204 134 171
204 134 171
204 134 171
204 134 171
204 134 171
204 134 171
204 134 171
204 134 171
204 134 171
204 134 171
204 134 171
204 134 171
204 134 171
204 134 171
204 134 171
204 134 171
204 134 171
204 134 171
204 134 171
204 134 171
204 134 171
204 134 171
204 134 171
204 134 171
204 134 171
204 134 171
204 134 171
204 134 171
204 134 171
204 134 171
204 134 171
204 134 171
204 134 171
204 134 171
204 134 171
204 134 171
204 134 171
204 134 171
204 134 171
204 134 171
204 134 171
204 134 171
204 134 171
204 134 171
204 134 171
204 134 171
204 134 171
204 134 171
204 134 171
204 134 171
204 134 171
204 134 171
204 134 171
204 134 171
204 134 171
204 134 171
204 134 171
204 134 171
204 134 171
204 134 171
204 134 171
204 134 171
204 134 171
204 134 171
204 134 171
204 134 171
204 134 171
204 134 171
204 134 171
204 134 171
204 134 171
204 134 171
204 134 171
204 134 171
204 134 171
204 134 171
204 134 171
204 134 171
204 134 171
204 134 171
204 134 171
204 134 171
204 134 171
204 134 171
204 134 171
136 94 100
92 68 53
90 68 49
91 67 56
88 66 50
91 67 55
93 69 55
91 67 56
92 68 55
84 62 49
86 64 51
88 65 53
95 71 55
87 64 53
86 65 48
92 69 53
88 65 52
90 66 55
91 67 54
89 65 55
89 66 53
87 64 51
88 65 52
89 65 55
95 70 58
89 66 54
93 68 58
91 67 55
91 67 53
91 68 52
90 66 55
84 63 48
87 65 52
84 62 49
90 65 55
85 63 50
91 67 54
84 62 49
91 68 52
90 66 55
94 70 54
89 65 56
90 66 54
92 67 58
90 67 52
93 69 55
89 66 53
87 65 51
89 66 52
85 64 49
88 66 51
91 67 54
86 64 51
91 68 53
90 67 54
90 66 55
92 68 55
87 64 52
89 65 55
89 66 54
93 69 55
87 64 50
89 66 52
89 66 54
91 67 54
92 68 55
91 66 57
86 65 48
82 62 46
86 63 53
90 66 55
88 64 53
91 68 53
88 65 52
91 67 54
94 70 54
92 69 52
84 63 48
91 67 53
86 65 48
91 67 55
89 65 55
87 64 51
89 65 54
90 66 55
91 68 53
90 67 51
92 68 54
92 68 56
96 71 56
90 66 53
87 65 52
82 61 48
89 66 53
86 65 49
84 63 47
89 66 51
92 68 54
85 63 51
89 66 52
84 63 48
87 64 51
87 64 50
86 63 51
88 66 51
85 64 48
88 65 52
92 68 54
85 63 49
90 67 53
88 66 51
90 67 52
87 65 49
90 66 54
85 63 49
84 62 50
89 66 53
89 66 52
90 68 51
87 65 50
91 68 52
90 67 52
94 70 55
93 69 56
87 64 52
88 66 49
86 65 49
89 66 51
94 70 55
142 98 106
204 134 171
204 134 171
204 134 171
204 134 171
204 134 171
204 134 171
204 134 171
204 134 171
204 134 171
204 134 171
204 134 171
204 134 171
204 134 171
204 134 171
204 134 171
204 134 171
204 134 171
204 134 171
204 134 171
204 134 171
204 134 171
204 134 171
204 134 171
204 134 171
204 134 171
204 134 171
204 134 171
204 134 171
204 134 171
204 134 171
204 134 171
204 134 171
204 134 171
204 134 171
204 134 171
204 134 171
204 134 171
204 134 171
204 134 171
204 134 171
204 134 171
204 134 171
204 134 171
204 134 171
204 134 171
204 134 171
204 134 171
204 134 171
204 134 171
204 134 171
204 134 171
204 134 171
204 134 171
204 134 171
204 134 171
204 134 171
204 134 171
204 134 171
204 134 171
204 134 171
204 134 171
204 134 171
204 134 171
204 134 171
204 134 171
204 134 171
204 134 171
204 134 171
204 134 171
204 134 171
204 134 171
204 134 171
204 134 171
204 134 171
204 134 171
204 134 171
204 134 171
204 134 171
204 134 171
204 134 171
204 134 171
204 134 171
204 134 171
204 134 171
204 134 171
204 134 171
204 134 171
204 134 171
204 134 171
204 134 171
204 134 171
204 134 171
204 134 171
204 134 171
204 134 171
204 134 171
204 134 171
204 134 171
204 134 171
204 134 171
204 134 171
204 134 171
204 134 171
204 134 171
204 134 171
204 134 171
204 134 171
204 134 171
204 134 171
204 134 171
204 134 171
204 134 171
204 134 171
204 134 171
204 134 171
204 134 171
204 134 171
204 134 171
204 134 171
204 134 171
204 134 171
204 134 171
204 134 171
204 134 171
204 134 171
204 134 171
204 134 171
204 134 171
204 134 171
204 134 171
204 134 171
204 134 171
204 134 171
204 134 171
204 134 171
203 133 172
203 133 172
203 133 172
203 133 172
203 133 172
203 133 172
203 133 172
203 133 172
203 133 172
203 133 172
203 133 172
204 133 172
204 133 172
204 133 172
204 133 172
204 133 172
204 133 172
204 133 172
204 133 172
204 133 172
204 133 172
204 133 172
204 133 172
204 133 172
204 133 172
204 133 172
204 133 172
204 133 172
204 133 172
204 133 172
204 133 172
204 133 172
204 133 172
204 133 172
204 133 172
204 133 172
204 133 172
204 133 172
204 133 172
204 133 171
204 133 171
204 133 171
204 133 172
204 133 171
204 133 172
204 133 171
204 133 171
204 133 171
204 133 171
204 133 171
204 133 171
204 133 171
204 133 171
204 133 171
204 133 171
204 133 171
204 133 171
204 133 171
204 133 171
204 133 171
204 133 171
204 134 171
204 133 171
204 133 171
204 133 171
204 133 171
204 134 171
204 133 171
204 134 171
204 134 171
204 134 171
204 134 171
204 134 171
204 134 171
204 134 171
204 134 171
204 134 171
204 134 171
204 134 171
204 134 171
204 134 171
204 134 171
204 134 171
204 134 171
204 134 171
204 134 171
204 134 171
204 134 171
204 134 171
204 134 171
204 134 171
204 134 171
204 134 171
204 134 171
204 134 171
204 134 171
204 134 171
204 134 171
204 134 171
204 134 171
204 134 171
204 134 171
204 134 171
204 134 171
204 134 171
204 134 171
204 134 171
204 134 171
204 134 171
204 134 171
204 134 171
204 134 171
204 134 171
204 134 171
204 134 171
204 134 171
204 134 171
204 134 171
204 134 171
204 134 171
204 134 171
204 134 171
204 134 171
204 134 171
204 134 171
204 134 171
204 134 171
204 134 171
204 134 171
204 134 171
204 134 171
204 134 171
204 134 171
204 134 171
204 134 171
136 94 100
90 67 53
89 66 52
89 66 54
89 66 53
84 63 49
89 66 52
89 66 52
89 66 52
87 64 53
85 62 53
82 61 49
84 64 45
91 68 53
88 66 49
89 66 51
87 65 50
85 64 47
92 67 57
87 65 51
88 64 54
93 69 54
90 67 52
90 66 54
86 63 52
88 65 51
88 65 50
90 66 53
91 67 54
88 67 49
85 64 48
90 67 52
91 67 54
88 65 51
89 66 53
92 69 54
89 66 52
84 62 49
88 64 54
84 63 47
83 62 48
86 64 51
89 67 50
88 65 53
86 63 52
87 65 51
86 64 48
89 66 53
89 67 49
84 62 49
92 68 55
88 67 48
85 63 50
93 68 57
89 66 52
87 65 51
88 65 51
88 65 52
94 69 58
90 66 55
88 65 52
88 64 53
94 69 56
87 64 51
85 63 49
85 64 47
91 67 55
95 70 57
92 67 57
87 65 50
85 63 52
93 69 55
88 65 52
84 62 50
93 68 57
91 67 55
93 69 54
95 70 57
91 67 52
89 66 54
90 66 53
88 67 48
88 65 51
87 63 56
94 69 57
90 67 53
84 63 48
88 65 51
93 68 57
92 68 54
92 67 57
90 66 56
78 58 45
89 66 52
90 66 55
88 66 50
85 63 50
88 66 50
91 66 57
95 71 54
91 67 57
96 72 56
86 64 52
87 65 50
90 67 54
90 66 55
90 67 51
91 67 54
89 65 54
88 64 53
85 63 50
87 65 50
95 71 56
86 64 50
90 66 54
87 64 52
91 67 55
89 65 54
90 66 55
92 67 56
85 63 51
91 68 54
87 65 51
88 65 51
92 67 58
85 62 52
88 64 53
89 65 55
93 68 57
131 91 95
204 134 171
204 134 171
204 134 171
204 134 171
204 134 171
204 134 171
204 134 171
204 134 171
204 134 171
204 134 171
204 134 171
204 134 171
204 134 171
204 134 171
204 134 171
204 134 171
204 134 171
204 134 171
204 134 171
204 134 171
204 134 171
204 134 171
204 134 171
204 134 171
204 134 171
204 134 171
204 134 171
204 134 171
204 134 171
204 134 171
204 134 171
204 134 171
204 134 171
204 134 171
204 134 171
204 134 171
204 134 171
204 134 171
204 134 171
204 134 171
204 134 171
204 134 171
204 134 171
204 134 171
204 134 171
204 134 171
204 134 171
204 134 171
204 134 171
204 134 171
204 134 171
204 134 171
204 134 171
204 134 171
204 134 171
204 134 171
204 134 171
204 134 171
204 134 171
204 134 171
204 134 171
204 134 171
204 134 171
204 134 171
204 134 171
204 134 171
204 134 171
204 134 171
204 133 171
204 134 171
204 133 171
204 133 171
204 133 171
204 133 171
204 133 171
204 133 171
204 133 171
204 133 171
204 133 171
204 133 171
204 133 171
204 133 171
204 133 171
204 133 171
204 133 171
204 133 171
204 133 171
204 133 171
204 133 171
204 133 171
204 133 171
204 133 172
204 133 171
204 133 172
204 133 171
204 133 172
204 133 171
204 133 172
204 133 172
204 133 172
204 133 172
204 133 172
204 133 172
204 133 172
204 133 172
204 133 172
204 133 172
204 133 172
204 133 172
204 133 172
204 133 172
204 133 172
204 133 172
204 133 172
204 133 172
204 133 172
204 133 172
204 133 172
204 133 172
204 133 172
204 133 172
204 133 172
204 133 172
203 133 172
203 133 172
204 133 172
204 133 172
203 133 172
203 133 172
203 133 172
203 133 172
203 133 172
203 133 172
203 133 172
203 133 172
203 133 172
203 133 172
203 133 172
203 133 172
203 133 172
203 133 172
203 133 172
203 133 172
203 133 172
203 133 172
203 133 172
203 133 172
203 133 172
203 133 172
203 133 172
203 133 172
203 133 172
203 133 172
203 133 172
203 133 172
203 133 172
203 133 172
203 133 172
203 133 172
203 133 172
203 133 172
203 133 172
203 133 172
203 133 172
203 133 172
203 133 172
203 133 172
203 133 172
203 133 172
203 133 172
203 133 172
203 133 172
203 133 172
203 133 172
203 133 172
203 133 172
203 133 172
203 133 172
203 133 172
203 133 172
203 133 172
203 133 172
203 133 172
203 133 172
203 133 172
203 133 172
203 133 172
203 133 172
203 133 172
203 133 172
203 133 172
203 133 172
203 133 172
203 133 172
203 133 172
203 133 172
203 133 172
203 133 172
203 133 172
203 133 172
203 133 172
203 133 172
203 133 172
203 133 172
203 133 172
203 133 172
203 133 172
203 133 172
203 133 172
203 133 172
203 133 172
203 133 172
203 133 172
203 133 172
203 133 172
203 133 172
203 133 172
203 133 172
203 133 172
203 133 172
203 133 172
203 133 172
203 133 172
203 133 172
203 133 172
203 133 172
203 133 172
203 133 172
203 133 172
203 133 172
203 133 172
203 133 172
203 133 172
203 133 172
203 133 172
203 133 172
203 133 172
203 133 172
203 133 172
203 133 172
203 133 172
203 133 172
203 133 172
203 133 172
203 133 172
203 133 172
203 133 172
203 133 172
203 133 172
203 133 172
203 133 172
203 133 172
203 133 172
203 133 172
203 133 172
203 133 172
203 133 172
204 133 172
204 133 172
204 133 172
203 133 172
203 133 172
203 133 172
204 133 172
204 133 172
203 133 172
203 133 172
204 133 172
204 133 172
204 133 172
134 93 100
88 66 51
87 65 52
91 67 53
89 66 52
88 65 54
85 63 49
93 69 56
87 65 52
91 67 54
90 67 51
93 69 53
83 60 52
88 65 53
89 66 54
88 65 51
89 65 54
92 68 55
89 65 55
94 69 57
86 63 52
90 66 55
89 66 53
90 66 54
92 67 57
86 64 50
82 62 47
88 65 55
87 64 54
91 66 55
88 65 54
87 65 51
86 64 52
88 65 52
89 66 52
89 65 55
87 64 54
83 61 49
89 66 52
94 68 59
83 61 50
87 65 51
87 64 52
86 64 50
89 66 51
90 67 53
86 64 51
90 66 55
86 64 49
90 66 55
89 66 53
86 63 52
88 65 52
91 68 54
90 66 55
88 64 53
86 64 50
87 64 51
86 64 49
92 68 54
91 67 54
85 62 52
88 66 50
87 65 50
88 65 52
90 66 54
88 64 54
91 68 53
87 65 50
87 65 51
84 64 46
83 62 47
88 65 54
86 64 49
85 63 48
86 64 51
86 64 50
93 69 53
89 65 55
88 64 54
88 65 52
90 67 53
86 64 50
86 65 49
92 69 53
79 59 48
90 68 50
85 63 50
86 63 51
86 64 50
87 65 52
87 64 53
89 66 52
91 66 56
88 64 54
87 66 47
94 70 57
86 64 50
87 65 51
86 63 51
88 65 53
85 64 48
88 66 51
85 63 50
87 65 51
83 61 49
89 65 54
85 63 49
87 63 53
84 63 48
85 63 50
91 68 53
90 68 50
84 63 45
84 63 48
88 66 50
86 64 50
90 66 53
89 66 52
88 66 50
85 63 50
86 63 52
88 65 51
89 65 56
86 63 53
85 62 52
88 66 51
88 66 52
86 64 51
120 84 85
204 133 172
204 133 172
204 133 172
203 133 172
204 133 172
204 133 172
203 133 172
204 133 172
203 133 172
203 133 172
203 133 172
203 133 172
203 133 172
203 133 172
203 133 172
203 133 172
203 133 172
203 133 172
203 133 172
203 133 172
203 133 172
203 133 172
203 133 172
203 133 172
203 133 172
203 133 172
203 133 172
203 133 172
203 133 172
203 133 172
203 133 172
203 133 172
203 133 172
203 133 172
203 133 172
203 133 172
203 133 172
203 133 172
203 133 172
203 133 172
203 133 172
203 133 172
203 133 172
203 133 172
203 133 172
203 133 172
203 133 172
203 133 172
203 133 172
203 133 172
203 133 172
203 133 172
203 133 172
203 133 172
203 133 172
203 133 172
203 133 172
203 133 172
203 133 172
203 133 172
203 133 172
203 133 172
203 133 172
203 133 172
203 133 172
203 133 172
203 133 172
203 133 172
203 133 172
203 133 172
203 133 172
203 133 172
203 133 172
203 133 172
203 133 172
203 133 172
203 133 172
203 133 172
203 133 172
203 133 172
203 133 172
203 133 172
203 133 172
203 133 172
203 133 172
203 133 172
203 133 172
203 133 172
203 133 172
203 133 172
203 133 172
203 133 172
203 133 172
203 133 172
203 133 172
203 133 172
203 133 172
203 133 172
203 133 172
203 133 172
203 133 172
203 133 172
203 133 172
203 133 172
203 133 172
203 133 172
203 133 172
203 133 172
203 133 172
203 133 172
203 133 172
203 133 172
203 133 172
203 133 172
203 133 172
203 133 172
203 133 172
203 133 172
203 133 172
203 133 172
203 133 172
203 133 172
203 133 172
203 133 172
203 133 172
203 133 172
203 133 172
203 133 172
203 133 172
203 133 172
203 133 172
203 133 172
203 133 172
203 133 172
203 133 172
203 133 172
203 133 172
203 133 172
203 133 172
203 133 172
203 133 172
203 133 172
203 133 172
203 133 172
203 133 172
203 133 172
203 133 172
203 133 172
203 133 172
203 133 172
203 133 172
203 133 172
203 133 172
203 133 172
203 133 172
203 133 172
203 133 172
203 133 172
203 133 172
203 133 172
203 133 172
203 133 172
203 133 172
203 133 172
203 133 172
203 133 172
203 133 172
203 133 172
203 133 172
203 133 172
203 133 172
203 133 172
203 133 172
203 133 172
203 133 172
203 133 172
203 133 172
203 133 172
203 133 172
203 133 172
203 133 172
203 133 172
203 133 172
203 133 172
203 133 172
203 133 172
203 133 172
203 133 172
203 133 172
203 133 172
203 133 172
203 133 172
203 133 172
203 133 172
203 133 172
203 133 172
203 133 172
203 133 172
203 133 172
203 133 172
203 133 172
203 133 172
203 133 172
203 133 172
203 133 172
203 133 172
203 133 172
203 133 172
203 133 172
203 133 172
203 133 172
203 133 172
203 133 172
203 133 172
203 133 172
203 133 172
203 133 172
203 133 172
203 133 172
203 133 172
203 133 172
203 133 172
203 133 172
203 133 172
203 133 172
203 133 172
203 133 172
203 133 172
203 133 172
203 133 172
203 133 172
203 133 172
203 133 172
203 133 172
203 133 172
203 133 172
203 133 172
203 133 172
203 133 172
203 133 172
203 133 172
203 133 172
203 133 172
203 133 172
203 133 172
203 133 172
203 133 172
203 133 172
203 133 172
203 133 172
203 133 172
203 133 172
203 133 172
203 133 172
203 133 172
203 133 172
203 133 172
203 133 172
203 133 172
203 133 172
203 133 172
203 133 172
203 133 172
203 133 172
203 133 172
203 133 172
203 133 172
203 133 172
203 133 172
203 133 172
126 88 91
86 63 53
88 66 52
89 66 53
91 67 55
89 66 52
89 66 50
87 65 50
85 63 48
86 64 49
86 64 48
92 67 56
87 64 52
87 65 49
90 67 52
89 66 52
90 67 52
83 62 48
91 67 55
86 64 51
87 65 50
90 66 53
93 68 58
89 67 50
88 65 54
88 65 55
87 64 51
85 63 50
85 63 49
90 68 51
86 64 49
85 63 51
83 63 46
89 66 52
89 65 55
90 66 57
88 65 51
91 67 56
87 64 52
87 65 51
90 67 54
90 66 55
91 67 54
89 67 51
88 65 53
89 66 52
90 66 53
84 61 52
85 63 51
88 67 48
91 67 55
84 63 49
91 67 55
89 66 52
87 63 54
86 64 49
91 67 53
89 66 52
89 66 53
87 65 50
86 64 49
82 61 48
88 65 53
92 68 55
91 67 57
87 65 49
88 65 52
88 66 52
88 66 50
91 66 57
86 63 51
88 65 51
92 68 55
87 65 50
90 66 53
87 63 54
85 64 49
90 67 53
90 67 54
89 66 52
84 62 50
86 64 49
92 68 56
87 65 51
87 64 52
87 65 52
87 64 53
87 64 52
85 62 51
93 69 54
91 68 52
87 65 51
95 69 60
94 70 54
88 66 52
88 65 52
88 66 51
92 67 55
85 62 53
85 62 53
87 65 49
95 70 56
83 61 49
86 62 54
84 63 47
88 67 49
87 65 51
87 64 52
86 63 52
84 62 51
86 64 52
91 67 53
94 70 56
88 66 49
87 64 51
97 72 56
88 64 55
91 67 54
89 67 52
88 65 52
87 64 54
80 61 44
89 66 52
90 66 53
91 66 58
91 67 57
86 63 52
89 66 51
89 65 56
123 86 89
203 133 172
203 133 172
203 133 172
203 133 172
203 133 172
203 133 172
203 133 172
203 133 172
203 133 172
203 133 172
203 133 172
203 133 172
203 133 172
203 133 172
203 133 172
203 133 172
203 133 172
203 133 172
203 133 172
203 133 172
203 133 172
203 133 172
203 133 172
203 133 172
203 133 172
203 133 172
203 133 172
203 133 172
203 133 172
203 133 172
203 133 172
203 133 172
203 133 172
203 133 172
203 133 172
203 133 172
203 133 172
203 133 172
203 133 172
203 133 172
203 133 172
203 133 172
203 133 172
203 133 172
203 133 172
203 133 172
203 133 172
203 133 172
203 133 172
203 133 172
203 133 172
203 133 172
203 133 172
203 133 172
203 133 172
203 133 172
203 133 172
203 133 172
203 133 172
203 133 172
203 133 172
203 133 172
203 133 172
203 133 172
203 133 172
203 133 172
203 133 172
203 133 172
203 133 172
203 133 172
203 133 172
203 133 172
203 133 172
203 133 172
203 133 172
203 133 172
203 133 172
203 133 172
203 133 172
203 133 172
203 133 172
203 133 172
203 133 172
203 133 172
203 133 172
203 133 172
203 133 172
203 133 172
203 133 172
203 133 172
203 133 172
203 133 172
203 133 172
203 133 172
203 133 172
203 133 172
203 133 172
203 133 172
203 133 172
203 133 172
203 133 172
203 133 172
203 133 172
203 133 172
203 133 172
203 133 172
203 133 172
203 133 172
203 133 172
203 133 172
203 133 172
203 133 172
203 133 172
203 133 172
203 133 172
203 133 172
203 133 172
203 133 172
203 133 172
203 133 172
203 133 172
203 133 172
203 133 172
203 133 172
203 133 172
203 133 172
203 133 172
203 133 172
203 133 172
203 133 172
203 133 172
203 133 172
203 133 172
203 133 172
203 133 172
203 132 172
203 132 172
203 132 172
203 132 172
203 132 172
203 132 172
203 132 172
203 132 172
203 132 172
203 132 172
203 132 172
203 132 172
203 132 172
203 132 172
203 132 172
203 132 172
203 132 172
203 132 172
203 132 172
203 132 172
203 132 172
203 132 172
203 132 172
203 132 172
203 132 172
203 132 172
203 132 172
203 132 172
203 132 172
203 132 172
203 132 172
203 132 172
203 132 172
203 132 172
203 132 172
203 132 172
203 132 172
203 132 172
203 132 172
203 132 172
203 132 172
203 132 172
203 132 172
203 132 172
203 132 172
203 132 172
203 132 172
203 132 172
203 132 172
203 132 172
203 132 172
203 132 172
203 132 172
203 132 172
203 132 172
203 132 172
203 132 172
203 132 172
203 132 172
203 132 172
203 132 172
203 132 172
203 132 172
203 132 172
203 132 172
203 132 172
203 132 172
203 132 172
203 132 172
203 132 172
203 132 172
203 132 172
203 132 172
203 132 172
203 132 172
203 132 172
203 132 173
203 132 172
203 132 172
203 132 172
203 132 172
203 132 172
203 132 173
203 132 172
203 132 173
203 132 173
203 132 172
203 132 173
203 132 172
203 132 172
203 132 172
203 132 172
203 132 172
203 132 173
203 132 173
203 132 173
203 132 173
203 132 172
203 132 173
203 132 173
203 132 172
203 132 173
203 132 173
203 132 173
203 132 172
203 132 173
203 132 173
203 132 173
203 132 173
203 132 173
203 132 173
203 132 173
203 132 173
203 132 173
203 132 173
203 132 173
203 132 173
203 132 173
203 132 173
203 132 173
203 132 173
203 132 173
203 132 173
203 132 173
203 132 173
203 132 173
203 132 173
203 132 173
203 132 173
203 132 173
203 132 173
203 132 173
203 132 173
203 132 173
203 132 173
132 91 98
84 61 51
88 65 55
89 66 52
90 68 51
84 61 52
93 68 56
84 62 49
85 63 49
81 61 47
86 63 54
89 65 55
86 63 53
88 65 51
91 67 54
91 67 55
86 65 48
85 64 49
84 63 49
83 61 50
83 61 50
88 65 51
93 68 55
94 68 58
87 64 52
92 69 52
87 64 52
90 66 54
90 66 54
84 62 49
86 63 51
89 66 53
94 69 57
90 67 52
89 65 53
90 66 53
87 64 52
85 63 50
88 65 53
87 64 51
90 67 52
89 66 52
93 68 58
88 66 50
90 67 52
88 65 52
85 62 52
83 61 50
91 68 53
92 67 56
85 63 50
89 65 53
87 65 51
85 63 49
87 65 49
94 68 58
89 66 54
91 67 56
90 66 55
89 66 52
86 64 52
90 65 56
87 64 51
89 67 50
90 66 55
89 66 52
86 64 51
88 66 51
86 64 51
92 69 52
87 64 53
84 62 49
89 65 55
86 64 51
89 66 52
87 63 55
84 62 49
85 62 52
86 63 51
91 67 54
89 65 54
82 61 47
88 65 53
87 65 52
86 64 49
90 67 53
86 64 50
87 65 50
87 65 51
92 69 54
87 65 51
93 68 57
87 65 52
92 67 58
91 67 54
86 64 50
89 66 52
91 68 52
83 61 49
85 62 51
91 67 54
85 64 48
87 65 51
88 64 53
84 62 50
88 64 56
83 62 48
83 62 48
87 64 52
87 65 51
85 63 50
84 63 50
85 62 53
92 68 55
87 64 52
88 65 51
87 65 50
91 67 53
87 64 50
93 69 54
89 65 54
83 61 48
86 64 50
87 65 50
88 65 53
83 62 50
80 59 47
92 68 55
85 63 50
126 88 90
203 132 173
203 132 173
203 132 173
203 132 173
203 132 173
203 132 173
203 132 173
203 132 173
203 132 172
203 132 173
203 132 173
203 132 173
203 132 173
203 132 173
203 132 173
203 132 173
203 132 173
203 132 173
203 132 173
203 132 173
203 132 173
203 132 173
203 132 173
203 132 173
203 132 173
203 132 173
203 132 173
203 132 173
203 132 173
203 132 172
203 132 173
203 132 173
203 132 172
203 132 173
203 132 172
203 132 173
203 132 173
203 132 173
203 132 173
203 132 172
203 132 172
203 132 173
203 132 173
203 132 173
203 132 172
203 132 172
203 132 172
203 132 172
203 132 173
203 132 172
203 132 173
203 132 172
203 132 172
203 132 173
203 132 172
203 132 173
203 132 172
203 132 172
203 132 172
203 132 173
203 132 172
203 132 172
203 132 173
203 132 172
203 132 172
203 132 172
203 132 172
203 132 172
203 132 172
203 132 172
203 132 172
203 132 172
203 132 172
203 132 172
203 132 172
203 132 172
203 132 172
203 132 172
203 132 172
203 132 172
203 132 172
203 132 172
203 132 172
203 132 172
203 132 172
203 132 172
203 132 172
203 132 172
203 132 172
203 132 172
203 132 172
203 132 172
203 132 172
203 132 172
203 132 172
203 132 172
203 132 172
203 132 172
203 132 172
203 132 172
203 132 172
203 132 172
203 132 172
203 132 172
203 132 172
203 132 172
203 132 172
203 132 172
203 132 172
203 132 172
203 132 172
203 132 172
203 132 172
203 132 172
203 132 172
203 132 172
203 132 172
203 132 172
203 132 172
203 132 172
203 132 172
203 132 172
203 132 172
203 132 172
203 132 172
203 132 172
203 132 172
203 132 172
203 132 172
203 132 172
203 132 172
203 132 172
203 132 172
203 132 172
203 132 172
203 132 173
203 132 173
203 132 173
203 132 173
203 132 173
203 132 173
203 132 173
203 132 173
203 132 173
203 132 173
203 132 173
203 132 173
203 132 173
203 132 173
203 132 173
203 132 173
203 132 173
203 132 173
203 132 173
203 132 173
203 132 173
203 132 173
203 132 173
203 132 173
203 132 173
203 132 173
203 132 173
203 132 173
203 132 173
203 132 173
203 132 173
203 132 173
203 132 173
203 132 173
203 132 173
203 132 173
203 132 173
203 132 173
203 132 173
203 132 173
203 132 173
203 132 173
203 132 173
203 132 173
203 132 173
203 132 173
203 132 173
203 132 173
203 132 173
203 132 173
203 132 173
203 132 173
203 132 173
203 132 173
203 132 173
203 132 173
203 132 173
203 132 173
203 132 173
203 132 173
203 132 173
203 132 173
203 132 173
203 132 173
203 132 173
203 132 173
203 132 173
203 132 173
203 132 173
203 132 173
203 132 173
203 132 173
203 132 173
203 132 173
203 132 173
203 132 173
203 132 173
203 132 173
203 132 173
203 132 173
203 132 173
203 132 173
203 132 173
203 132 173
203 132 173
203 132 173
203 132 173
203 132 173
203 132 173
203 132 173
203 132 173
203 132 173
203 132 173
203 132 173
203 132 173
203 132 173
203 132 173
203 132 173
203 132 173
203 132 173
203 132 173
203 132 173
203 132 173
203 132 173
203 132 173
203 132 173
203 132 173
203 132 173
203 132 173
203 132 173
203 132 173
203 132 173
203 132 173
203 132 173
203 132 173
203 132 173
203 132 173
203 132 173
203 132 173
203 132 173
203 132 173
203 132 173
203 132 173
203 132 173
203 132 173
203 132 173
203 132 173
203 132 173
203 132 173
203 132 173
203 132 173
203 132 173
203 132 173
203 132 173
203 132 173
129 90 93
90 66 53
90 66 57
90 66 53
89 65 56
84 62 51
86 62 53
86 63 53
82 61 49
85 63 48
90 66 56
85 64 47
86 63 51
88 66 51
88 65 54
89 66 52
88 65 53
89 66 52
89 65 54
91 66 57
87 64 52
87 64 52
92 68 54
96 70 59
88 66 50
91 67 56
86 63 52
90 67 51
90 67 51
91 67 54
90 65 56
86 64 50
88 65 52
89 65 53
85 63 51
84 61 52
86 63 51
87 65 52
89 66 53
87 64 52
83 62 49
84 62 49
90 66 53
90 67 53
88 64 53
88 65 52
91 68 53
92 68 55
89 66 52
86 64 51
88 65 51
87 65 51
86 65 49
85 63 50
91 68 53
87 64 54
90 67 52
91 67 55
83 61 49
89 65 54
89 67 51
84 62 51
90 67 53
84 62 51
86 64 49
89 66 53
89 65 55
87 65 49
84 62 48
86 64 51
89 66 52
87 64 53
91 68 54
80 60 44
87 64 52
86 64 50
89 66 52
85 63 49
90 66 55
88 66 51
86 63 52
83 61 50
85 63 51
87 66 47
90 66 54
87 65 49
85 63 50
88 64 56
87 64 51
90 65 56
86 64 51
88 65 52
86 64 52
88 65 54
83 62 48
83 61 48
85 62 52
89 66 52
91 67 55
86 65 49
89 66 51
89 66 52
83 62 48
85 63 49
90 68 50
84 63 49
86 64 47
89 66 54
86 63 52
81 61 45
87 64 53
90 67 53
89 65 55
88 65 52
87 65 52
89 66 53
93 69 53
89 65 55
88 65 52
90 67 53
81 60 47
86 64 51
88 65 53
91 68 54
88 65 52
90 66 56
87 63 55
91 66 56
86 63 53
128 88 94
203 132 173
203 132 173
203 132 173
203 132 173
203 132 173
203 132 173
203 132 173
203 132 173
203 132 173
203 132 173
203 132 173
203 132 173
203 132 173
203 132 173
203 132 173
203 132 173
203 132 173
203 132 173
203 132 173
203 132 173
203 132 173
203 132 173
203 132 173
203 132 173
203 132 173
203 132 173
203 132 173
203 132 173
203 132 173
203 132 173
203 132 173
203 132 173
203 132 173
203 132 173
203 132 173
203 132 173
203 132 173
203 132 173
203 132 173
203 132 173
203 132 173
203 132 173
203 132 173
203 132 173
203 132 173
203 132 173
203 132 173
203 132 173
203 132 173
203 132 173
203 132 173
203 132 173
203 132 173
203 132 173
203 132 173
203 132 173
203 132 173
203 132 173
203 132 173
203 132 173
203 132 173
203 132 173
203 132 173
203 132 173
203 132 173
203 132 173
203 132 173
203 132 173
203 132 173
203 132 173
203 132 173
203 132 173
203 132 173
203 132 173
203 132 173
203 132 173
203 132 173
203 132 173
203 132 173
203 132 173
203 132 173
203 132 173
203 132 173
203 132 173
203 132 173
203 132 173
203 132 173
203 132 173
203 132 173
203 132 173
203 132 173
203 132 173
203 132 173
203 132 173
203 132 173
203 132 173
203 132 173
203 132 173
203 132 173
203 132 173
203 132 173
203 132 173
203 132 173
203 132 173
203 132 173
203 132 173
203 132 173
203 132 173
203 132 173
203 132 173
203 132 173
203 132 173
203 132 173
203 132 173
203 132 173
203 132 173
203 132 173
203 132 173
203 132 173
203 132 173
203 132 173
203 132 173
203 132 173
203 132 173
203 132 173
203 132 173
203 132 173
203 132 173
203 132 173
203 132 173
203 132 173
203 132 173
203 132 173
203 132 173
203 132 173
203 132 173
203 132 173
203 132 173
203 132 173
203 132 173
203 132 173
203 132 173
203 132 173
203 132 173
203 132 173
203 132 173
203 132 173
203 132 173
203 132 173
203 132 173
203 132 173
203 132 173
203 132 173
203 132 173
203 132 173
203 132 173
203 132 173
203 132 173
203 132 173
203 132 173
203 132 173
203 132 173
202 132 173
202 132 173
202 132 173
202 132 173
202 132 173
202 132 173
202 132 173
202 132 173
202 132 173
202 132 173
202 132 173
202 132 173
202 132 173
202 132 173
202 132 173
202 132 173
202 132 173
202 132 173
202 132 173
202 132 173
202 132 173
202 132 173
202 132 173
202 132 173
202 132 173
202 132 173
202 132 173
202 132 173
202 132 173
202 132 173
202 132 173
202 132 173
202 132 173
202 132 173
202 132 173
202 132 173
202 132 173
202 132 173
202 132 173
202 132 173
202 132 173
202 132 173
202 132 173
202 132 173
202 132 173
202 132 173
202 132 173
202 132 173
202 132 173
202 132 173
202 132 173
202 132 173
202 132 173
202 132 173
202 132 173
202 132 173
202 132 173
202 132 173
202 132 173
202 132 173
202 132 173
202 132 173
202 132 173
202 132 173
202 132 173
202 132 173
202 132 173
202 132 173
202 132 173
202 132 173
202 132 173
202 132 173
202 132 173
202 132 173
202 132 173
202 132 173
202 132 173
202 132 173
202 132 173
202 132 173
202 132 173
202 132 173
202 132 173
202 132 173
202 132 173
202 132 173
202 132 173
202 132 173
202 132 173
202 132 173
202 132 173
202 132 173
202 131 173
202 131 173
202 132 173
202 132 173
202 131 173
202 131 173
202 131 173
202 131 173
202 131 173
202 131 173
202 131 173
202 131 173
202 131 174
202 131 174
202 131 173
202 131 173
121 84 88
86 64 50
84 62 49
89 66 53
83 61 49
84 62 50
86 63 51
86 64 52
82 61 47
87 65 51
88 65 53
87 65 49
88 64 53
88 65 53
91 66 57
91 67 56
91 66 56
86 63 52
90 67 53
86 63 52
91 67 56
88 65 54
90 67 54
87 64 52
91 66 57
83 61 51
93 68 57
89 65 55
93 68 57
88 65 53
83 63 45
85 63 50
90 66 55
84 62 49
88 65 52
88 65 52
85 62 52
84 63 50
87 64 53
87 65 51
85 63 48
86 64 51
82 61 48
86 64 50
85 63 50
87 64 52
87 64 50
85 63 51
85 62 51
86 64 51
89 66 52
86 63 51
89 66 54
91 67 54
87 64 53
85 63 49
84 62 50
90 67 53
88 65 54
86 64 50
86 63 51
90 67 53
92 67 56
88 66 49
86 64 51
88 65 53
86 64 49
87 64 53
90 66 54
86 65 49
85 64 49
87 64 54
88 65 54
85 63 49
85 63 50
90 66 53
85 63 48
89 65 56
84 62 51
95 71 56
85 63 50
87 65 50
92 67 57
83 62 48
86 63 52
80 60 45
88 64 54
89 65 54
86 64 52
83 61 49
87 64 52
84 62 49
88 65 54
86 64 51
89 66 52
82 61 48
85 63 52
86 64 51
82 61 46
83 62 47
90 67 52
86 64 50
90 67 54
93 68 57
86 63 51
89 65 54
85 64 48
84 62 50
91 67 55
89 66 52
88 66 50
87 64 52
87 65 49
90 67 52
86 64 50
87 64 54
86 63 52
87 64 52
88 65 53
91 67 55
87 64 51
90 66 53
85 62 51
81 60 48
82 62 45
81 60 48
88 66 51
92 68 55
87 64 52
133 92 99
202 131 174
202 131 174
202 131 174
202 131 173
202 131 173
202 131 173
202 131 174
202 131 173
202 131 173
202 131 173
202 131 173
202 131 173
202 131 173
202 131 173
202 131 173
202 132 173
202 131 173
202 132 173
202 132 173
202 132 173
202 132 173
202 132 173
202 132 173
202 132 173
202 132 173
202 132 173
202 132 173
202 132 173
202 132 173
202 132 173
202 132 173
202 132 173
202 132 173
202 132 173
202 132 173
202 132 173
202 132 173
202 132 173
202 132 173
202 132 173
202 132 173
202 132 173
202 132 173
202 132 173
202 132 173
202 132 173
202 132 173
202 132 173
202 132 173
202 132 173
202 132 173
202 132 173
202 132 173
202 132 173
202 132 173
202 132 173
202 132 173
202 132 173
202 132 173
202 132 173
202 132 173
202 132 173
202 132 173
202 132 173
202 132 173
202 132 173
202 132 173
202 132 173
202 132 173
202 132 173
202 132 173
202 132 173
202 132 173
202 132 173
202 132 173
202 132 173
202 132 173
202 132 173
202 132 173
202 132 173
202 132 173
202 132 173
202 132 173
202 132 173
202 132 173
202 132 173
202 132 173
202 132 173
202 132 173
202 132 173
202 132 173
202 132 173
202 132 173
202 132 173
202 132 173
202 132 173
202 132 173
202 132 173
202 132 173
202 132 173
202 132 173
202 132 173
202 132 173
203 132 173
202 132 173
203 132 173
203 132 173
203 132 173
203 132 173
203 132 173
203 132 173
203 132 173
203 132 173
203 132 173
203 132 173
203 132 173
203 132 173
203 132 173
203 132 173
203 132 173
203 132 173
203 132 173
203 132 173
203 132 173
203 132 173
203 132 173
203 132 173
203 132 173
203 132 173
203 132 173
203 132 173
203 132 173
203 132 173
203 132 173
203 132 173
202 132 173
202 132 173
202 132 173
202 132 173
202 132 173
202 132 173
202 132 173
202 132 173
202 132 173
202 132 173
202 132 173
202 132 173
202 132 173
202 132 173
202 132 173
202 132 173
202 132 173
202 132 173
202 132 173
202 132 173
202 132 173
202 132 173
202 132 173
202 132 173
202 132 173
202 132 173
202 132 173
202 132 173
202 132 173
202 132 173
202 132 173
202 132 173
202 132 173
202 132 173
202 132 173
202 132 173
202 132 173
202 132 173
202 132 173
202 132 173
202 132 173
202 132 173
202 132 173
202 131 173
202 132 173
202 131 173
202 131 173
202 131 173
202 131 173
202 131 173
202 131 173
202 131 173
202 131 174
202 131 173
202 131 174
202 131 174
202 131 174
202 131 174
202 131 174
202 131 174
202 131 174
202 131 174
202 131 174
202 131 174
202 131 174
202 131 174
202 131 174
202 131 174
202 131 174
202 131 174
202 131 174
202 131 174
202 131 174
202 131 174
202 131 174
202 131 174
202 131 174
202 131 174
202 131 174
202 131 174
202 131 174
202 131 174
202 131 174
202 131 174
202 131 174
202 131 174
202 131 174
202 131 174
202 131 174
202 131 174
202 131 174
202 131 174
202 131 174
202 131 174
202 131 174
202 131 174
202 131 174
202 131 174
202 131 174
202 131 174
202 131 174
202 131 174
202 131 174
202 131 174
202 131 174
202 131 174
202 131 174
202 131 174
202 131 174
202 131 174
202 131 174
202 131 174
202 131 174
202 131 174
202 131 174
202 131 174
202 131 174
202 131 174
202 131 174
202 131 174
202 131 174
202 131 174
202 131 174
202 131 174
202 131 174
202 131 174
202 131 174
202 131 174
202 131 174
202 131 174
202 131 174
202 131 174
202 131 174
202 131 174
202 131 174
143 96 113
88 65 53
86 63 51
76 57 43
86 64 51
86 63 52
86 64 50
83 61 48
86 63 53
86 64 50
86 63 54
87 63 54
82 62 45
84 63 49
84 63 49
83 62 47
85 63 50
85 63 49
85 62 51
88 65 52
88 65 52
92 68 55
89 66 53
86 64 50
90 66 54
88 64 55
89 65 55
87 64 53
84 63 47
86 64 48
86 64 51
86 65 49
89 66 54
89 66 51
89 65 55
88 64 53
90 66 55
88 65 55
90 65 56
86 63 53
87 64 52
89 66 53
84 61 50
88 65 52
88 66 51
86 64 49
89 66 54
81 60 48
84 62 50
86 64 49
90 66 53
81 61 45
87 64 52
93 69 55
83 61 50
87 63 55
85 62 51
90 65 56
90 66 55
93 68 56
88 66 51
90 66 53
84 63 48
92 68 55
88 65 52
88 65 52
83 61 48
86 64 50
84 62 50
90 66 56
89 66 53
90 66 55
86 63 51
80 60 45
91 66 57
90 66 54
89 65 55
85 63 49
84 62 50
92 68 54
92 68 54
85 63 51
86 63 54
90 67 53
86 63 53
83 62 48
85 64 48
85 63 50
88 64 55
88 64 54
90 66 54
87 63 53
90 66 55
87 63 55
87 64 51
86 63 52
88 64 55
88 65 52
86 63 51
82 61 48
89 66 52
90 66 55
81 60 48
82 62 46
86 65 47
81 60 49
86 63 51
89 66 52
91 67 55
84 62 49
91 67 55
90 66 54
83 61 49
88 65 53
87 64 52
84 62 51
87 64 51
87 65 50
88 64 55
88 65 53
89 66 53
85 62 51
78 57 46
86 64 51
82 61 46
90 67 53
91 67 55
84 62 50
85 63 49
134 92 102
202 131 174
202 131 174
202 131 174
202 131 174
202 131 174
202 131 174
202 131 174
202 131 174
202 131 174
202 131 174
202 131 174
202 131 174
202 131 174
202 131 174
202 131 174
202 131 174
202 131 174
202 131 174
202 131 174
202 131 174
202 131 174
202 131 174
202 131 174
202 131 174
202 131 174
202 131 174
202 131 174
202 131 174
202 131 174
202 131 174
202 131 174
202 131 174
202 131 174
202 131 174
202 131 174
202 131 174
202 131 174
202 131 174
202 131 174
202 131 174
202 131 174
202 131 174
202 131 174
202 131 174
202 131 174
202 131 174
202 131 174
202 131 174
202 131 174
202 131 174
202 131 174
202 131 174
202 131 174
202 131 174
202 131 174
202 131 174
202 131 174
202 131 174
202 131 174
202 131 174
202 131 174
202 131 174
202 131 174
202 131 174
202 131 174
202 131 174
202 131 174
202 131 174
202 131 174
202 131 174
202 131 174
202 131 174
202 131 174
202 131 174
202 131 174
202 131 173
202 131 174
202 131 174
202 131 173
202 131 173
202 131 173
202 131 173
202 131 173
202 131 173
202 131 173
202 131 173
202 131 173
202 131 173
202 131 173
202 131 173
202 132 173
202 132 173
202 132 173
202 132 173
202 132 173
202 132 173
202 132 173
202 132 173
202 132 173
202 132 173
202 132 173
202 132 173
202 132 173
202 132 173
202 132 173
202 132 173
202 132 173
202 132 173
202 132 173
202 132 173
202 132 173
202 132 173
202 132 173
202 132 173
202 132 173
202 132 173
202 132 173
202 132 173
202 132 173
202 132 173
202 132 173
202 132 173
202 132 173
202 132 173
202 132 173
202 132 173
202 132 173
202 132 173
202 132 173
202 132 173
202 132 173
202 132 173
202 132 173
202 132 173
202 132 173
202 131 174
202 131 174
202 131 174
202 131 174
202 131 174
202 131 174
202 131 174
202 131 174
202 131 174
202 131 174
202 131 174
202 131 174
202 131 174
202 131 174
202 131 174
202 131 174
202 131 174
202 131 174
202 131 174
202 131 174
202 131 174
202 131 174
202 131 174
202 131 174
202 131 174
202 131 174
202 131 174
202 131 174
202 131 174
202 131 174
202 131 174
202 131 174
202 131 174
202 131 174
202 131 174
202 131 174
202 131 174
202 131 174
202 131 174
202 131 174
202 131 174
202 131 174
202 131 174
202 131 174
202 131 174
202 131 174
202 131 174
202 131 174
202 131 174
202 131 174
202 131 174
202 131 174
202 131 174
202 131 174
202 131 174
202 131 174
202 131 174
202 131 174
202 131 174
202 131 174
202 131 174
202 131 174
202 131 174
202 131 174
202 131 174
202 131 174
202 131 174
202 131 174
202 131 174
202 131 174
202 131 174
202 131 174
202 131 174
202 131 174
202 131 174
202 131 174
202 131 174
202 131 174
202 131 174
202 131 174
202 131 174
202 131 174
202 131 174
202 131 174
202 131 174
202 131 174
202 131 174
202 131 174
202 131 174
202 131 174
202 131 174
202 131 174
202 131 174
202 131 174
202 131 174
202 131 174
202 131 174
202 131 174
202 131 174
202 131 174
202 131 174
202 131 174
202 131 174
202 131 174
202 131 174
202 131 174
202 131 174
202 131 174
202 131 174
202 131 174
202 131 174
202 131 174
202 131 174
202 131 174
202 131 174
202 131 174
202 131 174
202 131 174
202 131 174
202 131 174
202 131 174
202 131 174
202 131 174
202 131 174
202 131 174
202 131 174
202 131 174
202 131 174
202 131 174
202 131 174
202 131 174
202 131 174
202 130 174
202 130 174
202 130 174
149 100 117
87 64 53
78 58 46
92 68 57
83 61 49
80 59 48
87 64 53
89 65 57
80 59 45
83 62 48
80 60 44
91 66 57
87 64 52
87 65 50
84 63 48
83 60 51
86 64 52
86 63 52
86 64 51
90 66 54
86 63 53
87 65 51
83 62 49
88 65 53
87 65 50
90 67 53
85 63 52
85 62 51
85 63 51
87 65 51
85 63 52
85 63 50
84 62 50
87 64 52
88 65 52
88 65 51
90 67 51
89 67 50
81 59 50
87 65 50
84 61 52
86 64 51
90 66 55
86 63 52
82 60 51
91 68 54
89 64 57
88 65 51
86 64 50
88 65 53
82 61 48
86 64 50
86 64 51
87 63 54
86 64 50
88 65 54
86 64 52
85 63 48
88 65 53
88 66 50
86 64 52
82 61 48
83 62 48
87 63 53
87 65 51
89 65 54
91 67 55
84 63 47
87 64 53
89 65 55
81 60 49
85 64 49
87 64 51
88 65 52
82 61 49
88 65 52
89 66 54
92 68 56
88 66 50
89 65 53
81 60 47
87 64 52
84 63 49
85 63 51
85 63 50
93 68 57
82 61 49
89 65 55
91 67 55
84 62 50
85 63 49
81 61 47
88 64 53
89 65 56
83 62 48
90 67 53
79 58 46
83 61 51
88 65 51
86 64 50
91 67 56
84 62 50
84 62 49
86 64 52
87 64 52
85 63 49
89 65 55
83 61 51
86 64 52
85 62 53
88 65 52
87 64 53
84 63 47
82 60 51
80 59 50
86 64 51
88 65 53
81 60 47
85 62 53
84 62 50
83 61 50
87 63 54
89 66 52
91 67 55
87 65 52
87 66 49
86 63 52
82 61 46
82 60 50
144 96 115
202 130 174
202 130 174
202 131 174
202 130 174
202 131 174
202 131 174
202 131 174
202 131 174
202 131 174
202 131 174
202 131 174
202 131 174
202 131 174
202 131 174
202 131 174
202 131 174
202 131 174
202 131 174
202 131 174
202 131 174
202 131 174
202 131 174
202 131 174
202 131 174
202 131 174
202 131 174
202 131 174
202 131 174
202 131 174
202 131 174
202 131 174
202 131 174
202 131 174
202 131 174
202 131 174
202 131 174
202 131 174
202 131 174
202 131 174
202 131 174
202 131 174
202 131 174
202 131 174
202 131 174
202 131 174
202 131 174
202 131 174
202 131 174
202 131 174
202 131 174
202 131 174
202 131 174
202 131 174
202 131 174
202 131 174
202 131 174
202 131 174
202 131 174
202 131 174
202 131 174
202 131 174
202 131 174
202 131 174
202 131 174
202 131 174
202 131 174
202 131 174
202 131 174
202 131 174
202 131 174
202 131 174
202 131 174
202 131 174
202 131 174
202 131 174
202 131 174
202 131 174
202 131 174
202 131 174
202 131 174
202 131 174
202 131 174
202 131 174
202 131 174
202 131 174
202 131 174
202 131 174
202 131 174
202 131 174
202 131 174
202 131 174
202 131 174
202 131 174
202 131 174
202 131 174
202 131 174
202 131 174
202 131 174
202 131 174
202 131 174
202 131 174
202 131 174
202 131 174
202 131 174
202 131 174
202 131 174
202 131 174
202 131 174
202 131 174
202 131 174
202 131 174
202 131 174
202 131 174
202 131 174
202 131 174
202 131 174
202 131 174
202 131 174
202 131 174
202 131 174
202 131 174
202 131 174
202 131 174
202 131 174
202 131 174
202 131 174
202 131 174
202 131 174
202 131 174
202 131 174
202 131 174
202 131 174
202 131 174
202 131 174
202 131 174
202 131 174
202 131 174
202 131 174
202 131 174
202 131 174
202 131 174
202 131 174
202 131 174
202 131 174
202 131 174
202 131 174
202 131 174
202 131 174
202 131 174
202 131 174
202 131 174
202 131 174
202 131 174
202 131 174
202 131 174
202 131 174
202 131 174
202 131 174
202 131 174
202 131 174
202 131 174
202 131 174
202 131 174
202 131 174
202 131 174
202 131 174
202 131 174
202 131 174
202 131 174
202 131 174
202 131 174
202 131 174
202 131 174
202 131 174
202 131 174
202 131 174
202 131 174
202 131 174
202 131 174
202 131 174
202 131 174
202 131 174
202 131 174
202 131 174
202 131 174
202 131 174
202 131 174
202 131 174
202 131 174
202 131 174
202 131 174
202 131 174
202 131 174
202 131 174
202 131 174
202 131 174
202 131 174
202 131 174
202 131 174
202 131 174
202 131 174
202 131 174
202 131 174
202 131 174
202 131 174
202 131 174
202 131 174
202 131 174
202 131 174
202 131 174
202 131 174
202 131 174
202 131 174
202 131 174
202 131 174
202 131 174
202 131 174
202 131 174
202 131 174
202 131 174
202 131 174
202 131 174
202 130 174
202 130 174
202 130 174
202 130 175
202 130 175
202 130 175
202 130 175
202 130 175
202 130 175
201 130 175
201 130 175
201 130 175
201 130 175
201 130 175
201 130 175
201 130 175
201 130 175
201 130 175
201 130 175
201 130 175
201 130 175
201 130 175
201 130 175
201 130 175
201 130 175
201 130 175
201 130 175
201 130 175
201 130 175
201 130 175
201 130 175
201 130 175
201 130 175
201 130 175
201 130 175
201 130 175
201 130 175
201 130 175
201 130 175
201 130 175
201 130 175
201 130 175
201 130 175
201 130 175
201 130 175
201 130 175
201 130 175
201 130 175
153 102 123
81 61 45
83 61 51
80 60 43
83 61 50
85 63 49
86 63 52
88 65 52
87 65 49
87 64 52
82 61 47
87 63 53
85 63 50
87 64 53
85 63 52
86 64 51
84 63 49
82 62 47
89 66 52
87 65 51
87 64 54
83 62 47
88 64 54
85 63 51
78 58 45
85 63 49
83 63 46
79 58 48
88 65 52
91 67 54
89 66 53
87 63 55
91 68 53
85 62 52
87 65 51
86 64 49
82 60 50
86 63 53
90 65 56
87 64 53
85 63 51
86 64 51
87 65 51
86 63 54
86 63 51
91 68 52
87 65 51
89 66 53
80 60 45
83 62 49
87 64 51
86 64 51
83 62 47
88 64 53
83 61 49
88 65 53
88 64 56
79 59 45
87 64 52
84 62 50
90 66 54
88 64 54
89 65 53
86 63 52
84 63 49
85 62 51
83 62 49
87 65 51
87 65 49
85 62 53
87 64 52
86 64 50
87 64 53
83 62 48
87 65 49
81 60 47
86 64 49
86 63 52
81 59 49
83 61 51
92 66 59
84 62 50
84 62 50
90 66 55
84 63 48
87 65 50
87 64 50
88 65 54
89 65 56
85 63 50
87 64 51
87 64 53
85 62 52
85 64 48
86 64 51
87 66 49
87 65 52
84 63 48
91 67 55
86 64 51
83 61 51
82 61 47
83 61 51
88 64 56
83 62 47
83 62 49
82 61 48
84 63 49
88 65 53
86 64 50
84 62 49
88 65 51
85 64 48
88 65 55
82 61 48
86 63 53
90 66 54
88 64 54
87 64 52
84 62 50
84 63 47
90 65 56
85 63 51
93 69 55
84 62 50
90 66 54
91 67 54
87 64 52
87 64 52
140 94 109
201 130 175
201 130 175
201 130 175
201 130 175
201 130 175
201 130 175
201 130 175
201 130 175
201 130 175
201 130 175
201 130 175
201 130 175
201 130 175
201 130 175
201 130 175
201 130 175
201 130 175
201 130 175
201 130 175
201 130 175
201 130 175
201 130 175
201 130 175
201 130 175
201 130 175
201 130 175
201 130 175
201 130 175
201 130 175
201 130 175
201 130 175
201 130 175
201 130 175
201 130 175
201 130 175
201 130 175
201 130 175
201 130 175
201 130 175
201 130 175
202 130 175
202 130 175
202 130 175
202 130 175
202 130 174
202 130 174
202 130 174
202 130 174
202 130 174
202 131 174
202 131 174
202 131 174
202 131 174
202 131 174
202 131 174
202 131 174
202 131 174
202 131 174
202 131 174
202 131 174
202 131 174
202 131 174
202 131 174
202 131 174
202 131 174
202 131 174
202 131 174
202 131 174
202 131 174
202 131 174
202 131 174
202 131 174
202 131 174
202 131 174
202 131 174
202 131 174
202 131 174
202 131 174
202 131 174
202 131 174
202 131 174
202 131 174
202 131 174
202 131 174
202 131 174
202 131 174
202 131 174
202 131 174
202 131 174
202 131 174
202 131 174
202 131 174
202 131 174
202 131 174
202 131 174
202 131 174
202 131 174
202 131 174
202 131 174
202 131 174
202 131 174
202 131 174
202 131 174
202 131 174
202 131 174
202 131 174
202 131 174
202 131 174
202 131 174
202 131 174
202 131 174
202 131 174
202 131 174
202 131 174
202 131 174
202 131 174
202 131 174
202 131 174
202 131 174
202 131 174
202 131 174
202 131 174
202 131 174
202 131 174
202 131 174
202 131 174
202 131 174
202 131 174
202 131 174
202 131 174
202 131 174
202 131 174
202 131 174
202 131 174
202 131 174
202 131 174
202 131 174
202 131 174
202 131 174
202 131 174
202 131 174
202 131 174
202 131 174
202 131 174
202 131 174
202 131 174
202 131 174
202 131 174
202 131 174
202 131 174
202 131 174
202 131 174
202 131 174
202 131 174
202 131 174
202 131 174
202 131 174
202 131 174
202 131 174
202 131 174
202 131 174
202 131 174
202 131 174
202 131 174
202 131 174
202 131 174
202 131 174
202 131 174
202 131 174
202 131 174
202 131 174
202 131 174
202 131 174
202 131 174
202 131 174
202 131 174
202 131 174
202 131 174
202 131 174
202 131 174
202 131 174
202 131 174
202 131 174
202 130 174
202 130 174
202 130 174
202 130 174
202 130 174
202 130 174
202 130 175
202 130 175
201 130 175
202 130 175
202 130 175
201 130 175
201 130 175
201 130 175
201 130 175
201 130 175
201 130 175
201 130 175
201 130 175
201 130 175
201 130 175
201 130 175
201 130 175
201 130 175
201 130 175
201 130 175
201 130 175
201 130 175
201 130 175
201 130 175
201 130 175
201 130 175
201 130 175
201 130 175
201 130 175
201 130 175
201 130 175
201 130 175
201 130 175
201 130 175
201 130 175
201 130 175
201 130 175
201 130 175
201 130 175
201 130 175
201 130 175
201 130 175
201 130 175
201 130 175
201 130 175
201 130 175
201 130 175
201 130 175
201 130 175
201 130 175
201 130 175
201 130 175
201 130 175
201 130 175
201 130 175
201 130 175
201 130 175
201 130 175
201 130 175
201 130 175
201 130 175
201 130 175
201 130 175
201 130 175
201 130 175
201 130 175
201 130 175
201 130 175
201 130 175
201 130 175
201 130 175
201 130 175
201 130 175
201 130 175
201 130 175
201 130 175
201 130 175
201 130 175
201 130 175
201 130 175
201 130 175
154 102 125
83 61 49
85 63 51
83 61 50
95 70 57
92 68 54
85 64 49
82 60 50
87 65 49
85 63 50
87 65 50
87 64 52
86 65 49
88 65 52
89 66 53
89 65 54
83 61 49
87 64 53
90 66 55
89 64 56
84 63 49
85 64 47
88 65 53
86 63 53
82 60 50
82 61 47
85 62 52
83 62 48
85 63 51
88 65 51
89 65 54
89 66 53
90 65 57
86 64 52
82 60 49
89 65 55
82 60 49
91 66 55
81 60 47
87 65 50
88 64 55
91 67 55
83 62 48
87 64 53
87 65 51
89 65 53
83 61 51
84 62 50
82 61 48
86 64 50
86 64 51
84 63 48
88 65 52
88 65 52
83 61 51
83 62 48
84 62 52
85 63 49
85 63 51
91 67 56
87 64 51
84 62 48
85 63 49
92 67 56
83 61 50
89 66 55
79 58 49
85 64 49
82 61 47
83 62 49
88 65 52
81 60 47
91 67 55
80 60 46
85 64 48
83 61 48
81 60 48
83 61 49
85 62 51
85 63 49
89 65 55
87 64 50
90 66 55
85 62 51
86 64 49
91 66 57
89 65 53
83 61 49
82 60 49
83 61 50
88 65 53
91 67 54
89 67 51
83 61 50
87 64 52
84 62 50
80 59 47
85 64 48
84 62 50
87 64 53
83 61 49
83 62 50
88 65 54
87 64 53
85 63 51
83 62 49
85 63 51
88 64 54
81 61 45
86 63 53
85 63 51
87 64 51
85 64 48
86 63 52
88 65 53
87 65 50
83 62 48
85 63 50
82 61 47
87 63 54
80 59 47
84 61 52
86 64 51
80 58 50
87 64 53
84 63 47
81 61 47
74 55 43
80 60 47
154 102 125
201 130 175
201 130 175
201 130 175
201 130 175
201 130 175
201 130 175
201 130 175
201 130 175
201 130 175
201 130 175
201 130 175
201 130 175
201 130 175
201 130 175
201 130 175
201 130 175
201 130 175
201 130 175
201 130 175
201 130 175
201 130 175
201 130 175
201 130 175
201 130 175
201 130 175
201 130 175
201 130 175
201 130 175
201 130 175
201 130 175
201 130 175
201 130 175
201 130 175
201 130 175
201 130 175
201 130 175
201 130 175
201 130 175
201 130 175
201 130 175
201 130 175
201 130 175
201 130 175
201 130 175
201 130 175
201 130 175
201 130 175
201 130 175
201 130 175
201 130 175
201 130 175
201 130 175
201 130 175
201 130 175
201 130 175
201 130 175
201 130 175
201 130 175
201 130 175
201 130 175
201 130 175
201 130 175
201 130 175
201 130 175
201 130 175
201 130 175
201 130 175
201 130 175
201 130 175
201 130 175
201 130 175
201 130 175
201 130 175
201 130 175
201 130 175
201 130 175
201 130 175
202 130 175
202 130 175
202 130 175
202 130 175
202 130 174
202 130 175
202 130 175
202 130 174
202 130 174
202 130 174
202 131 174
202 131 174
202 131 174
202 131 174
202 131 174
202 131 174
202 131 174
202 131 174
202 131 174
202 131 174
202 131 174
202 131 174
202 131 174
202 131 174
202 131 174
202 131 174
202 131 174
202 131 174
202 131 174
202 131 174
202 131 174
202 131 174
202 131 174
202 131 174
202 131 174
202 131 174
202 131 174
202 131 174
202 131 174
202 131 174
202 131 174
202 131 174
202 131 174
202 131 174
202 131 174
202 131 174
202 131 174
202 131 174
202 131 174
202 131 174
202 131 174
202 131 174
202 131 174
202 131 174
202 131 174
202 131 174
202 131 174
202 131 174
202 131 174
202 131 174
202 131 174
202 131 174
202 131 174
202 131 174
202 131 174
202 131 174
202 131 174
202 131 174
202 131 174
202 131 174
202 131 174
202 130 174
202 130 174
202 130 174
202 130 174
202 130 174
202 130 175
202 130 175
202 130 175
202 130 175
202 130 175
202 130 175
201 130 175
201 130 175
201 130 175
201 130 175
201 130 175
201 130 175
201 130 175
201 130 175
201 130 175
201 130 175
201 130 175
201 130 175
201 130 175
201 130 175
201 130 175
201 130 175
201 130 175
201 130 175
201 130 175
201 130 175
201 130 175
201 130 175
201 130 175
201 130 175
201 130 175
201 130 175
201 130 175
201 130 175
201 130 175
201 130 175
201 130 175
201 130 175
201 130 175
201 130 175
201 130 175
201 130 175
201 130 175
201 130 175
201 130 175
201 130 175
201 130 175
201 130 175
201 130 175
201 130 175
201 130 175
201 130 175
201 130 175
201 130 175
201 130 175
201 130 175
201 130 175
201 130 175
201 130 175
201 130 175
201 130 175
201 130 175
201 130 175
201 130 175
201 130 175
201 130 175
201 130 175
201 130 175
201 130 175
201 130 175
201 130 175
201 130 175
201 130 175
201 130 175
201 130 175
201 130 175
201 130 175
201 130 175
201 130 175
201 130 175
201 130 175
201 130 175
201 130 175
201 130 175
201 130 175
201 130 175
201 129 175
201 129 176
201 129 176
201 129 176
201 129 176
201 129 176
201 129 176
201 129 176
201 129 176
201 129 176
201 129 176
201 129 176
201 129 176
201 129 176
201 129 176
201 129 176
201 129 176
201 129 176
201 129 176
201 129 176
201 129 176
201 129 176
201 129 176
201 129 176
201 129 176
201 129 176
201 129 176
201 129 176
201 129 176
201 129 176
201 129 176
175 115 148
85 63 50
89 65 55
86 64 51
81 59 50
86 64 49
85 63 49
86 63 53
83 62 48
87 64 52
86 65 49
84 63 48
84 64 47
83 62 46
86 63 52
85 63 50
86 64 52
86 64 50
86 64 52
87 65 50
88 65 53
85 62 51
95 70 55
84 62 48
86 63 51
83 63 47
87 64 51
84 62 50
82 61 48
88 65 53
85 62 52
85 62 53
83 61 49
83 62 49
85 63 50
96 70 59
86 64 50
87 64 52
86 64 50
85 63 51
89 65 55
86 64 50
86 63 53
88 65 55
86 63 52
83 62 48
88 66 51
87 64 52
84 63 48
83 62 48
86 64 50
87 63 53
80 58 49
88 65 53
86 63 54
88 65 53
80 60 45
85 64 47
90 65 56
84 63 48
82 61 48
90 66 54
84 62 50
88 64 54
89 66 52
87 64 53
77 58 43
84 61 52
86 64 50
89 66 52
91 67 55
83 63 45
77 57 45
84 63 47
84 62 49
87 64 53
85 63 50
87 64 51
89 67 51
83 60 51
85 62 52
82 61 45
88 65 51
88 65 53
90 66 55
86 63 52
85 62 54
87 64 53
85 63 51
86 63 54
87 64 53
88 65 52
82 61 49
87 64 53
91 66 55
88 64 56
84 61 51
82 61 49
86 62 55
79 59 46
88 66 51
86 63 51
86 63 51
87 65 48
86 64 50
91 66 57
86 64 49
87 64 52
87 65 50
86 64 51
87 65 50
83 61 49
83 61 51
82 61 47
87 64 52
85 63 50
87 63 56
86 63 50
86 64 51
88 64 55
89 65 54
84 61 53
83 61 50
86 64 50
80 59 46
89 66 52
85 63 52
87 64 52
87 63 53
173 113 147
201 129 176
201 129 176
201 129 176
201 129 176
201 129 176
201 129 176
201 129 176
201 129 176
201 129 176
201 129 176
201 129 176
201 129 176
201 129 176
201 129 176
201 129 176
201 129 176
201 129 176
201 129 176
201 129 176
201 129 176
201 129 176
201 129 176
201 129 176
201 129 176
201 129 176
201 129 176
201 129 176
201 129 176
201 129 176
201 129 176
201 129 176
201 129 175
201 130 175
201 130 175
201 130 175
201 130 175
201 130 175
201 130 175
201 130 175
201 130 175
201 130 175
201 130 175
201 130 175
201 130 175
201 130 175
201 130 175
201 130 175
201 130 175
201 130 175
201 130 175
201 130 175
201 130 175
201 130 175
201 130 175
201 130 175
201 130 175
201 130 175
201 130 175
201 130 175
201 130 175
201 130 175
201 130 175
201 130 175
201 130 175
201 130 175
201 130 175
201 130 175
201 130 175
201 130 175
201 130 175
201 130 175
201 130 175
201 130 175
201 130 175
201 130 175
201 130 175
201 130 175
201 130 175
201 130 175
201 130 175
201 130 175
201 130 175
201 130 175
201 130 175
201 130 175
201 130 175
201 130 175
201 130 175
201 130 175
201 130 175
201 130 175
201 130 175
201 130 175
201 130 175
201 130 175
201 130 175
201 130 175
201 130 175
201 130 175
201 130 175
201 130 175
201 130 175
201 130 175
201 130 175
201 130 175
201 130 175
201 130 175
201 130 175
201 130 175
201 130 175
201 130 175
202 130 175
202 130 175
202 130 175
202 130 175
202 130 175
202 130 174
202 130 174
202 130 174
202 130 174
202 130 174
202 131 174
202 131 174
202 131 174
202 131 174
202 131 174
202 131 174
202 131 174
202 131 174
202 131 174
202 131 174
202 131 174
202 131 174
202 131 174
202 131 174
201 130 175
201 130 175
201 130 175
201 130 175
201 130 175
201 130 175
201 130 175
201 130 175
201 130 175
201 130 175
201 130 175
201 130 175
201 130 175
201 130 175
201 130 175
201 130 175
201 130 175
201 130 175
201 130 175
201 130 175
201 130 175
201 130 175
201 130 175
201 130 175
201 130 175
201 130 175
201 130 175
201 130 175
201 130 175
201 130 175
201 130 175
201 130 175
201 130 175
201 130 175
201 130 175
201 130 175
201 130 175
201 130 175
201 130 175
201 130 175
201 130 175
201 130 175
201 130 175
201 130 175
201 130 175
201 130 175
201 130 175
201 130 175
201 130 175
201 130 175
201 130 175
201 130 175
201 130 175
201 130 175
201 130 175
201 130 175
201 130 175
201 130 175
201 130 175
201 130 175
201 130 175
201 130 175
201 130 175
201 130 175
201 130 175
201 130 175
201 130 175
201 130 175
201 130 175
201 130 175
201 130 175
201 130 175
201 130 175
201 130 175
201 130 175
201 130 175
201 130 175
201 129 175
201 129 176
201 129 176
201 129 176
201 129 176
201 129 176
201 129 176
201 129 176
201 129 176
201 129 176
201 129 176
201 129 176
201 129 176
201 129 176
201 129 176
201 129 176
201 129 176
201 129 176
201 129 176
201 129 176
201 129 176
201 129 176
201 129 176
201 129 176
201 129 176
201 129 176
201 129 176
201 129 176
201 129 176
201 129 176
201 129 176
201 129 176
201 129 176
201 129 176
200 129 176
200 129 176
200 129 176
200 129 176
200 129 176
200 129 176
200 129 176
200 129 176
200 129 176
200 129 176
200 129 176
200 129 176
200 129 176
200 129 176
200 129 176
200 129 176
200 129 176
200 129 176
200 129 176
200 129 176
200 129 176
200 129 176
200 129 176
200 129 176
185 120 160
79 59 46
84 63 48
84 62 49
87 64 52
81 60 47
84 62 52
79 58 46
83 62 47
86 64 50
91 67 55
85 63 51
86 64 51
85 64 49
80 59 46
88 66 51
86 63 52
84 62 49
81 61 46
83 62 47
85 63 51
89 67 51
76 57 44
87 65 50
87 64 53
88 65 54
88 65 54
86 63 52
85 63 50
86 64 51
84 62 50
86 63 53
86 63 52
87 65 49
87 64 54
84 61 51
84 61 53
90 67 51
87 64 51
83 62 49
84 62 50
91 66 57
92 68 55
86 64 52
84 63 48
88 65 52
84 62 50
86 64 52
85 63 51
81 60 48
87 63 55
85 62 53
76 57 44
86 63 52
86 62 53
84 62 49
87 64 53
87 64 53
87 64 54
82 61 46
85 62 53
83 62 48
84 62 52
81 59 49
88 65 53
85 63 50
86 64 50
80 59 47
81 60 47
86 64 50
82 61 48
81 58 52
84 63 48
88 65 53
88 65 52
87 64 54
85 63 52
85 62 54
88 65 53
81 60 46
87 65 52
84 62 51
81 61 45
80 59 50
82 61 49
86 64 50
88 65 52
85 64 49
86 64 50
81 59 50
89 66 53
85 61 54
91 67 54
88 66 50
81 60 47
86 64 49
84 62 50
83 61 50
83 61 50
87 64 53
84 62 50
87 65 48
88 66 51
82 61 48
88 65 53
84 62 50
88 65 52
86 63 53
85 63 51
84 62 50
82 61 47
82 60 50
84 63 48
84 62 48
84 62 50
84 62 49
84 62 50
88 66 49
91 68 51
89 66 52
82 61 48
84 61 51
83 62 49
79 58 46
83 62 48
83 62 49
83 62 49
84 62 49
87 63 55
194 125 168
200 129 176
200 129 176
200 129 176
200 129 176
200 129 176
200 129 176
200 129 176
200 129 176
200 129 176
200 129 176
200 129 176
200 129 176
200 129 176
200 129 176
200 129 176
200 129 176
200 129 176
200 129 176
200 129 176
200 129 176
200 129 176
200 129 176
200 129 176
201 129 176
201 129 176
201 129 176
201 129 176
201 129 176
201 129 176
201 129 176
201 129 176
201 129 176
201 129 176
201 129 176
201 129 176
201 129 176
201 129 176
201 129 176
201 129 176
201 129 176
201 129 176
201 129 176
201 129 176
201 129 176
201 129 176
201 129 176
201 129 176
201 129 176
201 129 176
201 129 176
201 129 176
201 129 176
201 129 176
201 129 176
201 129 176
201 129 176
201 129 176
201 129 176
201 130 175
201 130 175
201 130 175
201 130 175
201 130 175
201 130 175
201 130 175
201 130 175
201 130 175
201 130 175
201 130 175
201 130 175
201 130 175
201 130 175
201 130 175
201 130 175
201 130 175
201 130 175
201 130 175
201 130 175
201 130 175
201 130 175
201 130 175
201 130 175
201 130 175
201 130 175
201 130 175
201 130 175
201 130 175
201 130 175
201 130 175
201 130 175
201 130 175
201 130 175
201 130 175
201 130 175
201 130 175
201 130 175
201 130 175
201 130 175
201 130 175
201 130 175
201 130 175
201 130 175
201 130 175
201 130 175
201 130 175
201 130 175
201 130 175
201 130 175
201 130 175
201 130 175
201 130 175
201 130 175
201 130 175
201 130 175
201 130 175
201 130 175
201 130 175
201 130 175
201 130 175
201 130 175
201 130 175
201 130 175
201 130 175
201 130 175
201 130 175
201 130 175
201 130 175
201 130 175
201 130 175
201 130 175
201 130 175
201 130 175
201 130 175
201 130 175
201 130 175
201 130 175
201 130 175
201 130 175
201 130 175
201 130 175
201 130 175
201 130 175
201 130 175
201 130 175
201 130 175
201 130 175
201 130 175
201 130 175
201 130 175
201 130 175
201 130 175
201 130 175
201 130 175
201 130 175
201 130 175
201 130 175
201 130 175
201 130 175
201 130 175
201 130 175
201 130 175
201 130 175
201 130 175
201 130 175
201 130 175
201 130 175
201 130 175
201 130 175
201 130 175
201 130 175
201 130 175
201 130 175
201 130 175
201 130 175
201 130 175
201 130 175
201 130 175
201 130 175
201 130 175
201 130 175
201 130 175
201 130 175
201 130 175
201 130 175
201 130 175
201 129 175
201 129 175
201 129 176
201 129 176
201 129 176
201 129 176
201 129 176
201 129 176
201 129 176
201 129 176
201 129 176
201 129 176
201 129 176
201 129 176
201 129 176
201 129 176
201 129 176
201 129 176
201 129 176
201 129 176
201 129 176
201 129 176
201 129 176
201 129 176
201 129 176
201 129 176
201 129 176
201 129 176
201 129 176
201 129 176
201 129 176
201 129 176
201 129 176
201 129 176
201 129 176
201 129 176
201 129 176
200 129 176
200 129 176
200 129 176
200 129 176
200 129 176
200 129 176
200 129 176
200 129 176
200 129 176
200 129 176
200 129 176
200 129 176
200 129 176
200 129 176
200 129 176
200 129 176
200 129 176
200 129 176
200 129 176
200 129 176
200 129 176
200 129 176
200 129 176
200 129 176
200 129 176
200 129 176
200 128 177
200 128 177
200 128 177
200 128 177
200 128 177
200 128 177
200 128 177
200 128 177
200 128 177
200 128 177
200 128 177
200 128 177
200 128 177
200 128 177
200 128 177
200 128 177
200 128 177
200 128 177
200 128 177
200 128 177
200 128 177
200 128 177
200 128 177
88 64 56
87 65 51
86 63 52
79 57 48
83 61 49
88 65 54
87 64 50
87 64 55
84 63 47
88 65 52
88 65 52
84 62 50
79 58 47
85 64 48
80 59 49
85 63 49
81 60 48
83 61 50
88 65 53
83 61 49
82 61 48
81 59 53
86 64 50
89 65 54
84 62 49
87 64 53
83 62 48
88 66 52
88 63 57
82 60 50
83 62 49
85 63 49
84 63 48
81 60 48
83 63 46
90 67 52
88 65 52
85 63 52
86 64 51
86 63 52
87 64 52
83 62 48
82 62 45
84 62 51
86 64 50
83 61 50
81 60 48
84 63 48
86 63 51
86 63 53
85 63 50
86 64 50
81 60 49
81 60 47
86 63 51
88 65 50
84 62 52
81 59 50
87 64 51
88 64 54
87 65 51
87 64 52
85 63 50
88 66 49
83 61 49
83 61 49
81 59 48
85 63 50
84 62 50
84 62 50
79 59 43
83 61 50
90 66 56
84 63 50
84 62 49
86 63 52
82 61 48
83 61 50
83 62 46
85 62 53
85 63 50
83 62 47
85 62 52
86 64 52
87 64 51
84 62 52
86 64 50
87 64 53
88 65 52
89 65 56
88 65 54
87 64 52
84 62 49
85 63 48
84 62 50
85 62 52
88 65 54
86 63 53
87 64 54
82 60 49
85 63 51
86 64 49
84 62 50
89 66 54
89 65 55
82 62 46
84 61 53
88 65 54
90 67 53
78 58 46
84 61 52
83 62 48
87 64 52
86 63 53
89 65 55
86 62 53
86 63 52
85 63 50
82 61 47
83 62 49
85 63 50
79 59 44
83 61 51
83 62 46
85 63 49
86 64 49
84 63 50
87 64 53
198 127 175
200 128 177
200 128 177
200 128 177
200 128 177
200 128 177
200 128 177
200 128 177
200 128 177
200 128 177
200 128 177
200 128 177
200 128 177
200 128 177
200 128 177
200 128 177
200 128 177
200 128 177
200 128 177
200 128 177
200 128 177
200 128 177
200 129 176
200 129 176
200 129 176
200 129 176
200 129 176
200 129 176
200 129 176
200 129 176
200 129 176
200 129 176
200 129 176
200 129 176
200 129 176
200 129 176
200 129 176
200 129 176
200 129 176
200 129 176
200 129 176
200 129 176
200 129 176
200 129 176
200 129 176
200 129 176
200 129 176
200 129 176
200 129 176
201 129 176
201 129 176
201 129 176
201 129 176
201 129 176
201 129 176
201 129 176
201 129 176
201 129 176
201 129 176
201 129 176
201 129 176
201 129 176
201 129 176
201 129 176
201 129 176
201 129 176
201 129 176
201 129 176
201 129 176
201 129 176
201 129 176
201 129 176
201 129 176
201 129 176
201 129 176
201 129 176
201 129 176
201 129 176
201 129 176
201 129 176
201 129 176
201 129 176
201 129 176
201 129 176
201 129 176
201 130 175
201 130 175
201 130 175
201 130 175
201 130 175
201 130 175
201 130 175
201 130 175
201 130 175
201 130 175
201 130 175
201 130 175
201 130 175
201 130 175
201 130 175
201 130 175
201 130 175
201 130 175
201 130 175
201 130 175
201 130 175
201 130 175
201 130 175
201 130 175
201 130 175
201 130 175
201 130 175
201 130 175
201 130 175
201 130 175
201 130 175
201 130 175
201 130 175
201 130 175
201 130 175
201 130 175
201 130 175
201 130 175
201 130 175
201 130 175
201 130 175
201 130 175
201 130 175
201 130 175
201 130 175
201 130 175
201 130 175
201 130 175
201 130 175
201 130 175
201 130 175
201 130 175
201 130 175
201 130 175
201 130 175
201 130 175
201 130 175
201 130 175
201 130 175
201 130 175
201 130 175
201 130 175
201 130 175
201 130 175
201 130 175
201 130 175
201 130 175
201 130 175
201 130 175
201 130 175
201 130 175
201 130 175
201 130 175
201 130 175
201 130 175
201 130 175
201 130 175
201 130 175
201 129 175
201 129 176
201 129 176
201 129 176
201 129 176
201 129 176
201 129 176
201 129 176
201 129 176
201 129 176
201 129 176
201 129 176
201 129 176
201 129 176
201 129 176
201 129 176
201 129 176
201 129 176
201 129 176
201 129 176
201 129 176
201 129 176
201 129 176
201 129 176
201 129 176
201 129 176
201 129 176
201 129 176
201 129 176
201 129 176
201 129 176
201 129 176
201 129 176
201 129 176
201 129 176
201 129 176
201 129 176
200 129 176
200 129 176
200 129 176
200 129 176
200 129 176
200 129 176
200 129 176
200 129 176
200 129 176
200 129 176
200 129 176
200 129 176
200 129 176
200 129 176
200 129 176
200 129 176
200 129 176
200 129 176
200 129 176
200 129 176
200 129 176
200 129 176
200 129 176
200 129 176
200 129 176
200 129 176
200 128 177
200 128 177
200 128 177
200 128 177
200 128 177
200 128 177
200 128 177
200 128 177
200 128 177
200 128 177
200 128 177
200 128 177
200 128 177
200 128 177
200 128 177
200 128 177
200 128 177
200 128 177
200 128 177
200 128 177
200 128 177
200 128 177
200 128 177
200 128 177
200 128 177
200 128 177
200 128 177
200 128 177
200 128 177
200 128 177
200 128 177
200 128 177
200 128 177
200 128 177
200 128 177
200 128 177
200 128 177
200 128 177
200 128 177
200 128 177
200 128 177
200 128 177
200 128 177
200 128 177
200 128 177
200 128 177
109 76 80
88 64 54
80 59 49
83 61 49
81 61 47
75 56 43
86 63 53
78 58 48
82 60 50
86 63 52
85 62 52
82 61 50
84 62 50
82 61 47
87 65 50
84 62 49
81 61 47
84 62 51
86 63 54
80 60 45
81 59 48
83 62 48
86 64 51
84 63 47
83 61 49
83 62 49
84 63 49
86 64 49
86 63 54
83 62 49
79 58 48
83 62 48
84 63 48
86 63 53
88 65 54
84 62 52
83 61 51
83 60 53
85 62 53
84 62 50
86 63 54
88 65 52
88 64 54
82 60 49
83 61 51
86 63 53
82 61 46
87 64 51
86 63 53
85 63 51
91 67 54
85 62 52
82 60 49
83 61 49
81 59 50
81 60 47
86 64 52
88 64 56
84 62 50
87 64 52
84 62 50
86 64 51
87 64 54
84 62 49
82 61 50
87 64 53
81 59 48
88 64 56
85 63 49
85 63 50
84 63 49
84 62 52
82 60 50
88 64 54
86 64 51
84 62 48
87 64 53
82 61 49
83 62 49
83 61 50
83 62 46
82 61 48
89 65 55
84 62 52
78 57 47
88 64 55
87 64 53
85 63 50
83 61 50
80 60 46
83 61 48
85 62 54
86 64 51
88 66 50
87 64 51
90 66 55
86 64 51
85 62 52
86 63 51
84 62 49
85 63 51
87 64 53
83 62 48
86 63 51
88 65 53
84 62 50
84 63 46
85 63 51
83 62 48
85 63 50
80 59 47
86 63 51
79 58 47
85 63 52
80 59 48
88 64 54
83 61 50
86 64 51
85 63 50
83 62 48
80 59 48
85 64 49
83 61 49
79 58 46
84 62 51
82 60 50
83 62 49
103 72 72
200 128 177
200 128 177
200 128 177
200 128 177
200 128 177
200 128 177
200 128 177
200 128 177
200 128 177
200 128 177
200 128 177
200 128 177
200 128 177
200 128 177
200 128 177
200 128 177
200 128 177
200 128 177
200 128 177
200 128 177
200 128 177
200 128 177
200 128 177
200 128 177
200 128 177
200 128 177
200 128 177
200 128 177
200 128 177
200 128 177
200 128 177
200 128 177
200 128 177
200 128 177
200 128 177
200 128 177
200 128 177
200 128 177
200 128 177
200 128 177
200 128 177
200 128 177
200 128 177
200 128 177
200 128 177
200 129 176
200 129 177
200 129 176
200 129 176
200 129 176
200 129 176
200 129 176
200 129 176
200 129 176
200 129 176
200 129 176
200 129 176
200 129 176
200 129 176
200 129 176
200 129 176
200 129 176
200 129 176
200 129 176
200 129 176
200 129 176
200 129 176
200 129 176
200 129 176
200 129 176
200 129 176
201 129 176
201 129 176
201 129 176
201 129 176
201 129 176
201 129 176
201 129 176
201 129 176
201 129 176
201 129 176
201 129 176
201 129 176
201 129 176
201 129 176
201 129 176
201 129 176
201 129 176
201 129 176
201 129 176
201 129 176
201 129 176
201 129 176
201 129 176
201 129 176
201 129 176
201 129 176
201 129 176
201 129 176
201 129 176
201 129 176
201 129 176
201 129 176
201 129 176
201 129 176
201 129 176
201 129 176
201 129 176
201 129 176
201 130 175
201 130 175
201 130 175
201 130 175
201 130 175
201 130 175
201 130 175
201 130 175
201 130 175
201 130 175
201 130 175
201 130 175
201 130 175
201 130 175
201 130 175
201 130 175
201 130 175
201 130 175
201 130 175
201 130 175
201 130 175
201 130 175
201 130 175
201 130 175
201 130 175
201 130 175
201 130 175
201 130 175
201 130 175
201 130 175
201 130 175
201 129 175
201 129 176
201 129 176
201 129 176
201 129 176
201 129 176
201 129 176
201 129 176
201 129 176
201 129 176
201 129 176
201 129 176
201 129 176
201 129 176
201 129 176
201 129 176
201 129 176
201 129 176
201 129 176
201 129 176
201 129 176
201 129 176
201 129 176
201 129 176
201 129 176
201 129 176
201 129 176
201 129 176
201 129 176
201 129 176
201 129 176
201 129 176
201 129 176
201 129 176
201 129 176
201 129 176
201 129 176
201 129 176
201 129 176
200 129 176
200 129 176
200 129 176
200 129 176
200 129 176
200 129 176
200 129 176
200 129 176
200 129 176
200 129 176
200 129 176
200 129 176
200 129 176
200 129 176
200 129 176
200 129 176
200 129 176
200 129 176
200 129 176
200 129 176
200 129 176
200 129 176
200 129 176
200 129 176
200 129 176
200 129 176
200 129 176
200 129 176
200 128 177
200 128 177
200 128 177
200 128 177
200 128 177
200 128 177
200 128 177
200 128 177
200 128 177
200 128 177
200 128 177
200 128 177
200 128 177
200 128 177
200 128 177
200 128 177
200 128 177
200 128 177
200 128 177
200 128 177
200 128 177
200 128 177
200 128 177
200 128 177
200 128 177
200 128 177
200 128 177
200 128 177
200 128 177
200 128 177
200 128 177
200 128 177
200 128 177
200 128 177
200 128 177
200 128 177
200 128 177
200 128 177
200 128 177
200 128 177
200 128 177
200 128 177
200 128 177
200 128 177
200 128 177
200 128 177
200 128 177
200 128 177
200 128 178
199 127 178
199 127 178
199 127 178
199 127 178
199 127 178
199 127 178
199 127 178
199 127 178
199 127 178
199 127 178
199 127 178
199 127 178
199 127 178
198 126 176
196 126 173
189 123 162
127 86 97
84 62 51
79 58 47
78 58 45
85 62 51
86 64 52
86 63 52
88 64 56
84 63 47
80 59 48
80 59 49
83 62 48
88 65 53
84 61 52
81 61 47
86 63 53
82 61 47
83 61 49
82 60 50
79 59 46
87 64 52
81 60 47
85 62 52
85 62 52
82 60 49
82 61 47
83 61 51
82 61 50
87 64 51
84 61 51
84 63 49
80 59 48
82 61 46
84 62 52
85 62 52
83 61 51
86 64 50
80 60 47
86 63 52
85 63 51
84 62 48
84 63 48
90 67 53
86 64 49
84 62 52
81 61 46
83 61 50
82 61 48
86 63 52
81 59 50
87 65 51
80 59 47
80 59 49
82 61 49
84 63 48
82 62 46
85 63 49
87 65 51
85 62 53
79 60 43
82 61 47
88 65 53
80 59 47
89 66 53
85 62 51
85 63 50
83 61 50
79 59 44
89 65 53
86 64 50
84 62 50
79 59 46
87 65 51
86 64 49
86 64 48
84 63 48
83 62 48
83 62 48
79 58 46
87 65 51
91 67 56
88 65 52
85 64 49
85 62 53
82 61 46
80 59 49
84 63 46
82 60 51
88 64 54
83 61 50
83 60 52
82 61 47
81 59 52
83 61 51
84 62 50
82 60 49
82 61 47
80 59 47
83 61 49
84 61 52
79 59 45
82 61 49
88 65 51
88 65 51
90 66 55
89 66 52
84 62 50
87 65 51
86 64 52
84 63 49
85 62 52
84 61 52
85 63 49
83 61 49
83 62 49
85 62 53
80 59 49
86 63 51
86 63 54
86 63 52
84 63 48
85 62 53
87 64 53
86 64 50
87 64 54
85 63 51
82 59 53
119 83 85
188 123 159
193 125 166
197 126 172
199 127 178
199 127 178
199 127 178
199 127 178
199 127 178
199 127 178
199 127 178
199 127 178
199 127 178
199 127 178
199 127 178
199 127 178
199 127 178
200 128 178
200 128 177
200 128 177
200 128 177
200 128 177
200 128 177
200 128 177
200 128 177
200 128 177
200 128 177
200 128 177
200 128 177
200 128 177
200 128 177
200 128 177
200 128 177
200 128 177
200 128 177
200 128 177
200 128 177
200 128 177
200 128 177
200 128 177
200 128 177
200 128 177
200 128 177
200 128 177
200 128 177
200 128 177
200 128 177
200 128 177
200 128 177
200 128 177
200 128 177
200 128 177
200 128 177
200 128 177
200 128 177
200 128 177
200 128 177
200 128 177
200 128 177
200 128 177
200 128 177
200 128 177
200 128 177
200 128 177
200 128 177
200 128 177
200 128 177
200 129 176
200 129 176
200 129 176
200 129 176
200 129 176
200 129 176
200 129 176
200 129 176
200 129 176
200 129 176
200 129 176
200 129 176
200 129 176
200 129 176
200 129 176
200 129 176
200 129 176
200 129 176
200 129 176
200 129 176
200 129 176
200 129 176
200 129 176
200 129 176
200 129 176
200 129 176
201 129 176
201 129 176
201 129 176
201 129 176
201 129 176
201 129 176
201 129 176
201 129 176
201 129 176
201 129 176
201 129 176
201 129 176
201 129 176
201 129 176
201 129 176
201 129 176
201 129 176
201 129 176
201 129 176
201 129 176
201 129 176
201 129 176
201 129 176
201 129 176
201 129 176
201 129 176
201 129 176
201 129 176
201 129 176
201 129 176
201 129 176
201 129 176
201 129 176
201 129 176
201 129 176
201 129 176
201 129 176
201 129 176
201 129 176
201 129 176
201 129 175
201 130 175
201 130 175
201 130 175
201 129 176
201 129 176
201 129 176
201 129 176
201 129 176
201 129 176
201 129 176
201 129 176
201 129 176
201 129 176
201 129 176
201 129 176
201 129 176
201 129 176
201 129 176
201 129 176
201 129 176
201 129 176
201 129 176
201 129 176
201 129 176
201 129 176
201 129 176
201 129 176
200 129 176
200 129 176
200 129 176
200 129 176
200 129 176
200 129 176
200 129 176
200 129 176
200 129 176
200 129 176
200 129 176
200 129 176
200 129 176
200 129 176
200 129 176
200 129 176
200 129 176
200 129 176
200 129 176
200 129 176
200 129 176
200 129 176
200 129 176
200 129 176
200 129 176
200 129 176
200 129 176
200 128 177
200 128 177
200 128 177
200 128 177
200 128 177
200 128 177
200 128 177
200 128 177
200 128 177
200 128 177
200 128 177
200 128 177
200 128 177
200 128 177
200 128 177
200 128 177
200 128 177
200 128 177
200 128 177
200 128 177
200 128 177
200 128 177
200 128 177
200 128 177
200 128 177
200 128 177
200 128 177
200 128 177
200 128 177
200 128 177
200 128 177
200 128 177
200 128 177
200 128 177
200 128 177
200 128 177
200 128 177
200 128 177
200 128 177
200 128 177
200 128 177
200 128 177
200 128 177
200 128 177
200 128 177
200 128 177
200 128 177
200 128 177
200 128 177
200 128 178
199 127 178
199 127 178
199 127 178
199 127 178
199 127 178
199 127 178
199 127 178
199 127 178
199 127 178
199 127 178
199 127 178
199 127 178
199 127 178
199 127 178
198 126 176
193 125 168
188 123 159
187 124 155
179 119 148
178 119 143
167 112 133
163 112 122
160 110 118
157 111 110
158 110 113
146 106 95
140 104 83
137 104 75
138 103 81
131 100 69
127 100 57
127 99 60
121 95 56
122 96 55
122 96 56
109 86 48
84 62 51
82 60 52
88 65 52
81 60 47
82 61 49
79 59 46
82 61 47
85 62 52
85 63 50
78 58 44
84 62 50
85 63 50
85 62 52
81 60 49
85 63 50
87 64 53
82 60 50
79 59 46
86 64 51
84 62 52
81 60 50
79 58 47
80 60 47
82 61 49
81 60 50
81 61 46
88 65 51
84 62 51
83 62 48
90 66 55
85 62 52
86 64 52
85 62 52
83 61 50
85 63 49
82 61 46
83 61 53
82 61 47
81 60 48
82 61 47
86 64 51
84 62 50
81 60 49
85 64 48
82 60 50
82 60 49
85 63 51
82 61 48
80 59 46
85 63 50
84 63 48
86 63 52
84 62 49
84 61 51
84 61 54
84 61 53
84 62 50
82 61 48
79 60 42
81 59 50
82 60 48
83 61 50
83 61 50
85 63 49
85 62 53
82 61 48
86 64 50
83 62 48
85 63 50
85 62 51
79 58 46
86 64 50
84 63 48
85 63 51
83 62 47
78 58 46
84 61 52
81 61 46
86 63 53
79 58 46
86 63 53
83 61 50
82 60 50
86 64 51
85 62 52
83 62 48
85 64 49
85 62 52
84 61 51
85 63 51
82 61 48
88 65 52
83 62 48
81 59 51
86 64 51
83 62 49
86 64 50
82 60 51
80 58 50
88 65 54
81 61 44
81 61 47
78 59 45
80 60 46
77 57 44
85 63 50
89 65 55
84 62 51
84 62 50
81 60 48
80 60 46
81 59 51
84 62 51
78 58 46
84 62 50
82 60 50
84 62 51
80 59 46
78 58 45
82 62 45
83 60 53
82 61 49
80 60 43
84 62 50
84 62 52
85 63 50
107 83 53
122 96 55
125 101 50
123 98 53
124 95 62
133 101 70
132 100 73
135 102 74
140 105 79
142 106 82
150 109 93
148 106 99
155 109 108
164 114 118
161 110 123
173 115 139
177 119 142
175 117 141
184 121 153
190 125 160
192 124 167
198 127 175
199 127 178
199 127 178
199 127 178
199 127 178
199 127 178
199 127 178
199 127 178
199 127 178
199 127 178
199 127 178
199 127 178
199 127 178
199 127 178
199 127 178
200 128 178
200 128 178
200 128 177
200 128 177
200 128 177
200 128 177
200 128 177
200 128 177
200 128 177
200 128 177
200 128 177
200 128 177
200 128 177
200 128 177
200 128 177
200 128 177
200 128 177
200 128 177
200 128 177
200 128 177
200 128 177
200 128 177
200 128 177
200 128 177
200 128 177
200 128 177
200 128 177
200 128 177
200 128 177
200 128 177
200 128 177
200 128 177
200 128 177
200 128 177
200 128 177
200 128 177
200 128 177
200 128 177
200 128 177
200 128 177
200 128 177
200 128 177
200 128 177
200 128 177
200 128 177
200 128 177
200 128 177
200 128 177
200 128 177
200 128 177
200 129 176
200 129 176
200 129 176
200 129 176
200 129 176
200 129 176
200 129 176
200 129 176
200 129 176
200 129 176
200 129 176
200 129 176
200 129 176
200 129 176
200 129 176
200 129 176
200 129 176
200 129 176
200 129 176
200 129 176
200 129 176
200 129 176
200 129 176
200 129 176
200 129 176
200 129 176
200 129 176
200 129 176
201 129 176
201 129 176
201 129 176
201 129 176
201 129 176
201 129 176
201 129 176
201 129 176
201 129 176
201 129 176
201 129 176
201 129 176
201 129 176
201 129 176
201 129 176
201 129 176
201 129 176
201 129 176
201 129 176
201 129 176
201 129 176
201 129 176
201 129 176
201 129 176
201 129 176
201 129 176
201 129 176
200 129 176
200 129 176
200 129 176
200 129 176
200 129 176
200 129 176
200 129 176
200 129 176
200 129 176
200 129 176
200 129 176
200 129 176
200 129 176
200 129 176
200 129 176
200 129 176
200 129 176
200 129 176
200 129 176
200 129 176
200 129 176
200 129 176
200 129 176
200 129 176
200 129 176
200 129 176
200 129 176
200 129 176
200 129 176
200 129 177
200 128 177
200 128 177
200 128 177
200 128 177
200 128 177
200 128 177
200 128 177
200 128 177
200 128 177
200 128 177
200 128 177
200 128 177
200 128 177
200 128 177
200 128 177
200 128 177
200 128 177
200 128 177
200 128 177
200 128 177
200 128 177
200 128 177
200 128 177
200 128 177
200 128 177
200 128 177
200 128 177
200 128 177
200 128 177
200 128 177
200 128 177
200 128 177
200 128 177
200 128 177
200 128 177
200 128 177
200 128 177
200 128 177
200 128 177
200 128 177
200 128 177
200 128 177
200 128 177
200 128 177
200 128 177
200 128 177
200 128 177
200 128 177
200 128 178
200 128 178
199 127 178
199 127 178
199 127 178
199 127 178
199 127 178
199 127 178
199 127 178
199 127 178
199 127 178
199 127 178
199 127 178
199 127 178
199 127 178
199 127 178
199 127 178
199 127 178
194 125 169
190 124 163
184 120 156
182 121 147
174 118 135
175 117 140
170 115 131
156 110 108
155 109 108
149 107 98
145 106 90
141 104 86
134 100 77
128 99 63
128 100 62
124 98 57
121 94 57
122 96 55
122 97 54
123 98 53
121 94 57
123 98 54
126 102 49
124 100 52
122 96 55
123 98 54
121 95 56
121 95 57
119 93 59
121 95 57
123 98 53
122 97 55
122 96 56
124 99 52
122 97 54
122 97 55
111 86 55
78 59 42
81 60 47
82 61 48
83 61 49
83 61 50
84 62 52
80 59 47
84 62 50
84 62 50
73 55 40
85 62 52
90 67 54
81 60 49
81 60 49
83 62 49
82 60 49
86 64 51
79 58 47
80 59 49
80 59 48
81 59 49
86 63 53
83 61 49
80 59 46
83 62 48
86 64 50
84 63 48
89 66 53
78 58 44
85 63 50
82 62 46
86 63 51
88 66 52
83 61 50
82 60 49
80 59 48
86 64 51
82 61 48
84 62 51
84 63 49
86 63 54
80 60 47
83 61 50
85 64 48
79 59 46
87 64 52
81 61 45
84 62 49
81 59 50
81 60 48
81 60 49
85 62 51
84 62 51
80 60 47
83 61 49
80 59 49
85 63 51
79 58 47
81 59 49
83 63 47
77 58 44
83 62 49
83 60 52
83 61 49
81 60 47
88 64 55
82 61 48
79 59 48
84 62 49
84 62 50
84 62 49
81 60 46
84 62 50
85 63 50
80 60 47
88 64 54
87 65 50
80 58 51
81 61 46
82 59 51
84 62 49
83 60 53
81 60 47
82 60 51
80 60 46
84 61 51
85 62 51
86 63 53
83 61 51
85 62 53
86 64 51
78 58 45
87 64 52
80 59 50
83 61 49
79 59 45
79 59 45
84 63 48
82 61 49
83 61 51
79 58 47
82 61 47
87 63 54
82 61 49
82 61 48
84 62 51
87 64 51
89 66 53
84 63 50
80 60 45
85 63 50
86 63 54
82 60 51
81 60 47
79 59 44
87 64 54
85 62 51
85 63 50
82 61 48
89 65 54
81 60 48
81 61 46
84 61 53
79 58 49
87 63 56
79 58 47
111 86 52
123 97 54
124 99 53
121 94 57
123 98 53
123 98 53
123 98 54
123 97 54
123 98 54
122 96 56
123 98 54
123 98 53
122 96 55
122 96 56
124 99 52
120 93 58
123 97 54
123 97 54
119 92 58
122 96 56
122 96 55
124 99 53
129 98 71
128 99 63
140 103 83
141 103 86
143 106 87
148 107 97
156 111 107
164 113 122
163 113 118
170 116 129
178 117 148
177 118 142
186 121 158
190 123 164
197 126 174
199 127 178
199 127 178
199 127 178
199 127 178
199 127 178
199 127 178
199 127 178
199 127 178
199 127 178
199 127 178
199 127 178
199 127 178
199 127 178
199 127 178
199 127 178
199 127 178
200 128 178
200 128 177
200 128 177
200 128 177
200 128 177
200 128 177
200 128 177
200 128 177
200 128 177
200 128 177
200 128 177
200 128 177
200 128 177
200 128 177
200 128 177
200 128 177
200 128 177
200 128 177
200 128 177
200 128 177
200 128 177
200 128 177
200 128 177
200 128 177
200 128 177
200 128 177
200 128 177
200 128 177
200 128 177
200 128 177
200 128 177
200 128 177
200 128 177
200 128 177
200 128 177
200 128 177
200 128 177
200 128 177
200 128 177
200 128 177
200 128 177
200 128 177
200 128 177
200 128 177
200 128 177
200 128 177
200 128 177
200 128 177
200 128 177
200 128 177
200 128 177
200 129 176
200 129 176
200 129 176
200 129 176
200 129 176
200 129 176
200 129 176
200 129 176
200 129 176
200 129 176
200 129 176
200 129 176
200 129 176
200 129 176
200 129 176
200 129 176
200 129 176
200 129 176
200 129 176
200 129 176
200 129 176
200 129 176
200 129 176
200 129 176
200 129 176
200 129 176
200 129 176
200 129 176
201 129 176
201 129 176
201 129 176
201 129 176
201 129 176
200 129 176
200 129 176
200 129 176
200 129 176
200 129 176
200 129 176
200 129 176
200 129 176
200 129 176
200 129 176
200 129 176
200 129 176
200 129 176
200 129 176
200 129 176
200 128 177
200 128 177
200 128 177
200 128 177
200 128 177
200 128 177
200 128 177
200 128 177
200 128 177
200 128 177
200 128 177
200 128 177
200 128 177
200 128 177
200 128 177
200 128 177
200 128 177
200 128 177
200 128 177
200 128 177
200 128 177
200 128 177
200 128 177
200 128 177
200 128 177
200 128 177
200 128 177
200 128 177
200 128 177
200 128 177
200 128 177
200 128 177
200 128 177
200 128 177
200 128 177
200 128 177
200 128 177
200 128 177
200 128 177
200 128 177
200 128 177
200 128 177
200 128 177
200 128 177
200 128 177
200 128 177
200 128 177
200 128 177
200 128 177
200 128 177
200 128 177
200 128 177
200 128 178
199 127 178
199 127 178
199 127 178
199 127 178
199 127 178
199 127 178
199 127 178
199 127 178
199 127 178
199 127 178
199 127 178
199 127 178
199 127 178
199 127 178
199 127 178
199 127 178
199 127 178
198 126 177
195 125 171
189 122 164
181 120 150
176 119 139
176 117 142
173 118 133
161 112 118
146 105 94
151 109 100
148 107 93
145 107 87
141 104 84
134 101 73
123 96 58
122 96 55
123 98 54
121 94 57
122 97 54
123 98 54
122 97 55
122 97 55
123 98 54
119 92 59
123 98 54
124 98 53
122 96 55
123 97 54
123 98 54
125 100 51
121 95 56
120 94 57
121 95 56
120 93 58
123 98 54
122 96 55
122 97 55
123 98 53
123 98 54
123 97 54
121 95 56
120 94 56
123 98 53
122 96 56
123 98 53
121 95 56
123 97 54
125 100 51
124 99 52
124 99 53
124 99 53
121 96 54
78 58 45
81 59 49
81 61 45
81 61 46
84 62 49
79 59 46
87 64 52
77 58 45
81 59 48
81 60 48
89 65 55
79 59 47
81 60 48
76 57 43
84 63 48
81 60 47
85 62 51
83 61 49
87 64 53
82 60 51
88 65 53
75 55 45
78 58 45
83 61 50
83 61 51
86 63 52
84 61 51
82 61 48
84 62 51
82 61 49
81 59 50
82 61 47
83 61 51
79 59 46
87 64 53
85 63 51
81 60 49
81 60 48
81 61 46
78 59 43
83 61 50
86 63 53
82 61 48
86 63 53
82 61 48
82 60 50
81 60 47
81 61 45
78 58 46
86 63 51
83 62 47
87 64 52
81 61 45
88 66 51
77 57 47
86 63 53
80 58 52
86 63 52
81 60 46
84 62 49
84 61 54
83 62 47
87 64 52
86 63 52
87 64 51
82 60 49
85 62 53
87 64 53
85 62 53
76 57 42
81 59 50
82 60 49
83 62 48
81 60 49
83 61 51
85 63 52
82 60 52
82 60 49
85 63 50
84 62 51
83 62 48
87 64 51
87 64 53
86 63 52
79 58 48
84 62 49
86 63 51
81 60 50
78 58 44
78 58 46
81 60 48
79 59 45
84 62 49
79 59 45
84 62 50
83 61 51
78 57 49
78 58 45
82 61 50
82 60 48
82 61 49
78 58 45
85 64 48
82 61 48
83 62 50
81 60 48
82 61 48
81 60 49
84 62 50
82 60 51
82 60 51
85 64 49
81 60 49
81 60 47
84 62 52
86 63 52
85 63 50
83 62 49
83 60 52
86 64 52
82 61 49
81 59 49
82 61 47
81 59 48
81 59 51
81 59 50
120 95 54
122 97 54
121 95 57
122 97 55
121 95 56
120 94 57
124 100 52
124 99 52
122 97 55
122 97 55
122 96 55
121 95 55
122 97 54
124 99 52
123 98 53
123 98 53
123 98 54
124 99 52
123 98 53
123 97 54
124 99 52
121 94 57
121 95 56
121 94 57
125 100 51
123 97 54
122 96 56
121 94 57
124 98 53
122 96 55
120 94 58
123 98 54
123 98 53
123 98 53
124 99 53
123 98 53
121 95 56
123 96 58
128 99 63
137 104 73
140 105 79
148 108 95
155 110 105
156 111 106
164 113 123
162 113 117
173 117 134
177 119 140
181 120 150
187 122 156
192 124 167
198 126 176
199 127 178
199 127 178
199 127 178
199 127 178
199 127 178
199 127 178
199 127 178
199 127 178
199 127 178
199 127 178
199 127 178
199 127 178
199 127 178
199 127 178
199 127 178
199 127 178
199 127 178
199 127 178
200 128 177
200 128 177
200 128 177
200 128 177
200 128 177
200 128 177
200 128 177
200 128 177
200 128 177
200 128 177
200 128 177
200 128 177
200 128 177
200 128 177
200 128 177
200 128 177
200 128 177
200 128 177
200 128 177
200 128 177
200 128 177
200 128 177
200 128 177
200 128 177
200 128 177
200 128 177
200 128 177
200 128 177
200 128 177
200 128 177
200 128 177
200 128 177
200 128 177
200 128 177
200 128 177
200 128 177
200 128 177
200 128 177
200 128 177
200 128 177
200 128 177
200 128 177
200 128 177
200 128 177
200 128 177
200 128 177
200 128 177
200 128 177
200 128 177
200 128 177
200 128 177
200 128 177
200 129 176
200 129 176
200 129 176
200 129 176
200 129 176
200 129 176
200 129 176
200 129 176
200 129 176
200 129 176
200 129 176
200 129 176
200 129 176
200 129 176
200 129 176
200 128 177
200 128 177
200 128 177
200 128 177
200 128 177
200 128 177
200 128 177
200 128 177
200 128 177
200 128 177
200 128 177
200 128 177
200 128 177
200 128 177
200 128 177
200 128 177
200 128 177
200 128 177
200 128 177
200 128 177
200 128 177
200 128 177
200 128 177
200 128 177
200 128 177
200 128 177
200 128 177
200 128 177
200 128 177
200 128 177
200 128 177
200 128 177
200 128 177
200 128 177
200 128 177
200 128 177
200 128 177
200 128 177
200 128 177
200 128 177
200 128 177
200 128 177
200 128 177
200 128 177
200 128 177
200 128 177
200 128 177
200 128 177
200 128 177
200 128 177
200 128 177
200 128 178
199 127 178
199 127 178
199 127 178
199 127 178
199 127 178
199 127 178
199 127 178
199 127 178
199 127 178
199 127 178
199 127 178
199 127 178
199 127 178
199 127 178
199 127 178
199 127 178
199 127 178
199 127 178
199 127 178
199 127 178
197 126 175
190 123 163
180 121 144
173 116 138
168 115 127
160 112 115
155 108 111
156 109 111
149 106 101
142 104 87
137 102 80
129 99 68
127 101 53
122 97 54
122 96 55
124 99 52
123 98 53
123 97 54
122 97 54
123 97 54
123 98 53
122 97 55
123 97 54
120 94 58
128 105 46
124 99 52
124 99 53
123 98 53
122 96 55
124 99 52
122 96 55
121 94 57
125 100 51
121 95 57
123 97 54
122 96 56
122 97 54
121 95 56
122 97 55
124 99 53
121 95 56
123 97 54
122 96 55
122 97 55
124 100 50
122 96 56
121 95 56
123 97 54
123 98 53
122 96 56
121 94 57
122 96 55
123 97 54
121 96 55
122 97 54
123 97 54
124 98 53
120 95 56
124 99 52
120 94 58
122 97 53
122 97 55
122 97 55
123 98 54
121 95 57
91 69 50
84 62 51
82 61 48
75 56 43
82 60 50
83 61 49
85 63 49
75 57 41
83 61 53
82 60 50
83 61 48
87 64 51
82 60 50
84 62 51
82 59 52
84 62 51
76 57 45
83 61 51
85 63 50
85 63 51
82 61 49
87 63 53
82 61 48
77 57 43
83 63 46
84 62 50
85 62 53
85 64 48
81 60 49
84 62 50
83 61 49
81 60 48
85 62 51
75 56 45
80 59 49
80 59 47
85 64 48
84 62 50
84 63 48
84 61 51
81 60 48
81 59 52
87 64 50
85 62 53
83 62 48
79 59 45
84 61 54
82 61 48
79 59 47
80 59 48
80 59 48
89 66 54
84 62 50
80 60 47
85 62 52
84 61 51
85 61 55
79 58 50
82 60 49
80 60 46
84 63 48
81 60 48
80 59 49
83 61 50
82 60 51
82 60 50
82 61 50
80 59 49
81 60 48
80 59 47
82 61 50
83 61 49
87 64 52
84 63 49
77 57 45
82 61 48
85 63 49
80 58 52
82 61 50
81 59 51
80 59 49
81 60 48
81 60 49
85 63 50
84 62 48
87 64 51
82 61 48
82 61 48
83 61 53
82 60 49
84 61 52
84 62 50
80 59 47
81 60 48
80 59 47
90 66 55
82 60 48
80 59 46
87 63 55
86 63 52
83 61 48
79 58 48
86 63 52
87 64 53
91 67 56
81 60 49
86 63 54
82 61 48
79 58 47
83 60 51
85 63 49
85 63 51
80 60 46
84 61 53
85 62 53
81 59 50
78 58 44
80 60 47
80 59 47
80 59 46
79 59 46
79 59 46
79 58 49
77 58 43
83 61 50
90 68 49
122 96 55
121 95 56
121 94 57
124 99 53
126 102 50
122 96 55
123 98 53
121 95 56
122 97 55
123 98 53
120 94 57
124 99 52
123 98 54
122 96 55
122 96 55
122 96 55
122 96 55
123 98 53
122 97 54
123 98 53
122 96 56
120 94 57
125 100 51
125 100 51
126 102 49
121 95 56
122 96 55
122 96 55
124 99 53
121 94 57
124 98 53
122 97 55
122 96 55
126 102 49
122 96 56
122 96 55
122 97 55
121 95 57
120 93 58
121 95 56
123 98 53
123 98 54
122 96 55
122 96 55
123 97 54
121 95 56
121 95 56
122 96 56
123 97 54
122 96 55
123 98 54
123 97 55
130 102 62
133 102 69
133 100 74
146 105 96
151 108 100
158 109 117
158 111 111
169 115 132
175 119 134
180 118 150
186 122 157
188 123 161
195 126 172
199 127 178
199 127 178
199 127 178
199 127 178
199 127 178
199 127 178
199 127 178
199 127 178
199 127 178
199 127 178
199 127 178
199 127 178
199 127 178
199 127 178
199 127 178
199 127 178
199 127 178
199 127 178
199 127 178
200 128 178
200 128 177
200 128 177
200 128 177
200 128 177
200 128 177
200 128 177
200 128 177
200 128 177
200 128 177
200 128 177
200 128 177
200 128 177
200 128 177
200 128 177
200 128 177
200 128 177
200 128 177
200 128 177
200 128 177
200 128 177
200 128 177
200 128 177
200 128 177
200 128 177
200 128 177
200 128 177
200 128 177
200 128 177
200 128 177
200 128 177
200 128 177
200 128 177
200 128 177
200 128 177
200 128 177
200 128 177
200 128 177
200 128 177
200 128 177
200 128 177
200 128 177
200 128 177
200 128 177
200 128 177
200 128 177
200 128 177
200 128 177
200 128 177
200 128 177
200 128 177
200 128 177
200 128 177
200 128 177
200 128 177
200 128 177
200 128 177
200 128 177
200 128 177
200 128 177
200 128 177
200 128 177
200 128 177
200 128 177
200 128 177
200 128 177
200 128 177
200 128 177
200 128 177
200 128 177
200 128 177
200 128 177
200 128 177
200 128 177
200 128 177
200 128 177
200 128 177
200 128 177
200 128 177
200 128 177
200 128 177
200 128 177
200 128 177
200 128 177
200 128 177
200 128 177
200 128 177
200 128 177
200 128 177
200 128 178
200 128 178
199 127 178
199 127 178
199 127 178
199 127 178
199 127 178
199 127 178
199 127 178
199 127 178
199 127 178
199 127 178
199 127 178
199 127 178
199 127 178
199 127 178
199 127 178
199 127 178
199 127 178
199 127 178
199 127 178
199 127 178
199 127 178
193 125 168
187 122 158
189 122 163
179 119 144
175 118 138
165 113 126
160 110 119
150 108 99
144 105 91
143 106 85
137 103 76
133 104 63
126 98 61
121 94 57
123 97 54
124 99 53
123 97 54
123 97 54
123 97 54
122 97 54
123 98 53
122 96 56
122 96 56
124 99 53
121 95 57
123 98 53
124 99 53
123 98 53
122 97 54
122 96 56
122 96 56
123 97 54
124 100 52
124 100 51
122 98 52
120 93 58
122 97 55
122 97 54
124 99 52
121 95 56
120 93 58
125 100 51
123 97 54
122 96 56
122 96 55
124 99 52
123 98 53
122 96 56
123 98 54
122 97 55
122 97 55
122 96 55
122 96 56
122 97 54
120 94 57
119 92 59
124 99 52
123 98 54
123 98 52
122 97 55
123 98 53
121 94 57
122 96 55
123 98 53
120 94 58
119 93 58
123 98 53
122 97 55
123 97 54
122 97 54
122 96 55
123 97 54
122 96 55
121 95 56
123 97 54
121 94 57
122 96 55
122 96 55
101 77 53
78 57 47
79 59 46
79 58 48
73 54 43
79 59 46
81 61 47
85 63 50
84 61 51
85 62 52
77 56 47
80 60 46
79 58 47
76 57 43
86 63 52
79 59 47
79 58 48
77 58 44
83 62 48
87 63 55
77 57 45
82 60 49
82 61 47
83 61 50
82 61 49
81 61 46
84 62 50
83 61 50
81 59 48
86 62 55
84 62 51
86 63 52
82 61 49
78 58 46
85 62 53
81 60 48
87 63 54
86 62 54
84 62 52
84 62 52
81 61 44
82 61 47
85 62 51
81 60 48
81 60 49
83 61 49
84 61 51
79 58 49
82 61 49
88 65 52
83 60 51
81 60 48
84 62 50
83 62 49
79 59 45
81 59 51
85 62 52
83 60 52
82 60 50
80 60 45
83 60 53
80 59 48
81 60 48
86 63 51
87 64 53
84 63 49
82 60 52
82 60 49
80 59 46
81 61 45
79 59 46
83 60 52
82 60 50
88 65 53
84 63 49
87 64 53
80 60 46
84 62 51
86 63 52
82 61 48
80 59 47
78 58 44
79 58 48
86 64 48
83 61 49
85 63 52
83 62 49
77 57 44
81 60 48
80 59 48
82 61 49
82 61 46
83 62 50
84 62 50
80 60 45
81 60 49
80 59 48
86 62 54
82 61 50
80 60 45
84 63 49
76 56 46
79 58 48
83 61 50
83 61 50
85 62 51
82 60 48
84 62 51
78 58 47
81 60 48
83 61 50
82 61 48
82 61 47
73 55 40
85 63 50
80 58 49
81 59 49
81 60 49
81 60 48
78 57 47
84 63 48
81 60 46
77 58 42
80 59 46
83 61 49
102 79 50
121 94 57
123 97 54
120 93 57
122 96 56
122 97 54
121 95 56
122 96 55
125 101 50
122 97 55
123 98 54
124 99 52
122 97 55
119 92 60
124 99 52
123 97 54
121 94 57
122 96 55
125 101 50
121 95 57
122 96 55
121 95 56
121 95 56
121 95 56
122 97 55
122 97 54
122 97 55
122 96 55
123 98 53
122 96 56
123 98 53
123 98 54
123 97 54
122 96 55
122 97 55
121 94 57
123 97 54
125 100 51
123 97 54
122 96 55
122 97 54
122 97 55
122 97 54
123 98 54
123 98 53
123 98 53
122 96 55
123 97 54
120 94 58
122 96 55
123 98 54
124 100 52
120 93 59
123 98 53
123 98 53
121 95 56
123 98 52
124 99 53
120 94 58
124 99 52
121 95 57
123 98 53
123 98 53
122 96 55
122 96 56
121 95 56
122 95 58
130 99 68
135 101 76
146 107 92
150 108 99
157 110 112
155 110 108
172 116 133
176 119 137
176 118 139
185 121 158
190 123 165
198 127 175
199 127 178
199 127 178
199 127 178
199 127 178
199 127 178
199 127 178
199 127 178
199 127 178
199 127 178
199 127 178
199 127 178
199 127 178
199 127 178
199 127 178
199 127 178
199 127 178
199 127 178
199 127 178
199 127 178
199 127 178
199 127 178
200 128 178
200 128 178
200 128 177
200 128 177
200 128 177
200 128 177
200 128 177
200 128 177
200 128 177
200 128 177
200 128 177
200 128 177
200 128 177
200 128 177
200 128 177
200 128 177
200 128 177
200 128 177
200 128 177
200 128 177
200 128 177
200 128 177
200 128 177
200 128 177
200 128 177
200 128 177
200 128 177
200 128 177
200 128 177
200 128 177
200 128 177
200 128 177
200 128 177
200 128 177
200 128 177
200 128 177
200 128 177
200 128 177
200 128 177
200 128 177
200 128 177
200 128 177
200 128 177
200 128 177
200 128 177
200 128 177
200 128 177
200 128 177
200 128 177
200 128 177
200 128 177
200 128 177
200 128 177
200 128 177
200 128 177
200 128 177
200 128 177
200 128 177
200 128 177
200 128 177
200 128 177
199 127 178
199 127 178
199 127 178
199 127 178
199 127 178
199 127 178
199 127 178
199 127 178
199 127 178
199 127 178
199 127 178
199 127 178
199 127 178
199 127 178
199 127 178
199 127 178
199 127 178
199 127 178
199 127 178
199 127 178
199 127 178
199 127 178
199 127 178
199 127 178
194 126 169
187 122 159
171 116 132
173 117 134
169 115 130
163 113 119
155 109 110
151 108 102
142 104 87
132 101 69
131 100 70
124 97 59
125 101 51
124 99 53
123 97 54
121 95 56
120 93 58
124 99 52
122 96 55
122 96 55
125 100 51
124 99 52
122 96 55
121 95 56
120 93 59
121 95 56
122 96 56
122 97 55
120 93 58
121 95 56
124 99 53
122 96 55
123 97 54
124 99 52
122 96 56
122 96 55
122 96 55
124 99 52
122 97 55
121 95 56
123 97 54
122 97 55
119 92 59
123 98 54
122 96 56
121 95 57
123 97 54
124 99 53
123 98 53
122 96 56
123 97 54
123 98 53
125 101 50
120 94 58
122 96 54
122 97 55
119 92 59
124 99 52
124 99 52
123 97 54
125 100 51
123 98 53
123 97 54
124 100 51
121 94 57
122 96 56
124 99 52
121 94 57
121 94 57
124 99 52
121 95 55
123 97 54
122 97 54
122 96 55
124 99 52
123 97 54
123 97 54
121 95 56
122 97 54
123 97 54
119 92 58
121 95 56
122 96 55
122 97 54
125 100 51
122 97 55
121 95 55
124 99 53
123 98 54
124 100 52
112 87 53
81 60 47
80 60 46
84 61 51
82 60 50
78 58 45
82 61 48
79 59 44
77 56 47
77 57 45
80 58 49
81 59 49
81 60 46
81 60 47
80 60 47
76 57 42
80 59 48
82 60 48
80 59 49
83 61 48
78 59 44
84 62 50
79 58 47
79 59 46
78 58 47
77 57 45
79 59 47
81 60 48
87 65 51
80 59 47
82 60 49
80 60 45
84 62 49
84 62 49
78 58 44
86 63 52
82 60 50
83 61 51
82 61 47
81 59 48
88 64 55
80 59 48
81 60 46
84 62 50
79 59 47
83 61 50
89 65 54
76 57 44
85 64 48
81 60 47
80 59 46
83 61 51
84 62 49
81 60 48
82 61 49
88 65 53
86 64 52
84 62 50
82 60 49
82 61 49
81 60 49
80 58 50
89 66 53
83 61 48
85 63 51
80 59 47
78 58 45
82 61 49
85 63 50
79 59 46
82 61 48
80 59 48
84 63 48
80 58 48
84 62 52
75 57 40
80 60 46
80 59 48
82 60 50
83 61 49
78 58 44
85 62 53
82 60 49
83 61 50
83 60 52
85 63 50
85 63 50
82 61 50
81 60 49
80 60 47
81 60 48
81 60 48
86 63 51
81 60 48
83 61 51
81 61 46
85 63 51
87 64 52
89 64 58
80 60 44
77 57 46
86 63 52
85 63 50
82 61 50
80 60 47
82 60 51
82 60 51
83 60 52
76 56 46
80 59 47
73 55 41
81 60 48
81 59 50
78 58 45
84 61 53
85 63 50
81 60 48
80 58 50
84 62 50
81 60 49
77 57 44
83 60 51
78 57 46
75 56 43
85 63 50
109 85 51
123 98 53
123 98 54
121 95 56
124 100 52
123 98 51
122 96 54
121 95 55
124 99 53
121 95 56
123 98 53
121 95 56
121 95 56
123 97 54
122 97 55
122 96 55
123 98 53
121 95 57
121 95 56
122 96 55
122 97 55
122 97 53
123 98 54
123 97 54
124 99 53
122 97 55
122 96 55
124 99 53
122 96 55
121 95 57
121 95 56
123 98 54
123 97 54
122 96 55
121 95 57
125 100 51
123 97 54
124 99 52
126 101 50
122 97 54
121 95 56
124 99 52
122 97 55
122 96 56
120 94 58
121 95 56
123 98 53
123 98 54
123 98 53
122 96 55
120 94 58
123 97 54
123 97 54
122 96 55
121 94 57
120 94 56
122 97 53
122 96 56
123 98 52
125 100 51
122 97 55
123 97 54
123 98 53
123 98 53
122 96 55
122 96 55
123 98 54
124 99 52
120 93 59
122 96 55
121 94 57
121 95 56
123 98 53
122 97 55
120 93 58
123 98 53
122 96 55
123 97 54
120 93 58
123 96 60
128 97 68
136 102 77
143 103 91
156 110 109
154 110 103
156 111 105
165 113 124
176 118 141
183 121 150
186 122 155
194 125 169
199 127 178
199 127 178
199 127 178
199 127 178
199 127 178
199 127 178
199 127 178
199 127 178
199 127 178
199 127 178
199 127 178
199 127 178
199 127 178
199 127 178
199 127 178
199 127 178
199 127 178
199 127 178
199 127 178
199 127 178
199 127 178
199 127 178
199 127 178
199 127 178
199 127 178
200 128 177
200 128 177
200 128 177
200 128 177
200 128 177
200 128 177
200 128 177
200 128 177
200 128 177
200 128 177
200 128 177
200 128 177
200 128 177
200 128 177
200 128 177
200 128 177
200 128 177
200 128 177
200 128 177
200 128 177
200 128 177
200 128 177
200 128 177
200 128 177
200 128 177
200 128 177
200 128 177
200 128 177
200 128 177
200 128 177
200 128 178
199 127 178
199 127 178
199 127 178
199 127 178
199 127 178
199 127 178
199 127 178
199 127 178
199 127 178
199 127 178
199 127 178
199 127 178
199 127 178
199 127 178
199 127 178
199 127 178
199 127 178
199 127 178
199 127 178
199 127 178
199 127 178
199 127 178
199 127 178
199 127 178
199 127 178
198 127 175
191 124 166
184 121 155
177 118 144
170 116 129
162 113 115
166 112 128
154 109 107
150 107 101
137 101 81
132 100 71
128 102 54
122 97 54
122 96 55
122 96 55
123 98 53
121 95 56
121 94 57
122 96 55
121 95 56
123 97 54
125 101 50
120 94 58
121 94 57
123 97 54
122 96 56
123 97 54
120 94 58
121 95 57
123 98 53
122 96 56
123 97 54
124 99 53
120 94 57
122 96 54
122 96 55
122 96 55
120 94 57
123 97 54
124 98 53
124 99 52
122 96 54
125 100 51
120 94 58
123 98 53
122 97 55
123 98 53
123 97 54
122 96 55
124 99 52
123 98 53
122 96 56
123 98 54
122 96 55
123 98 53
122 96 55
122 97 55
119 92 59
120 93 58
124 99 52
121 95 55
123 98 53
124 99 52
122 96 56
122 97 53
124 99 53
122 97 54
124 99 52
120 94 57
123 97 54
122 97 55
123 98 53
122 97 55
122 96 55
123 98 54
123 98 53
124 99 53
124 99 52
121 95 56
121 95 57
123 97 54
123 98 53
120 95 55
122 96 55
123 98 53
122 96 54
122 97 55
123 97 54
124 98 53
125 100 51
123 97 54
121 95 56
123 98 53
120 93 58
121 95 55
122 97 55
123 98 54
120 94 58
124 99 52
123 98 54
120 95 56
126 102 49
123 98 53
124 100 50
77 58 45
82 60 49
81 59 50
79 58 48
80 60 47
80 58 50
79 59 47
77 57 46
79 58 47
83 62 49
83 62 49
79 58 46
81 60 48
84 62 50
82 61 47
79 59 46
86 63 54
83 61 52
84 62 51
88 65 54
82 60 50
75 56 43
82 61 48
81 60 50
79 58 48
85 63 50
80 58 49
85 63 50
84 62 50
83 62 49
77 57 47
83 60 53
80 59 48
83 61 50
84 62 52
75 55 45
84 62 50
80 59 47
84 61 52
83 62 48
81 60 47
85 63 51
82 61 48
81 59 49
81 61 46
80 59 48
82 61 47
80 59 47
78 58 46
81 61 46
79 59 45
82 61 48
79 59 45
84 62 52
81 60 46
83 61 50
79 57 48
89 65 56
82 60 50
82 60 48
85 62 54
77 57 47
83 62 47
81 59 50
86 63 52
84 62 50
81 59 52
84 62 50
80 60 45
84 61 52
79 58 49
79 59 46
86 62 54
79 59 47
77 57 46
82 61 48
77 57 45
86 64 49
86 63 53
83 61 50
79 59 46
79 59 47
79 58 48
83 61 50
76 57 43
79 58 49
84 62 50
79 59 45
85 62 52
84 62 51
73 54 43
83 60 51
85 63 51
78 57 48
84 61 51
78 58 46
82 60 49
82 61 47
84 61 52
81 59 52
79 60 45
83 61 52
82 60 49
83 60 54
79 58 47
86 63 54
79 58 47
82 60 49
82 61 48
83 61 51
82 60 50
78 58 45
82 60 50
82 61 48
84 62 51
84 61 53
79 59 46
80 59 49
84 62 51
79 59 46
77 58 42
78 58 45
81 59 51
85 63 51
123 99 51
125 100 51
120 93 58
122 96 56
123 98 53
123 98 53
123 97 54
121 94 57
122 97 53
121 96 54
123 98 53
120 94 57
121 95 56
124 99 53
120 95 54
121 96 55
122 96 56
123 98 52
122 96 55
123 98 52
119 94 55
122 97 55
122 97 53
121 94 57
121 96 55
124 99 53
123 97 54
121 95 56
122 96 55
121 95 56
123 97 54
123 97 54
122 96 55
122 97 55
123 98 53
124 99 53
121 94 57
121 95 56
124 99 52
122 96 55
122 97 54
122 96 55
123 98 53
120 95 56
124 99 53
123 98 53
121 94 56
122 97 54
125 100 51
123 98 54
122 96 56
122 96 56
122 97 55
123 98 53
123 98 53
122 96 56
122 96 56
121 95 56
120 93 59
123 98 54
124 99 53
122 96 55
121 94 57
124 99 53
121 95 56
123 98 53
121 95 56
120 94 58
120 93 58
123 98 53
124 99 52
122 96 56
122 96 55
121 95 57
120 94 56
122 97 53
124 98 53
124 99 52
123 98 53
124 98 53
123 97 54
123 98 54
124 100 52
122 96 55
122 96 56
124 99 52
124 100 51
121 95 57
121 95 56
121 95 57
124 99 52
122 96 57
130 100 66
135 103 73
134 99 80
144 105 91
149 108 96
162 114 112
166 114 125
167 114 127
179 121 140
184 121 151
192 125 167
197 126 174
199 127 178
199 127 178
199 127 178
199 127 178
199 127 178
199 127 178
199 127 178
199 127 178
199 127 178
199 127 178
199 127 178
199 127 178
199 127 178
199 127 178
199 127 178
199 127 178
199 127 178
199 127 178
199 127 178
199 127 178
199 127 178
199 127 178
199 127 178
199 127 178
199 127 178
200 128 178
200 128 177
200 128 177
200 128 177
200 128 177
200 128 177
200 128 177
200 128 177
200 128 177
199 127 178
199 127 178
199 127 178
199 127 178
199 127 178
199 127 178
199 127 178
199 127 178
199 127 178
199 127 178
199 127 178
199 127 178
199 127 178
199 127 178
199 127 178
199 127 178
199 127 178
199 127 178
199 127 178
199 127 178
199 127 178
199 127 178
199 127 178
195 126 170
183 120 153
182 121 148
169 115 132
171 117 132
159 112 110
152 107 104
147 107 94
138 102 84
133 101 70
125 96 63
122 96 55
122 96 56
123 97 54
120 93 58
120 93 58
121 95 56
123 97 54
122 96 56
123 97 54
122 96 55
122 96 55
123 97 54
123 98 54
123 98 53
122 96 55
124 99 52
124 99 52
120 93 59
122 96 55
124 100 52
121 95 56
122 97 54
121 95 57
123 98 53
124 99 52
122 96 55
121 94 57
123 97 54
119 93 58
122 96 55
121 95 55
122 96 55
123 98 53
122 96 55
123 98 53
122 97 54
122 96 56
122 97 55
123 98 54
124 99 52
122 96 55
122 96 55
122 97 55
123 98 53
124 99 52
124 99 52
120 94 57
122 96 54
122 96 56
121 95 57
122 96 55
121 96 53
125 101 50
122 96 55
124 100 52
121 94 57
123 98 53
123 98 53
122 97 55
122 97 53
122 96 55
122 97 55
122 96 56
119 92 59
124 99 53
122 97 55
120 93 58
121 94 57
122 96 56
120 94 56
124 99 53
121 95 57
123 98 53
124 100 51
123 98 51
121 95 56
120 94 58
122 96 56
123 99 52
120 94 57
122 96 55
122 96 56
123 97 54
122 96 55
123 98 53
121 95 55
123 98 54
122 96 55
121 94 57
122 96 55
122 96 55
124 99 52
123 97 54
121 95 56
121 95 57
124 99 52
122 96 55
121 94 57
120 94 58
123 98 53
122 96 55
123 98 54
122 96 55
124 99 52
96 73 51
81 60 48
78 58 45
80 59 48
78 59 44
82 60 51
78 58 43
77 57 46
83 61 49
81 60 49
77 57 48
79 59 45
79 58 46
84 61 51
79 58 49
82 60 50
83 61 51
77 58 44
80 59 49
82 61 48
81 58 53
85 62 53
80 59 50
78 58 45
81 60 47
80 59 48
82 61 50
84 61 52
79 59 46
82 60 49
80 59 49
84 61 52
84 62 49
84 62 50
78 58 45
78 58 46
78 57 48
81 60 47
84 62 51
73 54 45
84 62 51
82 61 47
79 58 48
81 60 48
82 61 49
82 61 48
82 61 49
79 58 47
81 59 51
78 58 45
79 58 48
78 57 48
86 64 50
81 60 49
80 59 49
81 60 49
83 60 51
85 62 54
79 59 46
82 61 48
82 61 49
85 63 51
83 61 49
84 62 50
81 61 46
85 62 51
80 60 45
82 61 49
73 55 39
81 60 48
80 59 48
78 58 46
85 62 53
85 62 51
84 62 50
81 60 46
82 61 47
84 62 49
84 62 48
81 60 48
78 58 46
79 59 46
78 58 47
77 58 44
80 60 46
83 61 50
82 60 51
80 59 48
86 63 52
81 60 46
81 60 48
78 58 46
85 62 54
80 60 47
82 60 48
80 61 44
83 61 52
86 63 51
80 59 49
85 61 55
80 59 48
85 63 51
79 57 50
80 59 47
76 56 44
85 62 52
78 58 45
83 61 49
79 59 46
79 58 47
81 61 46
83 60 51
81 60 48
81 60 49
82 61 48
85 62 53
74 55 41
76 56 45
78 57 48
82 60 49
79 59 46
82 60 49
81 60 48
94 71 49
120 93 58
126 102 50
120 95 53
120 94 56
119 93 57
122 96 55
122 97 53
121 95 56
124 99 52
122 96 55
122 97 53
122 96 55
119 93 56
120 94 56
122 97 54
121 96 54
125 100 51
124 99 52
124 98 53
122 97 55
124 99 52
124 100 51
123 98 53
121 96 53
121 95 56
123 99 52
123 97 54
123 98 54
122 96 55
122 96 55
123 98 54
125 100 51
122 96 55
121 95 56
123 98 53
123 97 54
125 100 51
122 96 55
120 94 57
122 96 54
123 98 52
122 96 55
120 94 58
123 97 54
123 97 54
121 95 56
126 102 49
121 95 57
123 98 53
123 97 54
123 98 53
124 99 52
124 99 52
124 99 52
125 100 51
125 100 51
122 96 56
121 94 57
126 102 49
125 100 51
123 98 53
124 99 53
121 94 57
122 97 55
121 95 56
123 98 52
120 94 55
122 96 55
122 96 55
122 96 56
121 95 56
122 96 55
125 101 51
122 96 55
123 97 54
123 98 53
122 96 55
121 95 56
124 99 52
122 96 55
122 96 55
119 92 60
123 97 54
120 93 58
121 95 56
123 98 54
123 98 53
122 96 55
122 97 55
125 100 51
122 97 54
121 95 57
123 98 53
121 95 56
122 96 55
121 94 57
122 97 55
125 101 51
122 96 55
123 97 54
120 94 58
122 97 55
122 96 56
123 97 54
129 99 68
137 105 73
147 108 88
143 105 86
161 112 116
157 111 110
168 113 132
174 115 142
179 119 146
187 123 156
198 127 175
198 126 177
199 127 178
199 127 178
199 127 178
199 127 178
199 127 178
199 127 178
199 127 178
199 127 178
199 127 178
199 127 178
199 127 178
199 127 178
199 127 178
199 127 178
199 127 178
199 127 178
199 127 178
199 127 178
199 127 178
199 127 178
199 127 178
199 127 178
199 127 178
199 127 178
199 127 178
199 127 178
199 127 178
199 127 178
199 127 178
199 127 178
199 127 178
199 127 178
198 127 177
195 125 171
185 122 153
180 119 149
172 115 136
168 113 132
163 113 122
160 112 113
146 107 90
138 104 77
133 101 70
131 100 69
123 97 56
120 94 58
123 97 54
122 96 55
121 95 56
123 97 54
124 99 52
121 95 56
120 94 57
123 97 54
123 97 54
123 98 54
121 95 56
124 99 52
123 98 53
122 96 55
122 97 54
124 98 53
121 95 56
119 93 58
123 97 54
122 97 53
120 93 59
121 95 56
122 97 55
122 96 55
122 97 55
122 96 55
123 97 54
122 97 55
122 97 55
122 97 55
122 97 55
123 98 53
123 97 54
123 97 54
121 95 57
122 97 55
124 99 53
124 99 52
124 99 52
124 99 53
123 97 54
127 103 48
120 94 58
122 97 54
122 96 55
123 97 54
123 98 53
124 99 52
120 93 57
123 98 53
123 98 54
121 95 55
122 97 55
122 97 54
121 95 56
123 98 53
123 98 54
122 97 53
122 96 56
126 102 50
123 98 53
119 93 58
123 97 54
123 97 54
123 98 54
121 95 55
120 94 58
122 96 54
122 97 53
122 97 53
123 97 54
122 97 53
122 97 54
121 95 56
123 97 54
121 95 56
122 96 54
123 97 54
124 98 53
123 98 54
123 97 54
122 97 54
124 100 52
123 98 52
121 95 56
124 99 52
122 97 54
122 97 54
122 96 56
121 95 56
123 98 53
122 96 55
121 95 56
123 98 54
123 98 52
121 96 52
124 99 52
123 98 53
121 95 56
123 99 51
122 97 54
122 96 55
123 97 54
120 93 58
123 98 53
122 97 54
122 96 54
121 95 55
124 99 51
123 98 54
122 96 55
121 95 55
120 94 57
121 94 57
109 85 52
74 55 43
73 55 42
84 62 48
78 58 46
85 62 52
79 59 46
86 63 53
76 57 43
76 57 45
77 57 46
74 55 40
82 60 48
79 59 45
81 61 45
83 61 48
83 61 50
77 56 47
81 60 47
83 61 50
83 61 48
83 62 49
82 60 51
82 61 48
82 61 49
76 57 42
80 59 47
81 60 50
79 59 46
79 59 47
84 61 53
82 60 50
82 60 51
77 58 44
80 60 47
79 59 46
83 61 51
83 62 49
74 55 43
85 63 52
81 60 47
85 62 53
81 60 48
82 61 49
82 60 50
81 60 48
80 59 47
79 58 47
80 59 48
83 61 50
79 58 48
79 58 49
79 59 45
80 59 49
78 58 47
76 56 44
80 60 45
87 63 55
83 61 50
79 59 45
80 59 49
85 62 53
79 57 52
80 59 48
83 61 49
84 61 51
79 58 48
78 58 46
77 57 47
80 59 47
79 59 46
79 59 46
79 58 48
81 59 50
79 58 47
78 57 46
75 54 47
82 61 48
84 61 53
85 62 50
77 58 44
80 59 47
81 59 50
76 56 46
85 62 52
81 60 47
81 60 48
80 59 47
81 59 49
76 57 43
78 57 49
78 58 45
85 62 54
79 59 46
80 60 47
78 58 48
82 61 48
81 60 47
83 61 49
78 58 46
80 59 49
79 58 48
79 59 46
81 61 47
79 58 48
79 59 46
81 60 48
82 61 50
82 61 49
81 60 49
82 61 49
79 58 47
81 59 52
81 59 51
81 60 48
83 62 48
78 57 47
77 57 46
74 55 42
82 61 48
79 59 46
78 58 45
78 58 47
110 87 47
122 97 52
123 98 54
121 96 53
120 93 58
118 91 59
122 96 55
122 97 53
123 98 54
122 96 54
122 96 54
123 97 53
121 95 55
121 95 55
122 96 55
123 97 54
123 98 54
120 93 58
122 96 55
121 95 55
124 100 50
121 94 57
125 100 51
123 97 54
123 97 54
122 98 52
121 95 57
121 95 56
123 99 51
124 100 51
124 99 53
120 94 57
121 96 55
123 98 53
123 97 54
121 95 56
122 97 55
120 94 57
122 96 55
123 97 54
124 99 53
123 98 53
122 97 55
124 99 53
122 97 55
123 98 53
124 99 52
124 99 52
122 96 55
123 97 54
120 93 58
124 99 52
122 96 56
121 95 56
122 96 55
122 97 55
124 99 53
121 95 56
122 96 55
121 95 57
123 97 54
122 96 56
120 93 59
121 95 56
126 102 49
121 95 56
123 98 53
123 97 54
122 96 55
122 97 54
122 96 55
123 98 53
124 100 51
122 96 55
123 98 53
123 97 54
124 99 53
123 98 54
124 99 52
125 101 50
123 98 54
121 94 57
122 96 55
122 96 56
121 95 56
123 98 54
125 101 51
122 97 54
123 97 54
122 97 55
123 97 54
119 92 60
122 97 54
125 100 51
122 96 55
121 95 57
124 99 52
119 91 60
124 98 53
125 100 51
123 98 53
123 97 54
121 95 56
123 98 53
122 97 55
121 95 56
122 96 56
122 96 55
122 96 55
121 95 56
124 99 52
124 99 52
124 99 53
120 93 59
121 95 56
120 93 58
120 93 59
127 100 59
137 104 74
139 104 80
150 110 92
156 111 107
162 112 119
170 116 129
168 116 125
177 118 144
193 124 169
196 126 171
199 127 178
199 127 178
199 127 178
199 127 178
199 127 178
199 127 178
199 127 178
199 127 178
199 127 178
199 127 178
199 127 178
194 125 169
184 121 154
182 121 149
173 117 134
161 112 116
157 110 112
147 107 92
143 104 90
132 100 71
127 99 60
126 99 59
123 98 53
123 98 54
122 97 55
121 95 56
124 98 53
122 97 54
122 97 55
121 95 57
121 95 56
121 95 56
123 97 54
124 99 53
123 98 54
122 96 55
121 95 56
123 97 54
121 95 56
122 96 55
124 99 52
123 98 53
120 93 58
123 98 53
122 97 54
122 96 55
121 95 57
120 94 58
122 96 55
122 97 55
124 99 52
124 99 53
123 98 53
121 95 56
120 93 58
122 96 55
122 97 54
124 99 53
124 99 53
121 95 54
121 95 56
123 97 54
123 97 54
123 98 54
122 97 54
122 97 54
122 96 55
122 97 55
122 96 56
121 95 56
123 98 53
121 95 56
122 96 55
124 99 52
122 96 55
121 96 55
123 98 54
122 97 54
123 97 54
121 95 55
124 99 52
124 99 52
122 96 56
121 95 56
124 99 53
123 98 53
121 95 55
121 96 55
122 97 54
120 94 58
123 98 53
121 95 55
123 98 53
120 93 58
123 98 54
121 95 56
121 94 57
121 95 57
123 98 53
122 96 55
122 97 54
121 96 54
124 99 51
121 95 56
124 99 52
123 98 53
123 98 54
121 96 54
122 96 55
122 97 55
122 97 54
122 96 54
121 95 56
122 97 55
122 96 55
120 94 57
120 94 57
124 100 52
122 98 53
122 97 55
122 96 56
121 95 56
120 94 57
123 98 53
123 97 54
124 100 52
123 97 53
122 96 55
125 101 50
121 96 53
121 95 55
120 94 56
122 96 55
123 98 53
123 98 52
121 96 53
121 96 53
123 98 53
123 98 53
121 96 55
121 94 57
123 98 53
123 97 54
120 95 53
123 98 53
123 98 54
120 95 55
119 93 56
122 97 53
122 96 53
78 57 48
79 59 45
80 60 45
79 59 47
78 59 44
76 55 47
79 59 46
79 57 50
74 55 42
81 59 48
74 55 43
78 57 46
75 56 42
78 58 45
80 59 49
80 59 49
76 57 43
77 57 44
79 60 44
84 62 50
79 58 48
85 62 53
81 60 48
84 61 52
74 56 42
80 59 47
81 59 52
79 58 46
78 58 47
81 60 47
80 59 48
85 63 50
85 63 50
77 57 45
82 60 51
81 59 49
79 59 46
84 61 51
81 61 47
84 62 49
84 62 51
85 62 52
87 63 55
82 60 50
81 60 48
83 63 46
77 56 48
82 60 50
84 62 51
82 60 48
79 59 47
78 57 46
79 59 47
82 61 49
80 59 48
87 63 56
75 55 45
82 60 51
78 59 45
80 60 46
84 61 51
86 63 51
81 59 49
85 62 53
82 61 49
82 60 50
80 59 48
84 62 51
78 58 45
86 64 50
80 60 47
84 62 51
80 59 47
80 59 48
79 58 47
78 58 45
81 60 46
83 61 51
78 57 47
83 61 49
79 59 48
77 57 45
84 62 50
78 58 46
83 62 47
80 59 48
82 61 47
83 62 48
80 60 46
79 58 48
85 62 51
83 62 47
81 60 50
82 61 47
83 61 48
80 60 46
81 59 48
80 59 48
79 58 46
81 59 50
83 61 50
82 60 49
84 62 51
77 57 45
80 58 49
81 60 47
84 62 51
81 59 49
80 59 49
83 61 51
82 59 51
76 57 43
83 61 49
82 60 50
83 60 52
73 54 45
76 56 46
79 58 48
80 58 49
75 55 47
76 56 45
84 61 52
121 95 55
121 96 54
125 100 51
123 98 53
121 95 56
123 97 54
124 99 52
122 96 55
122 96 55
122 96 54
121 95 56
122 98 53
123 98 53
122 97 51
121 94 57
122 96 55
122 97 53
121 95 56
121 95 57
120 95 54
123 98 54
119 93 56
123 98 52
124 99 52
121 95 55
123 98 52
121 95 56
122 97 53
125 100 51
121 96 54
124 99 52
122 96 56
122 96 55
121 94 57
121 94 57
121 95 57
121 95 56
122 96 56
122 97 55
120 94 57
122 96 55
121 95 56
121 95 57
124 99 53
122 96 55
122 97 53
122 96 55
122 96 56
123 97 54
120 94 57
121 95 55
123 97 54
122 97 54
122 97 54
120 93 59
123 98 54
121 96 54
121 95 56
122 97 55
121 95 56
122 97 55
121 95 57
124 99 52
121 95 57
121 95 54
122 97 54
122 97 54
125 101 50
121 96 54
122 96 56
119 92 59
123 97 54
121 95 57
124 99 53
122 97 55
122 97 53
120 93 58
120 93 57
124 100 52
122 96 55
121 95 57
122 96 56
122 97 55
122 96 55
120 94 56
124 99 53
122 96 55
121 95 56
124 100 52
125 100 51
124 99 52
122 97 53
123 98 53
123 97 54
122 96 55
122 97 55
119 91 60
120 94 57
123 97 54
123 97 54
123 98 53
123 98 53
123 97 54
121 95 56
122 96 55
121 95 56
120 94 58
121 95 56
124 99 52
122 96 55
119 93 59
122 96 56
123 98 54
122 96 56
122 96 56
123 97 54
119 92 60
122 96 56
123 97 54
121 95 57
120 94 58
121 95 56
123 97 54
125 101 50
124 99 53
123 97 54
122 97 55
121 95 56
124 97 57
134 104 68
135 101 78
146 107 91
154 109 107
165 114 121
162 111 122
177 118 144
177 119 140
180 119 151
189 123 162
123 98 54
122 96 55
122 97 54
121 95 56
122 96 55
124 99 53
124 99 52
121 95 57
123 98 53
124 99 53
121 95 56
123 98 54
124 99 52
121 95 56
120 93 58
120 93 58
123 98 53
122 97 55
122 97 55
122 96 55
121 95 56
121 95 56
123 98 53
122 97 55
121 95 56
122 96 55
123 98 53
122 96 55
123 97 54
122 97 55
123 97 54
123 98 53
124 99 52
121 95 56
121 95 56
123 97 54
121 95 56
123 98 53
122 97 55
123 97 54
124 99 52
122 97 55
123 97 54
123 98 54
121 94 57
123 98 53
120 94 57
125 100 51
122 96 56
122 97 53
121 95 57
122 96 55
123 97 54
121 95 57
123 97 54
119 92 59
123 98 53
122 97 55
122 97 55
123 97 54
122 96 55
122 96 55
122 97 54
122 97 54
122 97 55
123 98 53
121 96 55
122 96 55
121 96 54
122 96 55
125 101 50
123 98 54
121 95 56
121 95 57
123 98 52
120 93 58
121 95 56
122 96 55
120 94 58
121 95 56
124 99 52
123 98 53
122 97 55
121 96 55
123 97 54
123 97 54
122 96 55
124 99 53
122 97 54
122 96 55
122 97 54
122 96 54
122 96 55
122 96 56
123 98 53
122 97 55
123 98 53
119 93 56
124 99 52
122 97 54
121 96 54
123 97 54
122 97 55
123 98 54
117 91 56
124 100 50
123 97 54
122 97 54
122 96 55
120 94 57
120 93 58
122 96 55
125 101 49
121 96 53
118 91 57
123 99 51
120 94 55
123 99 52
124 99 51
126 102 49
123 98 52
123 98 53
122 97 54
122 97 54
122 96 54
121 96 53
123 98 53
117 91 56
121 95 56
123 97 54
122 97 54
122 96 55
121 96 55
123 98 52
122 97 55
122 96 55
122 98 52
122 97 53
124 99 52
93 72 48
75 56 42
79 57 50
86 64 50
75 55 45
76 56 46
80 59 47
82 61 46
83 61 49
81 60 50
76 57 43
81 60 47
79 58 48
82 61 50
74 55 42
78 57 48
80 59 47
77 57 45
78 58 46
79 59 46
83 60 51
78 58 47
81 59 50
79 59 44
80 58 50
77 57 44
77 57 45
84 62 51
79 59 45
76 56 46
80 60 46
74 55 43
76 56 44
76 56 46
82 61 49
80 59 49
79 58 46
82 60 50
83 61 49
82 61 49
78 56 49
78 57 46
78 57 46
75 56 45
84 62 50
79 58 47
83 60 51
88 64 54
76 57 43
80 59 46
86 63 53
80 59 47
81 60 48
80 60 46
73 54 42
84 62 51
75 56 44
75 56 43
84 62 50
82 61 48
78 58 45
83 61 52
82 61 48
80 59 50
76 56 45
79 58 48
80 59 48
80 59 48
76 57 43
83 61 50
82 59 52
79 59 45
81 60 48
83 61 48
75 55 44
82 61 47
78 57 49
82 60 49
84 61 52
74 55 43
75 56 45
84 61 51
81 60 47
85 62 51
81 60 48
78 58 46
76 57 44
77 57 44
83 61 50
81 60 48
84 61 53
82 60 49
80 60 45
81 60 48
85 62 52
81 61 47
77 57 47
80 58 51
78 58 46
83 61 51
76 58 41
76 56 45
79 59 47
75 55 45
87 64 52
78 58 46
82 60 51
80 59 46
77 57 46
79 58 47
80 58 49
83 62 49
78 57 49
78 58 45
77 56 48
81 61 45
79 59 47
80 60 47
79 59 46
76 57 42
72 52 46
91 70 45
121 96 54
122 96 56
121 95 56
120 95 54
121 96 53
123 98 54
120 95 54
121 95 56
120 94 56
122 97 52
123 98 53
122 97 53
123 98 52
123 98 53
123 98 53
123 98 54
123 98 53
123 98 54
122 96 55
122 97 55
123 99 50
123 97 53
123 98 52
119 93 57
124 100 50
122 96 54
122 97 55
121 94 57
121 95 57
120 94 54
124 99 52
123 97 54
123 98 53
121 96 55
123 98 54
122 97 54
123 98 52
124 99 52
121 95 56
121 96 54
121 95 56
123 99 52
123 98 53
121 95 56
123 98 53
122 97 55
121 97 52
123 97 54
120 93 58
122 97 55
121 96 54
121 95 55
120 94 56
123 98 54
124 98 53
124 99 52
123 97 54
122 96 54
121 95 57
120 94 56
122 96 55
123 97 54
122 97 55
120 94 58
120 94 56
123 98 52
123 97 54
122 96 54
122 97 54
123 97 54
121 95 56
122 96 56
119 92 58
122 96 55
122 97 54
125 100 51
123 98 53
121 94 57
122 96 55
121 94 57
121 95 57
123 97 54
123 98 53
124 99 52
122 97 53
123 98 54
122 97 54
123 98 54
124 99 53
124 99 52
122 96 55
122 96 55
124 99 53
124 99 52
123 97 54
121 95 57
122 97 54
122 96 55
122 96 55
124 99 53
120 93 58
123 98 53
123 98 53
122 96 56
122 97 54
120 93 58
125 101 50
123 98 53
124 99 52
122 96 55
122 97 55
120 93 58
123 97 54
121 95 56
121 95 56
122 96 55
125 101 51
121 95 57
123 98 53
123 98 53
123 98 54
124 99 53
120 94 58
123 98 53
122 96 56
123 97 54
123 98 53
123 98 54
121 95 56
124 100 52
122 96 56
121 95 57
124 100 52
123 98 53
119 91 60
119 92 58
122 97 55
122 97 55
123 98 53
122 97 55
124 100 52
122 96 55
122 96 56
122 96 56
122 96 55
123 98 53
123 98 53
122 96 55
121 94 57
123 97 54
123 97 54
124 100 52
121 94 57
121 95 56
123 97 54
123 98 53
124 99 53
123 97 54
120 93 58
120 93 58
122 96 56
121 95 56
122 97 55
123 97 54
123 98 52
123 97 54
119 92 59
122 96 56
124 100 52
126 101 50
122 96 56
122 96 56
123 98 54
123 97 54
121 95 55
122 96 56
121 95 56
120 94 57
121 94 57
122 97 55
122 96 55
124 100 52
124 98 53
123 97 54
124 99 52
121 95 56
125 100 51
123 97 54
120 94 57
123 97 54
123 97 54
123 99 52
122 97 54
124 99 53
123 97 54
121 95 56
123 98 53
122 97 54
123 97 54
123 98 53
123 97 54
123 98 53
122 96 55
121 95 57
121 95 57
121 95 55
125 100 51
121 95 57
124 100 52
123 98 53
121 95 56
123 97 54
122 96 56
121 95 56
123 98 53
121 95 56
123 97 54
125 100 51
122 96 56
122 97 54
122 96 55
119 92 58
122 96 55
122 97 55
123 98 52
122 97 54
122 96 56
121 94 57
124 99 53
119 93 57
121 95 56
122 96 55
121 95 56
121 95 57
123 98 53
121 95 55
122 97 55
123 98 53
121 95 56
123 99 52
122 96 55
124 100 52
122 96 54
122 96 55
124 99 53
119 92 60
124 99 52
124 99 51
121 95 55
120 94 57
122 97 53
122 97 53
122 97 53
124 99 52
121 96 53
122 97 53
121 96 53
123 97 54
122 96 55
123 98 53
122 96 55
122 96 53
121 96 55
121 97 52
124 101 48
122 97 55
122 97 52
122 97 55
121 96 53
120 94 56
123 98 52
119 93 57
123 98 52
120 95 56
121 96 53
122 96 54
124 100 52
122 97 53
114 89 52
77 57 46
79 58 46
77 57 46
78 57 46
76 56 45
75 55 46
82 60 51
76 56 44
76 56 45
79 59 45
79 58 47
81 59 51
75 56 44
85 63 50
78 58 46
76 56 45
82 60 52
78 58 46
81 60 48
80 59 46
79 59 45
86 64 51
80 59 49
82 61 49
80 59 47
77 57 47
82 61 48
78 57 48
84 62 52
83 62 49
78 57 49
79 58 48
80 59 49
77 57 46
76 57 44
76 57 43
81 59 49
78 58 47
74 55 44
80 58 49
84 62 49
86 63 52
79 59 47
77 57 45
81 59 50
82 60 50
79 58 48
80 59 47
80 59 47
78 58 45
75 56 43
77 57 44
81 60 47
87 64 52
81 60 47
78 58 44
77 58 45
84 63 48
74 55 44
85 62 53
81 60 50
84 62 50
80 60 46
83 61 50
86 63 53
76 56 44
83 61 52
79 58 47
86 64 52
83 61 51
82 61 48
82 61 48
75 55 45
79 58 48
81 60 47
78 58 46
79 59 47
84 62 50
81 60 47
82 60 50
76 57 43
85 62 52
81 61 47
78 57 50
83 63 46
78 58 46
78 56 50
83 61 51
87 64 52
81 60 46
82 61 50
79 58 48
78 59 44
75 56 42
80 59 49
77 57 48
76 56 44
78 58 47
79 58 48
75 56 44
76 56 44
81 59 50
76 57 45
83 60 52
75 56 44
79 59 47
78 58 45
80 58 49
77 57 47
79 58 47
78 58 48
78 58 45
77 57 46
76 57 44
82 59 51
75 56 44
82 60 51
75 56 42
79 58 48
73 55 42
107 83 50
122 97 54
122 96 54
122 96 55
124 99 51
124 99 52
122 96 56
122 96 55
121 97 51
120 94 57
122 97 53
120 93 57
121 95 55
122 96 54
122 97 55
121 95 56
123 98 53
123 98 53
122 98 53
123 98 54
122 97 53
122 97 52
122 97 54
123 97 54
121 95 56
124 100 52
123 97 54
125 100 51
121 95 55
119 93 57
119 92 58
120 94 57
122 96 55
122 97 55
123 98 54
122 97 55
123 98 52
122 97 54
119 93 58
121 95 56
122 97 53
120 94 56
122 97 54
121 95 56
122 97 54
123 98 52
123 98 54
125 100 51
120 93 59
123 98 53
123 97 54
122 97 55
124 99 52
121 95 56
122 96 56
120 94 57
120 95 55
122 96 55
123 98 53
123 97 54
120 93 58
122 96 54
123 97 54
122 97 55
125 100 51
122 96 55
123 97 54
124 99 52
122 96 55
124 99 52
121 94 57
122 96 55
122 96 56
123 99 52
122 96 55
124 99 52
123 98 53
121 95 56
124 99 52
124 98 53
123 98 53
123 98 54
122 97 55
123 97 54
122 96 55
122 96 55
121 95 56
121 95 57
123 98 52
124 99 51
123 98 53
125 100 51
121 95 56
123 98 53
123 97 54
122 96 55
121 95 56
126 101 50
122 97 55
123 97 54
120 94 57
122 97 54
122 96 56
121 95 56
123 97 54
122 97 54
122 96 56
122 96 55
123 98 54
122 96 55
124 100 51
122 97 55
121 95 56
124 100 51
123 97 54
121 95 57
123 97 54
122 96 56
121 95 56
121 95 56
122 97 53
122 97 55
124 99 53
122 96 53
122 97 55
121 94 57
121 95 57
123 98 53
120 93 58
123 98 54
121 94 57
124 99 53
122 96 55
121 95 56
122 96 55
122 96 55
123 97 54
123 98 54
120 94 57
122 97 54
122 96 56
122 96 55
120 94 56
122 96 55
123 97 54
121 94 57
124 99 53
122 97 54
122 96 56
122 96 55
124 99 52
123 98 53
123 97 54
123 99 52
123 98 54
123 97 54
121 94 57
123 98 52
123 97 54
120 93 58
122 96 55
125 100 51
125 100 51
121 94 57
124 98 53
123 97 54
122 96 55
122 96 56
121 94 57
125 100 51
122 96 55
124 99 52
123 97 54
123 98 53
123 98 54
123 98 54
121 95 56
121 94 57
123 97 54
122 97 55
121 95 56
121 95 57
121 95 56
125 100 51
125 100 51
123 97 54
122 96 55
122 97 54
121 95 55
124 99 52
123 97 54
122 97 55
122 97 55
122 96 56
122 96 55
121 94 57
123 98 54
123 98 53
123 98 53
122 97 55
120 93 58
122 97 53
121 95 55
123 98 53
123 97 54
122 96 56
121 95 56
121 95 56
122 97 54
122 96 55
122 97 55
122 96 55
123 98 53
123 98 54
122 96 56
121 94 57
124 100 52
123 98 52
122 98 52
123 98 53
123 98 53
121 95 56
122 97 55
121 96 55
120 94 58
123 97 54
124 100 52
119 93 57
121 94 57
119 92 59
121 95 55
122 96 55
122 96 55
122 96 55
121 94 57
120 94 56
121 95 56
123 99 52
123 98 52
121 95 57
121 95 57
123 98 54
123 98 53
120 94 56
121 94 57
123 97 54
121 95 56
123 99 51
123 98 53
121 96 53
122 97 54
122 96 55
122 97 53
122 97 53
120 94 57
120 93 58
121 95 56
122 97 55
123 98 52
123 98 52
119 93 55
123 98 53
121 96 55
122 96 56
120 93 58
121 95 54
124 100 51
122 96 56
124 99 51
120 94 55
121 96 53
120 95 52
121 95 55
126 102 49
122 96 54
124 99 52
122 97 53
122 97 52
119 93 56
123 98 53
80 59 47
74 54 46
78 57 47
75 56 42
81 59 50
80 59 47
75 55 46
75 56 44
76 56 44
78 58 45
79 59 46
79 59 44
73 54 42
83 61 51
78 57 47
80 59 46
77 56 47
75 56 45
82 59 51
74 55 43
76 57 44
82 60 50
77 57 46
82 60 51
79 59 46
76 57 44
80 59 49
81 59 48
79 59 45
77 58 43
84 61 53
83 62 48
78 58 45
82 61 48
78 58 47
79 59 47
79 58 47
79 59 45
76 57 43
76 56 45
79 59 47
78 59 44
81 59 50
77 57 44
79 59 46
85 63 52
76 56 44
81 60 47
83 61 50
79 58 48
80 59 48
79 58 48
81 59 49
81 60 48
75 56 43
79 58 48
75 56 43
84 62 51
81 61 46
84 61 52
79 59 46
83 61 50
75 56 42
82 59 51
80 59 47
76 56 46
78 57 49
83 61 50
80 59 49
74 54 45
78 58 45
83 61 50
78 57 48
79 59 44
77 56 48
83 61 51
77 57 45
80 59 48
75 55 44
79 59 46
82 60 49
83 61 51
78 58 45
79 59 47
76 57 44
76 56 45
78 58 46
82 60 51
78 58 46
77 57 45
77 57 45
79 58 48
81 60 50
78 59 44
80 58 49
79 58 46
78 58 44
80 60 45
80 59 49
76 56 47
81 60 48
77 57 45
73 54 42
81 60 48
79 57 50
76 55 48
82 60 50
80 60 47
80 58 50
76 56 43
77 57 47
84 62 51
77 57 44
80 58 50
76 56 47
79 58 46
80 60 46
74 55 41
77 57 44
83 62 48
122 98 52
122 96 54
118 92 56
123 98 53
122 96 55
120 95 55
120 93 57
120 95 54
122 96 53
122 98 52
122 96 54
122 97 53
121 95 56
120 94 57
121 96 54
122 97 55
122 97 55
121 95 54
121 96 53
120 95 55
122 97 54
120 94 56
121 96 53
121 95 56
124 100 49
121 96 52
122 96 55
122 96 55
121 95 57
118 93 55
122 97 53
122 97 53
122 96 56
122 96 55
124 99 52
123 98 53
122 96 54
121 95 56
120 94 57
121 95 57
121 95 56
121 95 56
123 99 52
122 97 54
123 99 51
122 97 55
121 95 56
122 97 54
122 96 55
121 95 57
123 97 54
122 97 55
121 96 54
123 97 53
121 95 56
123 98 53
121 95 56
121 95 56
124 99 52
123 97 54
123 98 53
124 99 53
123 98 52
121 94 57
122 96 55
124 99 51
121 95 55
122 97 54
124 99 53
122 96 55
122 97 55
122 97 52
119 93 59
121 95 56
120 94 57
123 98 53
123 97 54
123 97 54
123 97 54
122 96 55
123 98 53
123 98 53
123 98 53
121 95 57
123 98 54
124 99 52
124 99 52
122 97 54
122 96 55
123 98 53
123 98 53
122 97 53
122 96 55
124 99 53
120 94 57
122 96 55
122 96 55
124 99 52
122 97 54
122 96 55
123 98 53
123 98 53
119 93 58
124 99 53
122 96 54
122 97 55
121 96 54
123 97 54
125 100 51
123 97 54
121 95 56
120 93 58
122 97 55
122 96 55
123 98 54
121 95 56
125 100 51
121 94 57
124 99 52
121 95 57
122 96 56
123 98 53
121 94 57
124 100 51
123 98 54
122 97 55
122 96 55
122 96 55
123 97 54
123 98 53
121 95 56
123 97 54
123 97 54
122 97 53
123 98 53
121 95 56
125 101 51
121 95 56
122 96 55
123 98 54
124 98 53
123 97 54
122 96 56
119 92 59
123 97 54
122 97 55
119 91 60
121 95 55
122 97 55
123 98 53
122 96 56
125 101 51
121 95 57
121 95 56
120 93 58
120 93 59
121 94 57
121 95 57
123 98 54
124 99 52
119 92 59
121 95 57
122 96 55
121 95 56
122 97 54
121 95 55
124 99 53
119 92 59
126 101 50
122 96 55
122 96 55
122 96 56
123 98 54
125 100 51
122 97 55
121 95 56
121 95 56
122 97 53
124 100 52
124 99 52
124 99 52
122 96 55
123 98 53
124 99 52
122 96 55
122 96 55
123 98 53
123 98 54
122 97 55
124 98 53
121 95 57
121 95 55
122 96 55
122 96 55
124 99 52
123 97 54
122 97 53
122 96 56
124 99 52
123 98 54
122 97 52
120 94 57
123 97 54
120 94 57
121 94 57
124 99 52
122 96 55
124 100 51
121 95 56
121 96 55
120 95 55
122 97 54
123 98 53
123 99 51
122 97 53
122 96 54
122 96 55
125 100 51
123 98 52
122 96 55
124 99 52
121 95 56
123 98 53
122 96 56
119 92 59
122 96 55
122 96 55
123 98 53
124 99 51
123 98 54
121 95 55
122 97 54
123 98 52
123 97 54
123 98 53
122 97 55
122 96 55
124 99 51
121 95 56
121 96 53
121 95 56
121 96 54
120 94 56
125 101 51
121 97 52
122 96 55
123 97 54
123 98 53
120 95 53
123 98 53
121 96 54
122 97 54
122 96 54
121 95 55
122 97 54
122 96 56
121 95 55
121 95 54
120 94 54
121 96 54
122 96 56
123 99 50
125 100 51
122 98 52
122 97 53
120 95 55
123 97 54
122 97 52
121 95 56
124 100 49
121 97 51
121 95 56
119 93 55
125 100 51
123 98 53
122 96 55
123 98 51
123 98 52
124 99 51
123 97 54
100 77 50
71 52 43
71 52 42
82 59 52
76 56 45
82 61 49
74 55 45
81 60 49
77 58 42
75 56 44
75 56 41
76 57 44
79 58 47
84 61 53
77 57 45
80 58 51
81 59 52
83 61 49
80 59 47
80 59 46
82 59 53
80 59 48
82 61 48
85 62 53
81 60 49
76 56 44
78 58 45
79 58 47
80 59 48
82 60 52
78 59 44
76 56 45
79 58 47
79 58 47
80 59 48
76 57 43
76 57 43
79 58 47
82 61 49
82 60 48
81 59 51
80 59 48
79 59 46
78 57 46
78 59 45
79 59 46
79 58 46
82 61 47
79 58 49
78 58 43
75 56 42
80 59 46
78 57 48
72 54 40
83 61 51
78 59 44
82 61 48
77 56 46
80 60 46
78 58 46
80 59 48
74 55 42
75 56 44
78 58 45
86 62 55
82 61 47
81 60 50
82 61 48
77 57 45
78 57 47
83 61 51
76 56 44
83 60 53
82 60 49
78 58 45
80 59 48
79 59 45
81 59 51
81 60 47
70 53 39
78 58 44
82 61 48
80 58 50
80 59 48
74 55 43
82 60 50
79 58 49
80 59 47
78 57 47
77 57 46
78 58 47
85 62 53
78 58 46
81 60 48
80 59 47
78 58 46
80 59 49
78 58 47
80 59 50
77 57 47
84 62 50
75 56 44
80 59 49
80 59 48
81 60 49
79 58 48
75 57 42
81 59 50
76 58 41
80 60 46
78 57 47
77 57 47
74 55 43
79 59 47
81 60 48
81 59 50
79 58 47
77 57 45
71 52 43
107 83 52
120 96 52
121 96 54
119 93 56
121 95 54
123 98 54
122 97 54
120 96 52
120 95 54
121 95 54
119 94 53
119 94 53
123 98 53
119 94 54
122 96 55
121 96 55
121 95 55
121 95 55
121 96 54
123 99 49
125 100 51
122 97 52
122 97 53
124 99 52
118 91 59
119 93 56
125 101 51
120 94 56
121 97 52
122 96 54
123 99 50
123 98 52
124 99 52
121 95 55
122 96 56
121 95 56
120 94 56
121 94 57
121 95 57
121 95 54
121 96 54
120 94 56
120 93 58
121 95 56
122 96 54
120 94 57
121 96 54
121 94 57
125 101 50
121 95 55
121 96 53
121 95 57
123 98 54
121 96 52
121 96 55
122 96 55
123 98 52
123 99 52
120 94 57
121 95 57
120 95 55
121 95 55
123 98 54
120 93 58
119 93 57
124 99 53
123 98 53
123 97 54
123 98 53
123 97 54
123 98 53
121 94 57
121 96 54
121 95 55
124 99 52
123 98 53
122 96 55
120 94 57
123 98 53
121 94 57
124 99 53
123 97 54
125 100 51
119 92 59
123 98 54
121 96 55
124 99 52
122 97 54
122 96 55
122 96 56
124 99 53
124 99 51
122 97 55
122 97 55
122 96 55
121 95 56
122 97 55
121 95 55
120 94 58
123 98 53
124 99 53
124 99 53
122 97 55
123 98 52
121 95 57
124 99 53
122 96 55
120 94 56
123 98 53
121 95 55
121 95 57
122 97 53
121 95 57
122 97 54
121 95 55
124 99 52
124 99 52
124 99 52
122 96 56
125 101 50
121 95 55
122 96 55
123 97 54
121 95 57
124 99 53
123 97 54
123 98 53
122 97 53
121 95 56
120 93 59
123 97 54
122 97 54
122 97 55
123 97 54
123 97 54
121 95 55
120 94 58
124 99 53
122 96 56
121 95 57
121 94 57
124 99 53
125 100 51
122 96 55
122 96 55
122 97 55
121 95 56
123 98 53
124 99 53
122 96 56
124 99 52
122 97 53
125 100 51
121 95 56
124 99 52
120 94 57
121 95 56
122 96 56
122 96 55
124 99 52
123 97 54
122 96 54
122 96 55
124 99 52
123 98 54
122 96 55
121 95 56
122 96 56
123 97 54
123 97 54
123 97 54
123 97 54
123 98 54
121 94 57
124 99 53
122 96 55
123 98 53
123 99 51
122 96 55
120 94 58
121 95 56
121 96 54
122 97 55
123 98 54
122 96 55
121 95 56
122 97 53
122 97 53
122 97 53
123 97 54
121 95 56
119 93 56
123 98 53
122 96 55
122 98 52
124 99 53
123 98 53
121 94 57
124 99 53
123 98 53
120 93 57
121 95 56
120 94 57
122 97 54
122 96 55
123 98 53
123 97 54
125 101 50
119 93 56
121 95 56
121 96 55
123 97 54
121 96 54
121 95 55
122 97 55
121 95 56
121 94 57
122 97 53
123 98 53
120 94 58
122 97 55
119 93 57
124 99 52
119 93 57
120 94 56
124 99 53
122 97 53
121 95 57
122 96 55
123 97 54
122 96 55
122 97 52
121 96 54
124 99 52
119 94 55
121 96 55
121 95 54
121 95 55
122 96 55
122 97 54
124 99 52
121 95 56
121 95 56
126 102 48
124 99 53
122 96 56
120 95 54
123 97 54
122 96 55
122 97 53
121 96 54
121 96 53
119 94 55
122 96 54
121 94 57
122 96 56
123 97 54
122 97 52
121 96 54
121 96 53
123 100 49
118 92 56
122 97 53
121 96 53
121 95 55
122 96 54
122 97 51
122 97 52
123 97 54
120 95 52
120 95 52
120 94 55
123 98 54
123 99 50
123 98 54
121 95 56
121 96 55
123 98 53
121 95 55
121 95 55
122 96 55
121 96 53
77 57 45
74 54 45
78 58 47
76 56 45
81 60 49
77 57 46
79 57 49
77 57 46
83 60 52
78 57 47
80 59 48
79 59 46
82 60 50
73 54 42
80 58 50
81 60 49
75 56 45
77 57 46
75 55 45
76 56 45
81 59 52
75 55 46
79 58 48
78 57 48
77 58 45
80 59 48
77 57 45
77 56 49
76 56 47
81 59 49
76 56 47
74 55 44
75 56 43
78 58 46
78 57 47
77 56 49
82 59 52
80 58 49
74 54 45
79 58 49
74 55 41
81 60 49
74 55 43
76 57 44
79 58 46
79 59 45
83 60 51
77 57 44
82 60 50
80 59 48
78 57 46
81 59 50
73 54 43
77 57 46
83 61 48
79 59 46
82 61 47
79 59 45
78 58 45
84 61 52
77 58 44
78 57 49
81 59 49
71 52 43
79 58 48
76 57 43
84 61 53
79 58 49
79 60 44
80 59 48
77 56 46
78 58 46
79 58 49
73 54 41
77 58 44
79 59 46
79 58 48
79 58 48
83 60 52
75 57 41
80 58 50
74 55 43
78 58 46
75 56 44
81 60 48
77 57 47
79 58 47
79 58 47
80 58 49
77 57 45
78 57 48
80 58 51
79 59 45
79 59 47
82 60 51
80 59 47
79 59 45
76 56 45
83 61 52
76 56 45
80 59 49
75 57 42
81 58 53
80 60 47
73 55 41
79 58 47
72 54 42
74 56 41
81 59 50
78 58 46
69 51 42
77 57 46
79 59 45
70 52 41
80 59 49
80 60 47
77 56 48
76 57 44
118 93 53
122 98 51
123 97 54
120 93 58
123 97 54
121 96 53
122 97 53
120 94 55
119 93 57
121 95 54
119 94 55
121 97 52
120 96 51
124 99 52
122 97 55
120 94 55
120 95 55
121 96 54
122 97 55
122 96 54
122 97 55
120 94 55
121 96 55
121 95 55
121 97 50
123 97 54
122 97 54
122 97 52
121 95 55
124 99 51
122 96 54
122 96 54
121 94 57
121 95 55
122 96 54
125 101 50
121 97 52
122 96 55
123 99 50
122 97 55
123 98 53
122 97 53
123 98 54
119 93 56
122 96 55
120 94 56
123 98 54
121 94 57
121 94 57
124 100 50
120 94 55
122 97 54
122 97 55
125 100 51
123 97 54
123 97 54
122 96 56
124 98 53
120 95 55
120 94 56
123 97 54
120 94 56
122 97 54
123 98 52
120 93 58
120 94 56
122 97 54
122 97 55
122 96 55
121 95 56
124 99 53
122 96 55
121 95 56
122 96 54
122 97 55
124 100 51
122 97 53
125 100 51
124 99 52
122 97 53
121 94 57
121 94 57
121 96 54
122 96 55
123 98 53
124 99 53
124 99 53
123 98 53
125 100 51
124 100 52
121 94 57
121 94 56
124 99 53
123 98 54
123 97 54
122 97 55
124 100 52
121 94 57
122 96 55
122 97 55
123 97 54
124 99 52
126 102 49
123 97 54
124 99 53
122 97 55
123 98 54
120 94 58
120 94 56
120 93 59
122 97 54
122 96 56
122 96 56
123 97 54
121 95 56
122 96 55
121 95 57
121 95 57
120 94 57
125 101 51
122 96 55
123 98 53
123 98 53
120 94 56
123 97 54
122 96 55
121 95 56
122 96 54
122 96 55
125 100 51
123 98 54
122 96 56
123 98 53
120 94 58
122 97 55
122 96 55
120 93 59
122 96 55
122 96 56
121 95 56
122 96 55
122 97 55
123 98 54
122 96 54
123 98 54
122 96 55
122 96 55
122 97 54
121 95 56
122 96 56
121 94 57
124 99 53
122 96 55
122 97 53
122 96 55
124 99 52
121 95 55
125 100 51
124 99 52
123 97 54
121 95 56
126 102 49
121 95 56
124 99 52
124 99 52
123 98 52
120 94 57
123 97 54
122 96 55
125 101 50
121 95 56
121 95 56
121 95 56
125 100 51
122 97 55
123 97 54
122 96 55
123 97 54
123 98 53
122 96 55
121 95 56
120 93 58
123 98 53
122 96 55
122 97 55
122 97 54
123 98 54
123 98 52
123 98 53
122 97 54
123 97 54
125 100 50
120 94 57
120 95 54
123 97 54
121 95 56
124 99 52
126 102 50
122 97 55
122 97 53
124 100 52
123 99 51
122 97 54
121 95 56
123 98 53
124 99 51
122 96 56
120 94 57
121 95 57
122 97 53
120 93 57
123 98 51
120 93 58
123 97 54
122 96 55
121 95 55
120 95 56
124 99 52
121 96 54
120 94 56
123 98 53
124 99 53
123 97 54
123 98 52
121 94 57
120 94 56
123 98 52
121 96 53
123 97 54
124 99 52
122 97 54
122 98 52
121 95 57
123 98 52
122 97 52
121 95 56
125 100 51
122 96 55
122 96 54
120 94 56
122 98 50
123 98 52
117 91 58
121 94 57
123 97 54
119 94 54
123 98 54
124 99 52
123 97 54
123 98 53
124 99 53
125 100 51
122 96 55
123 98 52
122 98 51
119 94 55
121 96 52
120 95 54
122 97 54
122 97 55
121 96 53
121 95 55
119 93 56
124 99 52
119 93 57
122 96 55
123 98 52
121 95 54
122 97 55
121 96 53
119 93 56
118 92 56
122 97 51
118 92 57
122 96 54
123 99 49
121 96 52
122 97 52
121 96 54
120 94 55
119 95 52
119 93 55
98 76 49
75 55 45
79 58 49
71 53 41
77 57 48
74 55 43
75 56 44
79 58 49
77 57 46
74 54 45
73 54 44
78 58 45
78 58 47
77 58 45
81 60 49
81 59 48
76 56 46
80 59 50
77 57 45
81 60 49
78 58 46
78 58 47
81 60 49
77 56 46
80 59 46
78 57 47
79 59 46
79 58 48
80 60 47
82 61 47
78 57 47
77 56 47
77 56 47
76 55 47
82 60 51
77 57 44
77 56 46
81 59 50
79 59 45
78 57 47
77 56 48
84 62 51
76 56 45
80 60 47
81 60 47
81 60 46
78 57 48
80 58 51
81 60 46
78 57 48
80 58 51
79 58 48
77 57 45
85 62 51
76 57 43
78 58 46
82 61 48
76 56 47
78 58 47
78 58 47
82 60 48
82 61 49
79 59 47
82 60 51
75 56 42
80 59 47
78 58 45
84 62 52
73 54 43
81 59 49
80 59 48
77 57 47
76 56 44
79 58 48
76 58 42
77 57 45
82 60 51
80 59 46
76 57 43
76 56 45
75 56 45
77 57 45
81 59 49
82 61 50
77 57 45
80 60 47
78 58 46
79 58 49
83 60 51
76 56 46
81 59 50
80 59 46
76 56 45
79 58 46
79 58 50
80 59 46
79 59 47
77 57 44
82 60 51
82 60 50
77 57 46
77 56 46
78 57 47
74 54 45
80 59 47
80 60 46
78 58 45
78 58 45
74 54 47
79 58 48
79 59 47
77 57 46
76 56 46
78 58 47
73 54 43
76 55 48
80 58 50
96 75 46
122 97 53
119 95 51
119 93 57
121 95 55
119 94 54
120 94 55
122 98 50
120 93 58
123 98 52
119 93 56
120 95 53
118 93 52
123 98 53
121 95 55
122 96 55
123 98 51
121 97 52
121 96 54
123 98 53
122 97 52
120 95 54
123 97 54
120 95 53
122 97 52
124 99 52
121 95 56
122 97 53
123 98 53
121 96 53
122 97 53
122 97 54
122 97 54
118 92 58
119 93 57
122 98 51
122 96 56
125 100 51
126 102 50
124 99 51
124 100 52
120 94 55
121 95 56
123 97 54
120 93 58
124 99 51
123 98 53
122 96 55
121 96 53
122 98 50
122 97 53
119 94 54
121 95 56
121 94 56
123 98 53
124 99 53
117 91 56
123 98 54
122 96 54
121 95 56
124 99 52
123 97 54
121 95 56
122 96 56
123 97 54
122 96 55
120 95 55
123 98 54
125 101 50
125 100 51
123 98 54
123 98 54
123 98 54
123 97 54
122 96 56
122 97 55
120 93 58
122 96 55
123 98 53
123 98 54
122 98 51
124 99 53
122 97 55
122 96 54
124 99 53
120 94 58
123 97 54
124 99 53
120 94 57
121 95 57
119 92 58
123 97 54
123 98 53
120 93 58
123 98 53
120 95 56
120 94 58
123 97 54
121 95 56
123 98 53
125 101 51
122 96 55
123 98 53
125 101 51
122 97 55
122 96 55
122 96 54
121 95 57
122 97 53
124 99 53
122 96 55
121 95 55
120 94 57
124 98 53
123 98 53
122 96 56
122 97 55
121 96 55
124 99 52
121 95 56
121 95 56
124 99 53
121 95 56
121 95 56
121 95 56
123 97 54
120 94 58
125 100 51
122 96 55
122 96 55
123 98 54
126 102 49
122 97 55
122 96 55
121 95 56
121 95 57
121 95 55
122 96 54
124 99 52
124 100 51
124 99 52
122 96 55
122 96 55
120 93 58
122 96 55
121 94 57
122 96 55
119 92 59
123 98 54
122 97 53
120 94 57
121 94 57
122 96 55
123 98 53
124 98 53
123 98 54
120 93 58
123 97 54
122 96 56
123 97 54
124 99 51
122 96 55
121 96 55
122 96 55
121 94 57
123 98 52
122 97 54
122 96 55
122 97 53
123 97 54
122 96 56
124 99 51
120 94 56
121 94 57
122 97 55
124 99 52
121 95 57
122 96 55
122 96 55
125 100 51
122 96 55
122 97 55
121 95 55
122 97 53
123 98 53
121 95 56
120 94 56
125 100 50
122 96 55
122 97 54
123 98 53
121 95 55
122 96 55
121 95 57
122 97 55
120 94 56
124 98 53
124 100 51
123 98 53
122 97 54
124 99 52
122 97 53
123 99 51
123 97 54
119 93 57
121 95 54
123 98 52
121 96 55
123 98 52
120 94 57
123 97 54
121 95 57
123 97 54
124 99 53
123 97 54
121 95 56
120 95 55
124 99 52
124 99 52
120 94 55
121 95 56
120 95 54
119 93 58
122 96 54
120 94 57
122 96 55
124 99 53
121 95 56
124 99 51
123 98 53
124 99 52
124 100 52
121 95 56
119 94 55
120 96 52
122 97 54
121 96 53
121 96 54
122 96 53
122 97 54
120 94 57
120 94 56
125 100 51
121 95 55
121 95 55
120 94 56
120 94 56
122 97 53
123 98 53
122 96 54
122 96 55
119 94 55
120 94 57
124 99 52
117 91 57
118 93 55
123 98 52
121 96 52
120 94 55
124 98 53
121 96 51
121 96 53
121 95 56
123 98 53
120 94 56
121 96 53
123 98 52
122 97 53
121 96 52
124 100 49
123 97 53
122 96 53
121 95 54
118 94 51
121 96 54
123 98 54
122 97 52
121 96 53
121 96 53
121 96 54
122 96 55
122 97 52
118 93 55
116 92 50
78 58 47
76 56 44
81 60 49
81 58 51
79 59 46
72 54 40
78 57 48
77 57 45
78 58 46
75 55 44
78 58 45
77 57 45
74 55 44
76 56 46
79 58 48
77 57 45
77 57 45
80 59 47
79 59 46
79 58 47
72 53 41
75 57 42
73 55 41
83 61 48
76 57 44
75 56 44
73 55 41
79 59 48
73 55 42
81 60 48
76 56 45
80 60 46
81 61 47
79 58 47
79 59 45
75 56 44
77 58 43
80 59 48
75 56 44
82 60 51
81 60 48
77 56 48
81 59 50
76 56 45
79 59 46
81 59 49
75 56 45
82 61 47
76 56 44
76 56 46
79 59 44
74 55 42
78 58 47
81 60 48
74 55 42
82 61 48
79 59 47
75 56 42
80 59 49
76 56 45
78 58 46
80 58 49
75 56 45
81 58 53
80 59 48
84 62 52
76 56 45
83 61 52
76 57 44
77 57 45
80 59 47
78 58 46
81 60 47
80 60 45
76 57 41
76 56 45
72 54 41
75 56 43
81 59 51
79 58 49
81 60 47
75 56 43
77 57 45
76 57 45
78 57 48
82 61 50
82 59 52
79 58 48
81 59 48
80 58 51
78 58 46
82 60 51
75 55 44
80 60 46
78 58 46
73 54 43
77 57 46
79 58 47
73 53 45
80 59 48
75 56 42
78 58 46
77 57 46
79 59 46
79 57 50
80 59 49
80 58 52
79 59 47
75 54 47
82 60 50
79 59 44
74 55 45
74 56 42
77 56 48
70 52 39
81 59 49
117 92 53
120 97 50
117 92 54
119 96 48
121 96 55
120 96 52
121 97 49
121 96 54
119 95 50
122 97 53
122 97 53
119 94 54
122 97 51
117 91 55
120 94 56
121 96 53
124 99 53
117 91 56
119 94 55
121 95 56
118 92 57
123 98 52
123 98 52
119 93 56
123 98 52
119 92 60
123 98 53
123 98 52
120 95 55
120 95 53
124 99 51
122 97 53
119 92 57
121 96 54
120 95 54
122 98 51
123 98 52
121 95 56
123 99 52
122 96 54
120 94 54
121 96 53
122 96 55
121 96 54
124 99 51
123 98 53
123 97 54
123 97 54
121 95 54
123 98 53
122 97 53
121 95 55
122 97 54
122 97 55
123 98 52
121 95 56
122 97 54
124 99 52
121 95 54
119 92 59
123 97 54
122 96 55
124 99 53
123 97 54
122 97 53
120 95 55
124 99 52
121 95 56
123 98 52
123 97 54
122 96 56
121 96 53
123 98 52
121 95 56
122 97 53
124 99 52
124 99 53
123 98 54
123 98 53
122 97 54
124 99 53
123 97 54
123 98 53
121 95 55
123 97 54
121 96 54
122 97 54
124 100 52
122 97 55
121 95 55
120 94 56
124 99 52
123 98 53
121 96 55
123 97 54
123 97 54
123 97 54
119 92 59
122 97 55
121 95 56
123 98 53
124 99 52
121 95 57
121 95 56
124 99 52
121 95 57
122 96 55
122 97 54
122 96 55
121 95 56
120 95 55
123 97 54
123 98 53
122 96 55
121 96 54
119 92 59
123 98 54
122 97 53
121 94 57
121 95 55
124 99 53
123 98 53
123 97 54
121 94 57
121 95 56
122 96 55
123 97 54
124 99 52
123 98 53
121 95 55
122 96 56
123 98 53
122 97 55
122 97 55
120 94 56
120 93 58
124 100 52
121 96 55
123 98 53
122 97 55
123 97 54
124 99 51
121 95 57
122 96 55
120 93 58
122 96 55
120 93 58
125 100 51
123 98 53
123 97 54
122 96 55
123 97 54
121 95 56
123 97 54
122 97 55
120 94 56
121 96 54
122 96 56
122 96 55
123 97 54
121 96 54
124 99 52
121 95 56
125 101 50
123 97 54
123 98 53
121 96 55
121 94 57
123 98 53
123 97 54
123 98 53
123 98 53
124 99 52
122 96 56
120 94 57
122 96 54
124 99 53
120 94 57
120 95 53
120 93 58
120 94 56
123 98 53
122 96 55
122 97 54
124 99 53
121 96 54
123 98 53
125 100 51
122 96 55
121 95 57
121 96 54
121 95 56
121 95 56
120 94 58
120 94 57
120 93 58
125 100 51
122 97 54
122 96 55
122 97 53
121 95 56
122 97 53
120 94 57
122 96 54
126 102 50
120 93 58
122 96 56
122 96 54
121 96 55
123 98 53
122 96 55
122 96 56
121 95 57
122 98 52
123 98 54
121 95 56
122 97 53
122 96 54
121 95 55
119 93 59
123 98 53
124 100 51
121 96 54
123 98 53
121 95 55
122 97 53
121 95 56
122 96 55
123 98 52
123 97 54
123 98 53
123 99 52
122 96 55
119 94 55
121 95 56
124 99 52
123 98 54
119 93 56
121 96 52
121 96 53
123 98 53
123 97 54
119 93 56
123 98 52
121 96 54
118 93 55
123 99 52
122 97 54
121 96 52
121 96 54
122 96 55
120 94 56
121 96 52
122 97 55
119 95 52
122 97 55
118 93 55
118 93 55
121 96 53
119 93 58
123 97 54
118 93 55
121 96 53
118 92 57
120 95 53
122 96 55
118 93 53
122 98 52
120 95 52
122 97 52
120 95 52
121 96 53
121 95 55
121 96 51
119 93 56
123 97 53
118 92 55
117 93 53
123 98 52
122 98 50
119 94 54
124 99 51
121 96 54
120 94 56
88 67 45
71 52 43
75 55 46
77 57 46
75 55 45
73 55 42
77 58 44
72 53 43
70 52 41
75 56 43
76 57 42
79 58 46
80 59 47
82 61 48
74 55 44
74 55 45
79 58 50
75 56 44
78 58 45
79 58 47
74 55 42
72 53 43
75 55 45
78 58 45
75 56 42
71 53 41
77 57 46
70 53 39
75 56 43
76 56 46
81 58 53
78 58 47
73 54 43
73 55 41
78 58 46
80 59 48
73 55 42
79 58 47
79 57 49
72 52 44
75 54 48
73 54 43
78 58 46
80 60 46
80 59 48
79 59 46
83 60 53
78 57 47
73 54 42
79 58 47
76 56 45
70 52 40
78 57 48
76 56 46
84 60 54
83 61 49
79 58 48
74 55 43
74 54 44
82 60 51
80 58 49
80 59 49
79 58 48
77 57 44
80 59 49
75 55 44
76 57 44
76 56 45
80 59 49
77 57 45
78 58 45
82 59 51
82 60 51
77 57 45
76 57 45
79 58 47
77 56 47
80 59 48
73 55 40
80 59 49
78 58 48
82 60 50
83 61 52
78 57 48
81 60 48
79 58 47
80 60 46
75 56 45
78 58 47
79 58 49
71 54 38
75 56 45
77 57 47
78 58 47
80 58 49
80 59 48
78 57 50
77 58 43
78 57 46
76 56 44
76 56 45
80 59 46
74 55 43
75 56 45
77 57 45
71 53 41
77 58 44
74 55 43
75 55 45
74 55 43
75 55 46
73 54 43
77 57 47
70 52 39
76 56 46
95 74 45
121 97 50
120 94 56
121 97 51
121 95 54
117 90 59
121 95 55
118 93 55
123 98 52
121 95 54
118 94 52
121 95 55
119 94 56
120 95 53
122 98 51
123 99 51
122 96 54
122 97 52
120 94 55
120 95 53
120 95 55
118 93 54
123 97 54
121 97 52
122 96 54
122 97 54
122 98 51
121 95 57
118 91 57
121 97 51
121 95 56
122 97 54
123 98 52
123 98 52
125 100 50
122 97 54
124 100 50
121 96 55
122 97 55
122 97 51
122 96 56
121 95 55
120 95 55
121 96 53
122 97 51
120 95 54
119 94 55
120 95 55
122 97 53
120 95 56
123 97 53
120 94 55
121 96 54
123 99 51
120 94 56
123 97 54
121 96 55
124 98 53
121 97 51
122 96 54
121 96 55
123 98 53
120 94 56
121 95 54
120 94 56
119 93 59
123 97 54
120 94 56
120 94 57
122 97 54
122 97 55
120 93 58
121 96 53
120 94 57
121 95 56
124 99 53
120 95 55
121 95 55
123 97 54
121 95 54
121 95 56
124 99 52
123 98 54
121 96 54
123 97 53
121 96 54
122 98 52
123 98 53
124 99 53
124 99 53
121 95 56
121 94 57
123 98 54
121 97 52
123 98 52
123 98 54
124 99 51
123 99 51
119 91 60
123 98 53
121 95 55
121 95 54
123 98 52
121 96 55
124 100 52
122 96 54
122 96 55
123 98 53
122 96 55
123 98 52
122 97 54
122 97 55
123 98 53
122 97 55
124 99 52
123 97 54
123 97 54
123 97 54
121 95 56
122 97 55
121 95 56
124 99 52
120 93 58
123 98 53
123 97 54
122 96 55
121 95 55
122 97 55
122 97 55
121 96 53
123 98 52
122 96 55
123 98 53
124 99 52
125 101 51
124 99 52
119 92 58
123 98 53
123 98 53
122 97 55
122 96 55
122 97 54
120 94 58
122 96 55
124 99 53
120 94 57
121 95 56
121 95 56
121 95 56
121 95 56
121 94 57
122 96 55
123 97 54
124 99 52
123 98 54
122 97 54
122 97 54
126 102 49
120 94 56
121 95 56
122 96 55
122 97 54
124 100 50
121 95 55
123 98 53
124 100 51
122 96 55
121 96 54
121 96 55
121 94 57
121 95 56
123 98 53
122 96 54
124 99 53
122 97 53
123 97 54
123 98 52
121 95 56
123 99 52
122 96 56
119 93 58
120 94 56
124 99 52
122 96 55
122 97 53
124 99 52
124 100 51
124 99 53
123 98 54
123 97 54
123 98 54
122 97 54
122 97 55
122 96 55
123 98 53
120 94 57
124 100 52
122 97 53
120 93 57
122 97 55
122 96 55
123 97 53
120 93 58
121 95 56
122 97 53
123 97 54
121 95 55
120 94 56
120 94 56
122 96 55
121 95 56
123 98 53
122 96 56
123 98 52
123 97 54
121 96 54
124 100 52
123 98 52
123 97 54
123 99 52
123 98 54
121 95 55
122 96 56
121 96 52
120 94 56
122 96 55
122 98 51
123 98 53
120 95 53
122 97 53
121 95 56
122 96 54
122 96 56
123 98 54
124 99 53
120 95 55
121 97 51
119 93 55
120 94 55
123 98 54
124 99 52
119 93 58
122 96 54
124 99 52
119 94 55
122 97 55
123 98 53
120 95 54
122 98 51
121 95 56
121 96 54
121 95 55
121 96 55
121 95 54
121 95 57
120 95 53
120 93 57
119 94 53
122 98 52
122 97 53
116 91 55
119 92 59
120 95 53
120 96 51
120 95 53
122 98 50
123 97 53
124 99 52
123 99 51
120 95 54
122 98 51
120 94 55
121 96 53
119 94 54
118 93 52
123 98 54
119 94 53
119 95 52
123 99 52
119 94 54
118 93 53
122 97 53
118 93 52
115 90 54
124 99 53
112 88 50
81 60 48
72 53 43
69 51 41
76 57 44
74 55 42
75 55 46
71 52 43
70 52 41
74 55 43
75 55 45
83 61 50
73 55 42
73 54 43
74 54 44
82 60 50
74 55 45
75 54 46
78 59 45
76 56 46
77 56 47
80 59 48
77 56 46
77 57 45
78 57 46
77 56 48
82 60 50
73 55 41
79 58 47
76 56 46
79 58 47
78 57 48
77 56 49
82 60 51
83 61 51
78 57 46
76 56 45
83 61 51
81 61 46
76 56 46
79 58 48
78 58 47
76 56 47
77 57 44
80 59 48
77 57 48
74 55 43
78 57 48
81 59 50
76 57 44
76 56 46
77 57 47
75 56 42
80 59 48
76 57 42
78 58 47
79 58 47
77 56 47
72 54 41
79 59 48
76 57 44
76 56 46
77 56 49
75 55 45
79 58 48
78 58 46
73 55 42
78 58 46
77 57 46
77 56 47
85 62 53
77 58 45
75 55 44
79 58 49
73 54 45
76 57 45
78 58 43
81 59 51
77 57 44
78 57 48
74 54 46
76 56 44
74 54 44
78 57 47
78 58 46
73 54 42
80 59 47
76 57 42
78 58 47
77 56 48
71 53 39
75 56 44
75 55 46
77 56 48
78 58 46
74 54 46
75 56 42
76 56 45
72 54 41
78 59 45
77 57 45
73 54 42
72 54 42
75 56 42
70 52 41
82 60 51
76 56 44
78 58 46
76 56 47
73 54 43
72 54 41
78 58 45
75 56 43
75 56 43
76 58 40
110 87 49
123 98 53
117 93 51
121 96 53
123 97 54
117 92 53
123 98 52
117 93 52
119 94 53
124 99 50
119 95 53
121 95 56
122 97 54
119 93 55
120 96 51
120 94 55
121 96 54
118 94 51
121 94 57
120 96 51
119 94 53
121 98 50
123 98 52
122 97 53
121 94 57
118 92 58
121 96 53
119 94 54
125 101 50
121 96 53
122 97 53
121 96 53
120 94 56
121 96 54
122 97 52
121 95 54
120 95 54
118 92 56
122 97 54
121 96 53
121 95 56
120 95 55
121 96 55
122 96 55
121 94 57
122 97 53
123 97 54
122 97 54
119 94 52
121 96 52
121 96 55
120 94 56
122 96 55
123 99 51
121 95 56
123 98 53
119 93 54
121 96 54
124 99 53
123 97 54
122 97 55
123 98 53
124 100 50
122 96 55
121 96 55
121 96 55
122 97 54
122 97 54
120 93 59
122 96 55
124 99 52
124 100 52
121 96 54
120 94 56
121 94 57
121 96 55
121 96 53
123 98 53
123 98 53
121 95 57
123 98 52
124 98 53
121 94 57
124 99 53
121 97 52
123 97 54
121 95 56
122 96 54
123 98 52
124 99 53
125 100 51
123 97 54
123 98 54
121 94 57
121 95 57
121 96 54
124 99 53
120 95 56
122 97 55
122 97 54
122 96 56
121 95 55
122 97 54
124 100 52
123 97 54
121 96 55
121 95 56
120 95 56
120 93 58
124 99 52
120 94 57
123 98 53
124 99 52
125 101 49
122 96 55
120 93 58
123 98 53
122 97 55
122 97 55
123 97 54
122 96 55
120 93 58
121 95 54
122 97 54
120 94 58
121 94 57
122 97 55
122 97 54
123 98 53
124 99 52
123 98 53
123 97 54
122 96 56
122 97 55
122 97 53
122 96 55
123 98 54
123 97 54
120 94 58
123 98 54
120 95 55
125 100 51
121 95 56
121 95 55
125 101 50
120 94 58
123 98 53
120 94 56
122 97 54
120 93 57
122 97 54
123 98 54
121 95 57
121 95 56
123 98 54
121 95 56
122 97 53
122 96 56
122 97 55
124 99 53
121 95 56
124 99 52
121 95 56
123 97 53
122 96 55
123 97 54
123 98 52
121 95 56
123 97 54
121 96 53
121 95 55
123 97 54
122 96 55
121 94 57
122 96 54
121 96 54
122 97 55
122 97 55
122 97 55
123 98 53
121 95 55
121 96 55
124 99 52
121 95 55
123 98 53
123 98 53
123 98 53
124 100 50
122 96 55
123 98 53
123 97 54
122 96 56
122 96 54
123 98 52
120 94 55
123 100 50
122 96 55
123 97 54
123 98 53
123 98 53
124 100 52
122 96 55
122 97 55
120 94 55
123 98 53
122 97 55
120 94 56
123 97 54
123 98 53
120 93 58
121 95 55
123 97 53
122 97 55
121 96 54
125 100 51
121 96 55
122 97 55
120 95 54
122 96 56
124 100 51
122 98 52
121 97 52
123 98 52
121 96 53
124 99 51
121 95 57
123 97 54
123 98 53
121 95 55
122 97 53
124 99 52
121 95 54
121 95 56
122 96 55
123 98 54
122 97 54
120 94 55
123 98 53
122 97 54
123 98 52
120 94 57
121 96 52
122 97 53
121 96 53
120 95 53
120 95 55
120 95 54
122 96 54
118 93 54
120 94 55
122 97 54
122 97 55
121 96 53
119 93 55
121 96 53
122 98 51
122 98 52
120 95 54
123 98 53
122 97 55
120 95 52
123 98 52
120 96 51
119 93 55
120 94 55
119 94 54
122 96 55
123 98 52
121 97 50
119 94 54
116 91 53
121 96 55
121 96 55
119 95 50
119 93 56
119 95 52
120 96 50
124 100 49
121 97 52
115 90 53
119 95 51
119 95 52
120 96 49
118 93 56
113 89 51
117 93 52
92 71 45
76 55 51
77 57 47
71 52 44
75 55 46
74 55 43
71 53 39
78 57 47
74 54 45
80 60 44
75 56 45
76 56 46
77 57 44
81 60 48
75 54 47
75 56 44
72 53 42
77 57 46
74 57 38
74 55 43
74 54 46
78 57 50
74 55 41
78 57 47
76 56 46
71 53 43
76 56 45
76 57 44
73 54 42
81 61 45
77 58 43
76 56 45
73 55 42
76 56 46
79 58 47
78 58 46
75 54 48
76 57 43
76 56 47
77 57 44
79 58 47
74 55 43
77 56 47
81 59 50
81 60 48
75 56 43
71 53 42
75 56 41
74 56 40
79 59 45
78 58 45
76 56 46
74 55 43
71 52 43
78 58 47
80 59 48
76 56 46
82 60 50
74 54 47
79 58 48
77 56 48
78 58 46
75 56 45
75 56 43
79 59 45
71 52 42
75 55 46
75 56 44
75 56 44
83 61 50
76 56 46
77 57 45
73 54 42
75 56 44
75 55 47
82 60 51
74 54 45
76 57 45
75 55 45
75 56 44
76 58 40
76 56 46
72 53 43
78 57 46
73 54 44
80 58 50
71 52 42
76 56 45
77 57 47
77 57 47
76 55 48
79 58 48
77 57 46
73 53 45
74 55 43
77 55 49
76 56 46
74 55 42
77 57 45
75 56 44
77 57 45
81 60 48
79 58 47
71 53 39
76 55 47
74 55 44
80 58 50
79 58 48
74 54 46
72 53 43
73 54 44
76 55 48
68 51 40
101 78 49
118 93 54
118 93 54
120 96 50
118 94 50
121 96 52
117 92 53
121 96 53
116 92 53
121 96 52
120 96 51
118 94 51
118 92 56
114 89 56
117 92 52
121 97 51
117 92 53
123 98 53
121 96 52
119 92 58
121 95 55
118 94 50
121 96 53
120 95 52
120 95 55
119 93 56
122 97 53
119 93 56
118 93 56
120 94 54
118 92 57
118 93 55
125 100 51
121 97 51
118 94 53
122 96 54
119 94 53
119 93 56
118 93 55
118 93 54
118 93 55
120 95 53
123 98 52
119 93 56
121 96 54
123 97 54
120 95 54
121 95 55
122 96 55
123 97 54
120 96 53
122 96 54
120 94 56
119 94 55
121 95 55
120 94 55
123 98 52
122 96 55
120 95 56
124 99 52
122 97 54
123 98 54
122 96 55
122 97 53
120 94 57
123 98 54
122 97 55
122 96 55
119 93 56
120 94 57
120 94 56
122 97 54
121 96 55
121 95 54
121 95 56
123 97 54
121 96 54
123 98 53
122 97 54
123 97 53
121 94 57
120 94 57
122 97 55
122 97 55
120 95 53
121 94 57
123 98 53
123 99 52
121 95 55
124 100 52
123 97 54
123 98 54
122 97 53
125 100 51
122 97 55
121 95 55
121 95 54
124 99 52
121 95 56
123 98 52
123 99 52
124 100 51
121 96 54
122 97 54
121 95 56
122 97 53
123 97 54
123 97 53
124 98 53
121 95 56
122 97 54
123 97 54
121 95 56
121 96 54
122 96 56
119 93 59
123 97 53
120 94 54
123 98 53
120 94 56
122 97 55
121 95 56
122 96 56
124 99 52
123 98 52
122 96 55
120 94 56
123 97 54
122 96 56
124 99 53
123 97 54
123 98 53
122 96 55
124 99 52
122 97 55
122 97 54
123 97 53
121 95 54
122 96 55
121 95 57
122 96 55
121 94 57
121 95 56
122 96 55
122 96 56
122 96 55
123 97 54
124 99 52
122 97 54
122 96 54
123 97 54
124 99 52
121 94 57
119 92 60
124 99 52
123 97 54
122 97 55
123 97 54
121 95 56
120 93 58
123 97 54
125 100 51
120 95 54
123 98 53
122 97 55
123 97 54
122 97 54
121 95 57
120 94 56
122 97 55
123 98 53
120 94 57
122 97 55
122 96 56
121 95 55
123 97 54
122 96 55
120 93 58
124 99 52
122 96 56
123 98 52
123 98 53
121 95 56
121 95 55
122 96 55
122 97 53
123 98 54
123 97 54
124 99 53
121 95 56
123 98 53
121 94 57
122 96 55
125 100 51
123 98 53
122 97 53
123 98 52
121 95 57
122 96 55
123 98 51
122 98 51
119 93 57
123 98 53
122 96 54
123 98 53
123 97 54
124 98 53
121 96 54
123 98 53
122 97 55
121 96 54
117 91 56
119 92 59
121 96 55
120 95 55
123 98 53
123 98 53
122 97 52
122 97 52
120 94 57
122 96 55
122 97 53
120 94 57
123 99 50
123 99 52
120 94 56
122 96 56
121 96 55
124 99 51
121 95 55
123 97 53
122 96 53
123 99 51
123 98 52
123 98 53
123 98 53
120 94 55
122 97 54
122 97 53
119 93 56
121 96 54
122 96 55
118 93 52
120 95 53
120 94 56
118 93 55
119 93 56
119 93 54
122 98 51
116 92 53
122 96 54
123 98 51
120 94 55
120 94 56
123 99 49
119 93 55
123 98 54
120 94 55
121 97 50
121 96 52
124 99 52
120 94 56
120 95 53
121 96 53
123 98 52
118 92 56
123 98 51
123 99 50
119 94 53
116 92 51
123 98 52
119 94 56
121 97 52
120 95 52
119 93 54
119 95 51
118 94 50
121 97 52
121 97 51
120 95 54
116 92 50
120 95 52
118 94 50
118 92 56
116 91 54
114 89 53
115 91 52
116 92 51
79 60 44
78 55 53
74 55 43
69 51 40
70 51 42
75 55 46
73 54 44
79 57 50
79 59 46
78 57 48
71 52 42
75 56 42
76 56 45
75 55 46
76 56 45
74 55 45
78 58 46
69 51 42
76 56 44
78 58 47
79 58 49
70 52 42
74 54 45
80 58 49
73 54 44
81 60 49
76 57 43
79 59 47
72 54 42
76 57 44
74 55 44
74 55 43
78 57 47
72 54 40
74 55 43
71 53 40
85 62 52
79 58 48
77 56 47
76 57 43
75 56 44
76 57 44
81 59 51
72 53 44
76 55 48
74 56 43
77 57 46
74 55 44
83 61 51
74 55 44
76 56 44
76 55 48
74 54 45
71 53 41
77 56 47
74 54 46
77 56 48
78 58 45
76 56 46
74 55 44
72 55 38
74 54 46
75 56 45
80 59 47
73 54 44
76 56 47
77 57 44
77 57 46
74 55 43
74 55 42
79 58 48
78 58 46
76 56 46
77 56 49
72 54 42
76 56 47
73 54 41
77 57 45
74 55 45
78 57 48
78 57 48
75 55 46
79 59 46
76 56 46
78 57 50
81 59 51
77 57 46
78 58 44
79 59 46
74 55 44
74 55 43
76 56 45
82 60 50
80 59 49
74 55 43
75 56 44
75 55 45
79 59 47
76 57 43
73 55 40
70 52 39
74 55 43
76 56 46
73 54 43
71 53 40
74 54 45
74 54 45
73 54 45
70 53 39
77 57 46
73 54 44
75 57 42
119 94 52
119 94 54
115 91 50
116 92 52
119 96 50
118 93 52
115 91 52
122 97 51
119 94 54
117 93 52
121 97 50
122 97 51
119 93 54
119 93 55
119 94 52
121 96 53
117 92 55
119 95 50
118 92 57
123 98 52
120 96 51
120 95 54
121 96 53
122 98 52
121 95 56
119 93 58
121 96 53
121 97 50
121 97 50
120 95 53
119 95 52
122 97 52
121 95 55
118 93 55
122 98 52
117 93 52
121 96 52
119 95 52
120 94 56
124 100 49
119 92 58
119 94 53
123 99 51
120 95 53
120 94 56
121 96 53
122 98 52
121 95 56
121 95 56
119 93 56
123 97 54
120 94 57
119 93 55
122 96 55
125 101 50
122 97 53
123 99 48
121 96 53
124 100 52
122 97 53
121 95 57
117 91 56
120 95 54
120 95 55
119 94 54
123 98 53
121 96 55
122 98 50
123 98 52
123 97 54
121 96 54
120 94 56
119 93 55
123 98 53
124 99 52
122 96 54
122 97 54
122 96 56
121 96 54
123 98 53
123 98 52
120 94 56
124 99 53
122 97 53
119 94 56
121 94 56
123 98 52
121 95 56
125 100 51
120 93 58
124 99 52
124 99 52
122 97 53
120 94 56
122 96 54
125 100 51
123 98 53
121 95 56
122 97 55
120 94 57
121 95 56
124 99 53
123 99 51
122 98 51
122 97 54
123 97 54
124 99 52
122 96 54
123 98 54
121 95 56
124 99 52
123 97 54
122 96 55
125 100 51
123 97 54
122 96 55
122 97 55
120 95 54
122 96 54
122 97 54
123 97 54
122 96 55
121 94 57
124 100 52
121 96 55
124 100 51
123 98 53
122 96 55
119 93 58
122 96 55
121 95 56
122 96 56
121 95 56
125 100 51
121 94 57
122 96 55
121 95 56
122 96 54
123 98 53
121 95 55
124 99 52
122 97 55
122 96 55
122 96 55
123 98 54
123 97 54
121 95 56
123 97 54
120 94 56
120 94 56
120 93 57
120 94 57
121 96 54
123 97 54
122 98 52
122 96 55
123 97 54
123 97 54
123 98 53
121 96 54
126 102 49
124 99 52
123 98 53
124 99 52
122 96 55
121 94 57
123 98 53
124 100 51
122 96 56
122 96 54
124 99 52
122 97 55
123 97 54
122 96 55
122 96 55
121 95 57
122 96 55
122 97 53
123 98 52
121 94 57
122 96 55
122 97 53
123 98 52
122 97 53
121 96 55
123 97 54
120 94 56
121 95 56
122 97 54
124 99 52
122 96 56
122 97 54
122 96 55
121 95 54
121 96 54
121 96 53
122 96 55
120 94 55
123 98 53
121 96 54
121 96 55
120 94 57
122 96 54
119 93 56
122 97 55
122 96 56
122 96 55
123 98 53
125 101 50
122 97 54
124 99 51
123 98 54
122 97 54
122 96 55
119 93 55
122 97 53
122 97 54
123 98 51
124 99 52
120 95 53
123 99 52
121 95 56
122 97 53
121 95 56
119 93 56
121 96 53
124 99 52
118 93 55
122 97 54
122 97 53
124 98 53
122 97 53
119 94 53
120 96 53
123 98 53
123 99 51
120 97 49
119 94 55
122 97 53
122 97 53
120 94 55
122 96 54
121 95 56
123 98 54
122 98 51
121 96 53
122 97 52
120 95 53
121 97 52
117 92 54
121 96 52
120 94 56
122 97 52
119 95 51
120 94 55
118 93 53
119 94 55
123 98 52
120 94 55
122 96 53
122 99 49
117 94 49
116 92 53
120 95 54
115 89 57
122 97 50
120 94 57
118 93 53
119 95 49
117 91 55
121 96 53
118 94 52
116 90 55
116 90 55
119 96 47
120 96 51
119 94 52
118 92 56
119 93 55
118 93 53
117 93 51
119 96 49
113 89 53
122 97 54
120 95 53
118 94 50
120 96 50
117 93 52
99 76 49
71 53 40
70 52 42
72 54 41
71 52 42
68 52 37
73 54 43
73 54 42
71 53 41
74 55 44
74 55 43
75 56 45
79 59 47
71 53 39
76 57 44
75 54 47
71 53 41
80 59 50
81 58 52
75 55 46
77 56 48
77 56 47
77 57 45
75 55 45
76 55 49
75 55 46
72 53 43
74 55 42
76 55 47
74 55 44
79 58 49
79 59 46
79 58 49
74 55 45
73 54 43
76 56 45
74 55 43
79 58 49
77 56 47
77 57 46
77 58 44
78 57 46
78 57 47
75 56 42
79 58 49
79 58 47
79 58 49
71 52 43
81 59 49
76 56 45
79 58 47
79 58 50
75 55 45
76 57 45
73 54 44
73 54 42
78 58 46
78 58 46
77 57 45
80 58 50
75 56 43
77 57 47
77 57 46
81 60 49
75 56 43
76 56 46
74 54 43
77 57 45
82 60 50
76 57 44
77 57 46
79 58 48
72 53 44
74 55 43
78 58 47
72 54 41
81 59 51
73 55 41
73 54 43
76 57 44
70 53 38
71 52 41
76 57 43
73 54 44
78 58 46
72 53 42
78 57 48
80 59 50
77 56 47
79 58 47
69 52 38
76 55 46
74 54 47
76 56 46
75 56 43
77 57 45
74 55 44
74 55 43
76 56 45
79 57 49
71 52 42
76 56 45
75 55 46
74 54 46
74 54 44
75 56 43
68 51 40
72 53 42
67 50 39
76 55 47
71 53 41
103 82 45
117 93 51
119 95 49
119 96 50
116 92 50
119 95 52
118 93 53
121 96 52
122 97 51
118 93 55
118 94 52
117 92 55
118 94 52
120 95 52
118 93 54
122 97 53
118 92 55
122 97 52
122 97 52
116 92 52
119 94 53
119 95 50
120 96 50
118 92 57
119 94 53
117 93 52
121 97 50
121 97 51
118 94 51
121 96 55
117 91 57
120 94 53
121 95 56
121 95 55
121 96 52
120 95 54
124 99 51
120 95 53
122 97 52
123 98 52
122 96 54
122 97 51
123 97 53
122 97 51
120 95 53
120 94 56
116 91 54
121 96 53
122 98 50
122 97 54
122 97 54
120 95 54
122 98 51
119 94 55
123 97 54
120 94 57
121 95 56
124 99 53
122 96 56
120 95 54
121 95 56
122 98 52
123 97 54
121 95 57
119 93 58
120 95 54
120 95 53
120 94 57
119 94 56
118 92 56
122 96 56
121 95 55
120 94 57
121 95 55
122 96 55
123 97 54
122 97 54
124 99 52
121 96 54
119 93 56
120 94 56
122 97 52
118 91 58
118 91 60
118 92 57
121 96 55
123 98 52
122 96 55
123 97 54
120 93 57
121 95 55
118 92 57
123 98 53
123 98 54
120 93 59
122 96 56
121 96 54
120 94 56
121 96 54
121 96 54
123 97 54
122 96 54
124 99 52
123 98 53
119 92 59
123 99 51
121 94 57
121 96 54
123 98 53
122 96 56
123 98 53
123 97 54
122 97 53
123 98 52
125 100 51
121 95 55
120 93 58
122 97 54
122 96 54
122 96 55
124 100 52
124 99 51
124 99 53
124 99 53
121 95 56
126 102 49
124 99 52
122 96 55
121 95 55
122 96 54
122 96 55
121 95 56
120 94 56
123 98 53
123 97 54
121 95 56
123 97 54
124 99 52
121 96 55
122 96 56
123 98 53
122 96 55
124 99 53
122 96 55
121 95 56
121 95 54
123 99 51
123 97 53
121 95 57
122 97 55
122 96 55
121 95 55
124 100 50
122 96 55
125 100 51
122 97 55
121 95 55
124 99 52
120 93 59
121 94 57
123 97 54
122 96 55
123 98 54
122 97 52
123 98 53
123 98 54
120 94 55
121 95 56
121 96 54
121 95 55
121 95 56
119 93 58
120 95 54
121 95 55
123 98 53
121 95 56
123 97 54
122 97 52
123 97 54
124 99 53
121 95 56
122 97 54
122 97 52
122 97 53
121 94 57
120 94 56
121 94 57
121 95 56
119 93 55
121 95 55
121 95 54
124 99 51
120 94 55
120 94 58
120 93 58
121 94 57
124 99 51
122 96 55
119 93 58
121 96 55
122 96 55
119 93 57
122 97 53
123 98 53
122 97 54
123 98 54
119 94 55
121 95 56
122 96 55
124 100 51
122 97 54
122 96 56
122 97 55
124 99 52
120 93 59
122 96 55
123 97 54
118 93 55
123 98 53
119 92 58
121 95 56
121 95 54
122 97 53
122 96 55
124 99 53
122 97 54
126 102 49
116 90 55
120 95 54
120 94 55
120 95 54
122 97 55
121 95 55
120 95 54
119 95 52
123 97 54
121 95 56
122 98 51
123 98 52
123 98 53
119 93 54
121 96 53
121 97 51
120 95 55
120 96 52
120 95 52
120 93 57
119 94 53
119 94 51
119 93 56
121 96 53
123 99 50
121 95 54
123 98 52
118 93 53
123 99 52
123 98 52
117 91 55
121 96 53
120 95 53
120 95 54
120 96 52
121 96 54
120 94 55
121 96 53
123 99 51
117 93 52
118 93 55
121 96 53
118 94 53
123 99 51
118 92 55
118 93 53
116 92 52
118 93 53
120 95 52
121 97 51
117 94 50
116 92 52
117 93 51
116 92 53
117 92 53
114 90 51
112 89 50
122 97 52
117 91 55
118 94 51
118 95 49
111 87 53
116 92 51
88 67 45
68 50 41
71 52 44
73 54 44
70 52 40
77 56 48
76 55 47
76 56 46
71 53 41
72 53 44
76 56 48
72 54 43
75 55 46
73 54 43
76 57 45
70 52 41
74 55 43
73 54 42
75 55 45
76 56 46
73 54 45
75 56 44
80 59 49
73 54 44
72 52 44
72 54 41
79 58 50
74 56 42
71 53 41
69 51 41
78 57 47
79 58 50
73 54 43
71 54 38
77 55 49
75 56 43
74 55 44
75 55 45
79 58 49
77 57 46
76 56 46
73 54 44
76 56 46
76 56 47
71 53 41
69 52 38
75 56 43
80 58 50
71 53 41
75 55 46
75 55 46
77 56 47
79 59 46
76 56 45
77 56 48
75 55 44
78 57 48
79 58 48
74 55 42
78 57 47
78 58 46
78 58 46
73 55 41
78 56 52
75 55 45
82 60 50
78 57 49
77 58 43
76 56 45
76 55 46
76 56 45
76 56 44
77 57 45
70 52 41
66 50 35
77 55 49
72 53 43
72 55 39
78 58 46
71 53 41
80 60 48
73 54 42
79 58 47
83 60 53
73 54 43
81 59 51
78 57 49
71 53 41
73 54 43
73 53 46
73 54 44
73 54 42
72 53 42
76 56 44
71 53 41
76 57 45
75 55 44
69 51 40
69 52 39
71 52 44
74 54 44
77 57 45
74 55 44
68 50 41
74 55 44
75 55 46
78 57 49
75 56 42
72 54 43
87 66 46
117 93 50
119 95 49
118 96 46
116 92 52
116 91 55
119 96 49
113 89 51
120 97 47
116 91 54
119 94 52
118 94 50
119 96 50
116 91 53
118 93 53
120 96 51
116 91 53
119 94 53
119 95 53
116 92 51
119 94 52
115 90 53
114 89 54
117 94 49
120 96 50
122 97 54
122 97 54
118 94 51
120 95 53
120 94 55
119 95 49
123 99 50
122 97 54
121 96 53
123 98 52
119 95 49
122 97 52
121 96 54
121 96 52
120 95 54
119 93 56
117 92 52
120 95 53
119 93 55
121 96 55
122 97 52
121 95 54
123 99 52
120 94 56
123 97 54
122 97 53
122 98 51
117 92 55
122 96 54
121 95 55
120 95 52
123 98 53
120 94 57
121 95 55
121 95 55
123 100 49
120 95 52
116 90 56
118 92 57
125 100 51
123 98 53
122 96 56
121 96 55
122 96 55
125 100 51
122 97 54
121 95 55
123 98 52
121 95 55
121 94 57
120 95 54
122 97 55
122 98 51
125 102 49
121 95 55
122 96 54
123 98 54
125 100 51
122 97 53
122 97 53
123 99 50
120 95 55
121 95 54
123 97 54
122 96 54
124 99 52
122 97 53
122 97 54
122 96 55
121 95 57
122 96 56
123 99 52
123 98 53
122 97 53
124 99 53
120 94 58
123 97 54
122 97 53
123 98 53
123 98 53
123 98 53
122 96 56
118 92 56
123 98 53
119 93 56
125 100 51
121 95 56
121 94 57
122 97 54
124 99 53
122 96 55
126 102 49
124 99 53
122 96 56
121 95 56
121 95 56
122 97 53
121 95 55
119 92 59
122 97 55
123 97 54
124 99 51
123 98 53
123 97 54
122 97 53
121 95 55
119 92 59
123 98 53
122 96 54
123 98 54
125 100 51
123 97 54
122 96 56
122 96 55
121 95 56
123 98 54
122 96 55
123 98 54
123 97 54
123 98 53
122 97 54
123 98 53
119 93 58
121 95 56
122 96 54
122 97 53
121 95 56
125 100 51
122 97 54
124 99 52
121 95 56
122 96 55
121 96 54
121 96 53
124 99 51
121 96 53
120 94 56
122 96 55
122 96 56
123 98 53
122 97 55
125 101 50
122 97 54
121 95 57
122 97 54
121 96 55
121 96 55
125 101 50
123 97 53
120 95 55
123 98 54
121 96 54
124 100 51
122 97 55
122 98 53
122 96 54
123 97 54
121 95 55
122 96 55
120 94 56
122 97 53
124 99 53
121 96 52
119 92 59
123 98 53
122 96 54
124 99 51
121 94 57
123 99 52
124 99 53
120 93 58
122 96 54
121 95 54
122 98 51
121 95 56
119 93 57
122 97 52
122 97 54
120 95 56
122 97 53
122 97 52
123 98 52
122 97 52
124 99 52
122 97 53
120 95 54
123 98 52
123 97 54
121 96 54
124 99 53
122 96 56
120 95 54
123 97 53
121 95 55
122 96 56
123 98 52
125 101 51
121 95 54
123 98 53
122 96 55
121 96 53
121 95 54
122 97 55
121 96 55
122 97 52
120 96 52
119 93 55
120 94 54
122 97 53
121 96 55
119 93 56
119 95 50
117 92 55
119 94 53
118 93 55
121 95 55
122 98 51
122 96 54
122 97 54
119 95 51
121 95 56
121 96 55
118 93 55
119 92 58
118 94 51
119 95 52
122 98 51
121 96 53
120 95 55
123 99 51
121 95 54
119 94 53
123 98 51
119 92 58
123 99 50
118 95 49
121 96 52
119 93 55
120 94 53
117 94 48
121 96 53
120 95 54
119 93 55
119 94 55
120 94 56
116 91 52
119 95 53
118 93 54
115 91 52
117 92 55
120 96 53
115 91 51
117 94 49
115 91 51
115 89 54
116 92 50
113 88 55
116 92 53
114 90 52
109 85 54
116 92 50
117 93 50
111 87 50
116 92 50
117 92 54
113 88 53
106 84 48
72 54 40
69 51 41
68 49 42
72 53 43
72 53 43
68 51 40
75 56 42
71 52 41
74 54 44
71 52 44
74 55 42
70 51 43
77 56 47
76 56 45
77 57 47
74 54 46
72 53 43
77 56 47
72 53 43
81 60 49
76 57 43
71 52 45
78 58 47
72 54 40
70 52 42
78 58 47
70 52 41
74 55 42
77 57 44
75 55 47
70 52 40
74 54 45
80 59 50
78 57 50
77 58 43
70 52 42
80 59 48
72 54 43
74 55 42
76 56 46
77 57 46
71 53 41
71 53 42
72 53 43
77 57 43
71 53 41
77 56 47
71 53 42
72 54 41
80 59 47
75 56 42
76 56 46
74 55 44
73 54 43
80 60 46
74 55 44
76 56 47
76 56 45
70 52 40
75 57 42
71 52 43
75 55 46
71 54 38
73 53 46
77 57 45
71 53 39
74 55 44
79 58 48
74 54 46
71 53 41
81 60 47
74 55 43
71 53 41
71 53 39
66 49 37
77 56 48
75 55 45
79 58 48
72 53 42
77 57 46
75 55 46
76 56 46
78 57 48
77 56 47
76 56 47
77 56 48
71 53 42
74 55 44
73 53 46
76 56 46
73 53 46
72 53 43
77 56 46
75 56 41
73 55 42
75 56 45
78 57 47
69 52 37
68 51 39
75 56 43
72 53 43
73 54 45
74 54 45
72 53 45
70 52 40
69 51 42
68 50 41
77 58 43
112 88 51
113 89 52
119 95 49
117 94 49
114 90 50
119 96 49
120 96 50
118 93 54
116 92 51
117 93 51
116 91 54
115 92 49
117 93 52
119 95 53
117 94 48
116 91 55
121 96 53
120 94 55
120 96 52
120 95 53
121 96 53
121 96 53
116 92 51
115 90 53
120 96 49
116 93 49
119 94 53
121 96 53
122 97 53
119 94 52
122 98 51
120 95 54
119 95 50
120 95 54
118 95 50
124 99 51
120 95 53
121 95 55
119 94 55
120 95 54
122 97 54
120 95 54
121 94 57
116 91 56
121 96 54
122 97 53
121 96 53
123 98 53
120 95 53
117 92 54
117 92 56
121 96 53
123 99 51
125 100 51
121 96 55
124 99 51
121 96 53
121 95 55
122 97 53
121 96 53
123 98 54
119 94 53
124 99 52
123 98 54
121 95 55
121 95 55
121 95 56
120 96 52
119 93 57
123 98 52
123 97 54
122 96 54
123 97 54
122 96 54
122 97 53
121 97 52
121 96 53
122 97 53
121 96 53
121 96 55
119 93 57
119 93 56
121 95 56
121 95 56
120 94 55
122 97 54
122 97 55
122 96 55
123 98 53
121 95 57
119 93 57
123 98 53
121 96 53
122 97 54
122 96 56
121 95 56
123 98 53
122 96 56
121 95 55
124 99 53
120 93 58
124 99 52
123 97 53
123 98 54
121 95 55
121 95 55
121 95 57
123 97 54
122 97 54
121 95 56
123 98 53
124 99 52
125 100 51
121 95 56
120 95 55
122 97 54
121 96 54
122 97 55
120 94 56
123 97 54
119 93 55
124 100 50
123 98 53
123 98 53
122 96 55
121 95 55
123 98 53
123 98 53
123 98 53
121 95 56
123 98 52
122 97 53
123 98 54
123 97 54
124 99 51
124 98 53
123 98 52
122 96 55
123 99 51
123 97 54
121 95 56
125 101 49
120 94 57
122 96 56
122 97 53
122 96 55
121 97 52
123 97 54
123 98 53
122 97 55
123 98 54
121 95 55
120 94 58
125 101 51
123 97 54
120 94 57
119 93 57
122 96 56
120 94 58
122 96 55
121 94 57
122 97 54
122 96 55
120 93 57
122 96 56
121 95 56
123 98 53
123 98 52
122 96 55
121 95 57
123 98 53
121 95 56
121 95 56
122 96 54
121 95 55
123 98 53
120 93 58
122 96 55
126 102 49
122 97 53
125 101 51
120 94 57
122 97 55
122 97 54
125 101 51
119 94 55
125 101 50
123 97 54
123 98 53
118 91 60
123 98 54
122 97 53
121 95 55
124 98 53
124 99 52
121 96 55
119 92 59
121 95 55
122 97 53
122 97 52
121 95 54
121 95 56
121 95 56
122 97 55
123 99 51
123 97 54
120 95 55
122 97 54
123 98 53
122 97 53
124 99 52
117 93 53
121 96 53
122 96 54
122 97 54
122 96 55
124 99 52
122 97 53
123 97 53
122 96 56
123 98 52
122 98 51
119 93 57
121 95 55
119 94 54
123 99 50
123 98 51
120 95 54
117 91 57
120 96 52
120 96 48
121 96 53
121 96 53
120 95 54
122 97 53
122 96 54
122 96 54
116 91 56
116 91 54
121 97 51
122 98 51
122 98 52
119 96 50
118 92 57
121 97 51
118 92 55
122 97 53
122 96 54
121 95 54
116 90 57
118 92 56
114 89 55
121 96 52
121 96 53
120 95 53
122 98 51
121 96 52
119 94 54
117 92 54
121 95 54
119 93 54
122 98 50
118 93 53
114 89 52
121 97 51
119 95 51
116 92 53
121 97 51
121 98 49
120 96 51
122 97 52
119 95 49
119 94 54
118 93 54
118 95 48
113 89 51
119 94 52
118 92 56
116 91 53
119 94 52
118 94 50
114 89 56
114 89 52
112 89 51
116 92 49
114 91 49
121 97 50
118 93 51
119 94 52
116 91 54
119 95 49
116 92 51
101 78 50
69 50 44
71 53 42
69 51 40
70 51 44
65 49 37
73 54 42
75 55 45
68 51 39
76 57 45
73 54 44
72 54 41
75 55 47
70 52 40
72 53 44
72 54 40
71 52 44
72 53 42
78 57 47
74 55 43
73 53 45
75 56 45
76 57 44
71 53 41
72 52 46
70 52 41
73 54 41
72 54 40
73 54 44
76 55 46
70 52 41
76 56 45
75 56 44
77 57 46
73 54 44
75 55 46
75 55 45
70 52 41
73 54 43
80 60 47
76 56 45
73 54 43
77 58 44
76 56 43
76 56 45
76 56 46
77 57 45
75 56 43
77 57 45
73 55 43
76 56 45
74 54 46
76 56 45
74 55 44
72 53 44
73 55 41
77 57 45
80 59 48
76 56 44
73 55 41
81 59 49
74 56 41
76 55 47
75 54 48
77 57 45
71 53 40
77 57 45
71 54 40
70 52 41
70 52 40
72 54 42
80 58 49
78 57 48
75 55 44
72 54 40
71 54 40
71 53 42
73 55 42
72 53 44
76 55 46
72 53 42
73 54 43
75 55 44
76 57 44
80 59 48
80 58 50
73 55 42
70 52 41
77 56 46
75 55 46
77 56 46
72 53 43
72 54 40
75 55 45
73 53 46
70 52 42
73 54 45
72 53 44
75 56 44
79 57 48
75 56 44
75 56 42
73 53 45
69 51 41
75 54 47
71 53 41
70 52 40
100 79 43
114 91 49
114 90 51
116 91 53
116 91 52
116 92 51
118 93 51
118 93 54
115 92 50
113 88 55
111 88 47
122 97 52
120 97 47
116 92 52
117 92 52
119 94 52
112 89 51
115 91 51
117 92 53
118 93 54
122 99 49
117 92 54
115 90 54
120 96 50
119 94 53
116 92 50
119 94 53
121 96 52
120 96 52
121 96 51
119 95 49
120 96 52
120 95 54
118 93 52
117 92 53
116 91 54
120 95 52
119 94 52
122 97 54
119 94 54
122 97 52
123 99 50
121 95 56
119 95 51
119 93 54
122 97 53
121 96 53
120 94 55
118 93 54
121 97 51
122 97 52
119 93 57
121 96 55
118 93 52
123 97 54
123 98 52
123 98 53
123 99 51
120 95 56
121 97 52
122 97 53
122 98 51
121 95 54
123 98 53
122 96 54
118 92 59
120 95 56
122 97 50
124 99 51
121 96 53
121 94 56
120 95 54
124 99 52
121 96 53
121 95 56
122 98 50
120 94 57
120 94 56
121 96 54
121 96 53
120 95 55
119 93 57
121 96 54
120 94 55
121 97 52
121 96 54
121 95 57
124 99 51
123 97 54
121 95 55
122 97 53
123 97 54
120 94 56
123 98 54
122 98 52
122 97 55
122 97 55
120 94 54
122 96 55
123 99 50
123 97 54
120 94 56
120 94 56
122 97 55
121 96 52
123 98 54
125 100 51
121 95 56
122 97 53
119 94 55
123 98 53
121 96 54
121 95 56
121 95 55
121 96 55
121 95 56
122 96 54
121 95 56
122 96 55
123 98 54
124 99 52
124 99 52
123 98 53
122 97 53
123 97 54
123 98 52
121 95 56
122 97 55
123 97 54
121 96 54
120 94 57
124 99 52
121 95 55
122 97 54
122 96 55
122 96 55
122 96 55
122 97 53
121 95 56
122 96 55
125 100 51
123 98 53
122 96 55
122 97 55
121 95 55
122 96 54
122 96 54
121 95 56
120 94 57
119 92 57
121 95 57
122 97 54
122 97 54
123 98 54
122 97 54
121 96 54
123 97 54
122 96 54
123 98 53
121 96 53
122 97 55
123 98 53
121 95 56
124 100 50
120 93 57
123 97 54
122 96 55
122 96 56
121 96 53
121 96 55
121 94 57
123 97 53
124 99 52
124 99 52
125 101 49
122 96 55
121 96 55
120 94 56
120 94 57
124 99 52
121 95 55
122 97 54
123 98 54
123 97 54
123 97 54
120 94 55
121 95 55
123 99 52
121 96 55
120 94 56
124 99 52
119 93 57
120 95 54
124 99 52
124 100 52
119 93 56
123 98 52
123 98 53
120 94 55
122 97 54
121 97 53
118 91 59
122 97 53
120 94 56
121 95 56
118 92 57
123 99 51
122 97 55
123 98 52
121 95 56
120 94 56
119 94 55
123 98 52
121 96 53
123 98 53
121 96 53
125 100 50
123 97 54
122 97 53
122 97 53
120 94 56
119 95 52
120 96 52
118 92 56
120 94 55
120 94 55
122 98 52
121 96 52
122 98 51
121 96 53
123 97 54
121 97 51
117 91 57
121 96 52
115 91 53
120 95 53
122 98 51
123 99 51
120 95 56
123 98 52
119 94 54
122 97 53
120 95 54
121 96 53
121 96 54
121 96 52
120 95 52
120 95 52
120 95 51
123 97 54
122 96 54
121 96 52
123 99 51
120 95 51
119 95 50
120 95 54
120 96 51
121 96 53
121 96 53
120 96 52
121 97 50
121 96 51
122 97 52
118 93 52
119 94 51
121 96 51
117 92 54
117 92 55
119 94 53
118 94 52
120 95 51
116 92 51
119 95 52
117 93 50
117 92 53
115 91 50
116 92 52
117 92 52
113 89 50
121 97 50
119 95 52
117 94 49
120 97 48
118 94 51
118 92 56
112 88 52
116 91 54
112 88 53
115 92 49
114 90 52
110 87 49
115 92 50
113 88 53
115 92 47
80 61 41
67 49 39
70 52 40
66 48 39
72 54 42
69 50 41
71 53 41
71 52 45
80 59 50
72 54 42
73 54 45
78 58 46
72 54 41
77 55 51
71 53 41
73 55 42
72 54 41
72 53 43
71 53 40
71 53 41
79 58 47
71 52 44
74 56 41
75 56 43
73 54 43
70 52 40
74 55 44
71 52 42
74 55 44
70 52 40
76 56 45
79 58 47
74 55 42
70 52 41
83 61 50
75 55 44
75 55 46
74 54 44
74 55 45
72 53 43
76 57 43
79 59 46
78 58 46
73 53 46
70 52 39
74 55 43
75 56 43
75 55 45
78 57 49
74 55 45
72 54 41
74 54 45
75 54 48
80 59 48
74 54 46
75 55 45
73 55 42
79 57 48
74 55 41
75 55 45
74 55 44
66 49 40
70 52 41
73 54 44
77 58 42
74 54 44
72 52 44
72 53 42
74 55 44
77 55 50
77 56 48
74 55 41
69 51 42
75 55 47
69 51 40
72 53 42
79 58 47
76 55 46
70 50 45
76 55 46
75 55 46
77 57 46
76 56 46
79 58 47
74 55 42
69 52 40
73 55 42
75 55 44
71 53 40
73 54 45
72 53 44
77 57 46
76 55 47
78 57 47
68 51 39
64 49 34
79 58 50
71 53 41
72 53 42
70 52 41
70 52 41
75 55 45
67 50 40
69 52 39
70 51 41
85 65 44
114 90 51
114 90 52
112 90 45
114 90 51
120 96 49
115 92 47
117 94 49
112 88 50
113 90 49
108 85 49
116 92 51
115 91 51
118 94 51
119 95 51
116 91 52
120 96 51
119 95 51
113 90 50
119 96 47
115 90 55
120 97 49
115 90 53
118 92 54
116 91 53
115 90 55
113 91 48
117 94 49
118 94 50
120 94 54
117 93 51
119 94 52
120 96 49
119 94 53
120 97 49
120 96 51
115 91 52
121 96 52
120 95 52
121 96 51
123 99 52
121 97 50
121 97 52
122 97 54
120 95 53
123 98 53
122 96 55
119 92 60
121 97 50
119 94 52
123 99 51
117 92 52
121 96 54
119 94 53
121 96 52
121 95 54
119 94 53
121 97 52
121 95 55
123 99 51
120 94 55
121 96 54
117 91 57
123 100 48
123 97 53
120 95 55
123 97 54
122 97 53
120 95 54
120 94 58
120 94 55
123 97 54
121 95 55
122 97 54
122 97 51
119 94 55
120 95 54
120 94 55
121 96 53
122 97 52
123 99 52
121 96 55
123 98 51
124 99 53
120 94 56
124 100 51
119 93 57
123 98 52
122 97 53
121 96 54
123 98 53
123 98 53
120 94 56
124 99 51
123 99 51
121 96 55
121 95 55
121 95 54
123 98 52
124 99 52
121 96 54
123 99 51
124 99 53
123 98 51
123 98 52
123 98 53
121 95 54
122 97 55
120 94 56
119 92 59
122 97 52
124 99 51
122 97 55
121 95 55
121 95 55
122 97 55
123 98 53
120 95 55
120 93 57
121 95 55
119 93 56
123 98 53
121 94 56
122 96 55
122 97 53
121 95 56
122 97 54
123 97 54
123 98 53
121 95 55
121 95 56
122 97 54
122 96 55
121 95 55
121 96 55
124 99 51
123 98 53
124 99 53
121 95 56
123 98 53
121 94 57
123 98 54
121 98 50
123 98 53
122 97 53
123 98 53
122 96 55
123 98 51
120 94 56
122 97 54
121 95 56
121 95 57
126 101 50
121 96 54
121 95 56
120 93 58
123 98 53
123 98 52
124 99 53
122 96 55
122 97 55
122 97 53
121 95 56
123 97 54
124 99 53
118 92 58
121 95 54
123 97 54
124 99 53
122 96 55
122 98 52
124 99 51
122 96 55
123 97 54
123 97 54
123 99 52
123 97 54
122 96 54
125 101 50
125 101 50
122 98 51
119 93 56
122 96 55
120 94 58
122 96 55
122 98 52
122 96 55
121 96 53
122 97 53
119 94 54
121 94 57
122 97 53
121 96 54
125 101 51
124 99 53
121 95 55
122 97 53
122 97 52
120 94 54
122 96 54
122 98 53
119 92 59
124 99 52
123 97 53
123 98 52
121 95 55
122 97 51
124 99 52
119 92 59
123 97 54
125 101 50
119 93 56
122 97 55
122 97 53
120 95 55
121 95 55
122 97 52
124 100 50
121 96 54
123 98 53
116 92 52
123 98 53
120 94 56
122 97 52
120 95 53
118 93 55
120 95 53
119 93 56
121 96 53
120 95 51
118 92 56
126 101 50
122 97 53
120 95 53
120 95 52
119 94 54
118 93 53
119 94 54
120 95 54
121 95 55
120 96 52
120 95 52
121 96 52
124 100 50
123 98 51
121 97 51
123 100 49
121 96 52
117 91 55
118 94 51
120 96 52
117 92 54
118 93 53
121 96 51
123 98 53
118 94 52
121 95 54
120 94 53
120 96 53
119 95 50
119 94 51
120 96 51
117 92 54
117 92 53
117 93 50
118 93 53
118 94 51
115 91 52
119 95 51
120 95 52
119 95 49
114 91 50
117 93 50
117 93 49
119 96 47
116 91 54
111 88 50
116 92 49
119 95 51
117 93 50
118 93 51
116 92 49
112 89 50
115 91 50
114 89 54
114 89 54
117 94 50
114 90 51
114 90 51
111 88 49
113 89 52
115 89 54
118 95 47
110 88 45
110 86 50
104 82 47
69 52 37
67 50 40
69 50 41
74 54 46
72 52 46
67 49 40
71 53 41
70 52 42
72 53 44
75 54 47
69 52 40
70 53 38
73 55 41
73 54 43
76 55 47
74 55 45
73 55 41
69 52 38
72 53 42
70 52 41
74 54 44
75 56 43
73 55 43
72 54 41
75 55 45
72 54 41
77 56 46
74 54 46
73 54 44
68 52 37
76 56 45
73 54 44
67 51 36
74 55 44
69 52 40
70 52 42
74 55 43
76 56 47
73 53 46
73 54 43
78 57 47
73 55 43
76 55 47
71 52 43
70 52 41
66 50 36
73 53 46
75 56 43
74 54 47
73 55 43
78 57 48
72 53 42
71 53 42
74 54 45
70 52 41
77 58 43
73 55 41
73 54 43
77 57 47
71 52 41
75 56 44
74 55 43
78 57 49
75 56 42
78 57 49
77 56 48
74 55 43
73 54 41
75 55 46
72 53 42
71 52 42
71 53 40
69 52 39
72 54 40
76 56 44
76 57 43
77 57 45
69 52 37
73 53 44
72 53 44
73 55 42
73 54 43
77 56 49
75 55 45
79 58 49
78 57 47
71 52 43
75 56 44
72 52 44
67 50 38
75 55 45
73 54 41
72 54 41
69 51 42
67 50 36
71 52 42
75 55 45
72 54 42
67 50 38
71 52 42
66 49 38
68 50 42
71 52 42
74 55 42
108 85 48
109 87 48
114 90 51
111 87 49
113 90 49
115 91 52
114 90 50
113 89 51
116 93 49
119 94 52
116 92 51
112 88 52
111 88 48
117 92 51
122 98 50
114 91 50
119 94 51
116 93 48
121 97 50
119 95 51
118 93 53
115 92 48
119 94 54
120 96 52
117 93 51
121 96 52
121 98 47
118 94 53
120 96 51
116 93 50
118 95 49
120 96 50
118 94 50
122 97 53
120 95 52
113 88 57
119 94 52
119 94 54
121 98 48
122 98 52
120 95 53
121 96 52
120 95 53
116 91 53
119 95 51
121 96 53
121 97 51
120 94 55
119 95 53
119 95 53
121 97 51
118 94 52
121 94 57
122 97 52
116 90 56
120 94 57
122 97 54
119 94 53
123 98 52
119 95 53
123 99 50
121 96 54
115 91 53
121 95 55
122 98 51
120 94 54
122 98 51
123 98 52
121 95 54
119 94 54
121 95 54
120 96 52
118 93 54
124 100 51
122 97 54
122 97 53
123 98 53
121 96 54
120 94 56
121 95 53
119 92 59
121 97 50
124 99 51
123 98 53
120 95 54
126 102 50
121 95 55
123 99 51
122 97 53
123 97 53
124 98 53
122 96 56
123 98 53
124 99 52
123 99 50
120 94 55
120 95 54
121 96 53
121 96 54
124 99 53
122 97 53
121 96 54
117 92 55
123 98 54
120 93 57
123 98 54
122 97 53
121 96 54
121 95 57
123 98 52
122 96 55
123 97 54
120 95 56
122 96 55
118 92 56
124 100 51
122 97 53
121 96 54
122 98 50
122 97 52
121 95 56
121 94 57
120 95 55
121 95 55
123 98 54
123 97 54
121 94 57
122 96 55
122 97 54
121 96 55
124 99 52
121 95 57
122 96 56
121 96 54
121 96 55
123 98 54
120 93 58
123 98 53
119 92 58
122 97 54
124 99 52
122 97 53
120 94 57
122 96 55
120 93 59
121 95 55
122 96 55
125 101 50
122 97 54
122 96 54
120 95 55
126 102 50
121 95 57
122 96 55
123 98 53
123 97 54
121 95 56
123 97 54
120 94 58
121 96 55
120 93 59
120 93 58
122 96 55
121 95 55
120 94 58
120 93 58
124 98 53
123 98 53
121 95 56
123 98 53
122 97 52
123 98 51
123 97 53
122 96 56
122 96 55
121 96 55
121 94 57
120 94 56
123 97 54
125 100 51
122 97 55
122 96 56
122 97 52
122 96 56
121 95 55
123 97 54
122 96 54
122 97 53
123 99 51
123 98 53
121 96 54
119 92 59
120 95 55
122 97 53
119 94 54
120 94 56
121 96 54
121 95 54
121 96 53
121 95 56
120 95 54
120 95 53
121 95 55
122 96 55
118 93 55
121 96 53
120 94 56
123 98 53
125 100 51
123 98 51
121 95 54
121 96 51
124 99 51
124 100 51
123 99 51
122 97 53
123 97 54
121 94 57
121 95 55
119 93 55
121 96 52
119 95 53
120 94 55
121 96 54
120 94 55
121 95 56
121 97 50
121 97 51
122 98 51
118 94 53
122 97 55
119 93 56
121 95 55
115 90 54
118 93 55
123 98 52
123 99 52
119 94 55
120 94 55
119 95 51
121 96 52
121 96 53
121 96 51
122 98 52
118 95 50
117 92 54
118 93 55
120 95 52
119 95 51
119 96 49
121 97 50
121 96 53
123 98 53
117 92 52
114 91 50
121 96 52
119 95 52
118 93 53
117 93 50
121 97 51
122 98 50
120 95 52
117 94 48
121 96 53
119 95 51
114 90 49
118 94 51
116 91 52
119 95 50
120 97 48
114 90 51
119 95 50
115 90 54
119 95 52
111 87 52
118 94 50
114 91 49
118 95 48
118 94 51
109 86 50
116 91 53
116 92 51
115 90 53
115 91 50
110 86 51
111 87 51
120 96 50
113 90 50
110 86 50
110 88 45
112 90 48
114 91 47
116 92 50
117 92 53
110 88 47
114 91 47
104 82 46
69 51 42
67 51 38
71 53 41
66 49 40
67 50 39
74 55 44
66 50 37
72 53 43
72 54 40
69 51 43
66 49 39
71 53 41
71 52 44
69 51 40
72 53 42
72 54 41
73 54 43
77 56 48
72 53 42
71 53 42
70 51 43
74 54 45
68 50 41
72 53 44
73 53 46
73 54 44
78 57 48
80 58 52
79 57 49
75 55 46
70 52 40
75 56 44
76 56 45
74 55 43
74 54 46
76 56 46
73 54 42
73 54 43
73 54 43
71 53 42
73 54 43
76 55 47
75 55 45
74 55 45
76 56 46
75 56 44
75 55 45
72 54 42
71 52 44
76 57 43
71 54 40
74 54 45
73 54 45
76 56 45
74 54 45
69 52 40
74 54 45
74 55 42
78 57 46
71 52 42
74 55 43
71 52 42
73 54 43
72 53 42
75 56 45
72 53 43
74 55 44
74 55 45
71 52 43
74 54 47
74 55 43
80 58 50
75 56 43
74 55 44
81 60 49
71 53 41
79 59 47
69 52 39
73 54 40
72 54 41
71 52 43
73 54 43
71 53 40
73 54 43
74 54 44
72 54 40
73 54 44
69 51 42
70 52 42
73 55 42
73 54 42
70 51 43
69 51 41
71 53 41
73 54 44
72 54 40
71 53 42
68 50 40
72 53 45
73 54 44
68 50 39
70 51 42
97 76 45
104 82 45
111 89 47
111 89 46
116 93 48
112 89 49
110 86 51
120 96 51
112 88 51
115 92 49
111 88 48
114 91 50
117 93 52
113 90 48
111 88 48
112 88 53
113 88 53
104 82 47
117 94 49
114 89 52
117 94 47
113 89 52
114 91 49
116 92 51
118 94 51
117 92 54
116 93 48
118 94 50
118 94 51
117 94 48
112 88 54
112 89 50
119 95 49
119 96 49
119 94 55
121 97 50
120 95 54
118 93 51
122 98 49
121 97 51
119 94 52
119 94 54
119 94 51
118 93 53
120 94 55
121 97 52
118 94 50
120 96 51
121 97 51
118 93 54
120 96 52
120 95 54
120 94 56
124 99 51
120 96 51
118 94 50
123 100 49
121 96 54
124 99 52
120 95 53
116 91 53
124 99 52
119 95 51
122 97 54
122 97 53
121 97 52
123 98 53
124 99 51
119 95 50
118 92 57
121 97 51
118 92 56
121 95 56
118 92 55
121 95 55
121 94 57
123 98 52
123 98 53
120 96 52
122 96 56
120 95 54
120 95 53
120 94 57
123 97 54
123 99 51
118 91 59
121 95 54
121 96 52
119 94 54
124 99 52
120 96 52
122 97 53
123 98 54
123 98 52
121 95 55
123 98 52
123 97 53
122 96 55
122 96 55
122 97 52
122 96 55
124 100 51
121 97 51
122 97 52
121 96 55
118 92 56
121 95 56
122 97 52
124 100 51
123 98 51
121 97 52
124 99 52
125 100 51
123 98 54
122 97 53
122 98 51
121 96 54
122 96 53
119 93 56
120 94 56
122 96 54
125 100 51
125 101 50
124 99 52
123 99 52
120 94 56
121 96 55
122 96 56
120 94 57
122 97 55
122 97 54
121 95 56
121 96 55
121 94 57
123 97 54
125 100 51
123 98 53
122 96 55
121 95 56
122 97 53
124 99 52
123 98 54
120 94 56
121 95 55
120 94 57
124 99 52
122 97 54
121 97 52
123 98 53
121 97 52
122 97 55
124 100 52
120 94 57
120 95 55
122 97 54
122 97 55
122 97 53
122 96 55
123 98 54
122 97 54
122 97 53
123 98 53
122 97 55
120 94 56
122 96 56
122 96 54
123 98 53
123 97 54
122 96 55
124 99 52
122 96 54
122 96 56
123 98 53
122 96 56
121 95 56
122 97 53
122 96 55
120 95 55
121 96 54
120 94 56
122 97 53
123 97 54
123 98 54
118 91 59
120 94 55
123 98 54
121 96 55
121 97 51
124 100 50
119 93 57
123 97 54
119 92 57
124 99 51
122 97 53
122 97 55
123 99 50
120 95 54
122 97 53
125 100 51
122 96 53
123 98 52
122 96 54
124 100 50
122 97 53
122 97 53
122 97 53
120 95 53
120 94 57
119 93 56
119 94 53
122 97 55
123 98 53
124 99 51
119 94 55
123 98 53
123 99 51
120 94 56
121 95 54
122 98 50
122 98 51
120 95 52
119 93 54
121 95 56
121 97 52
124 100 51
122 97 54
121 96 53
122 97 51
121 96 53
117 91 56
120 96 52
119 94 54
122 96 56
120 95 55
120 94 56
118 93 54
122 98 52
118 94 53
118 94 51
122 96 54
122 96 53
123 97 53
122 97 53
122 97 52
123 99 52
120 96 48
118 94 50
118 93 53
122 97 52
119 94 53
120 95 53
120 96 51
114 90 54
117 93 53
116 90 56
118 93 52
117 93 50
119 94 53
117 94 50
114 91 50
117 92 54
116 92 52
117 94 50
116 92 53
116 91 53
115 91 51
116 92 51
120 96 50
116 92 52
115 91 51
115 91 53
114 90 50
118 94 52
119 94 54
114 91 47
119 94 51
114 90 52
118 93 53
120 97 49
116 91 52
108 86 47
114 90 51
113 90 49
115 91 51
115 91 51
119 95 50
114 90 52
111 88 50
118 93 54
112 88 51
110 87 49
112 89 48
113 91 47
107 84 50
110 87 47
108 86 47
107 84 49
103 81 47
85 66 41
70 52 42
69 51 41
72 53 44
72 52 46
70 52 42
73 54 42
72 53 42
72 54 43
71 53 39
71 52 41
71 53 41
68 51 40
74 55 45
66 49 38
70 52 41
78 57 47
71 53 40
74 54 45
71 52 44
74 55 43
74 55 43
70 52 41
77 57 45
76 56 46
71 52 42
73 55 40
72 53 42
76 56 47
74 55 44
72 53 43
69 51 41
73 54 42
73 53 44
73 53 46
75 56 45
71 53 41
75 55 43
76 56 46
72 53 43
74 55 43
76 56 46
71 53 40
75 55 45
75 56 44
75 55 46
69 52 40
72 54 41
77 57 43
71 53 42
71 53 42
71 53 41
69 51 41
77 56 47
74 54 45
76 55 48
71 53 41
68 52 38
70 52 41
76 55 48
70 51 44
70 52 41
72 53 43
69 52 40
73 54 44
74 55 43
68 51 39
73 54 45
69 51 40
73 54 42
73 54 42
77 57 46
75 55 46
74 54 46
72 53 45
75 56 43
73 54 42
73 53 44
77 56 47
72 53 43
77 57 46
74 54 45
76 55 48
70 52 41
70 51 42
69 51 41
76 56 44
70 51 44
74 54 45
74 54 46
70 53 39
71 53 42
72 53 43
67 50 37
68 50 42
66 49 40
73 54 42
69 50 42
63 47 35
66 50 38
66 49 38
89 70 42
109 86 48
105 82 50
105 83 47
107 84 48
104 82 47
112 89 48
105 83 47
113 90 48
116 92 53
112 89 50
115 91 50
109 86 48
110 89 45
111 86 54
116 93 46
114 91 47
111 88 48
113 90 48
114 91 47
117 93 49
113 89 51
118 95 48
115 91 52
120 96 49
113 89 50
119 95 52
119 94 53
114 90 51
117 92 54
116 92 52
117 92 51
115 91 52
114 90 49
122 98 52
116 92 50
119 95 51
118 94 51
118 94 50
119 95 51
121 96 54
121 96 55
120 97 49
119 94 52
122 98 51
115 90 55
121 96 54
118 93 53
121 97 52
118 94 52
119 95 53
119 94 54
119 94 54
120 95 55
118 92 54
121 96 53
119 93 56
121 97 52
121 97 51
117 92 54
120 95 53
123 99 50
119 94 53
120 95 52
123 99 50
123 98 53
121 97 53
121 95 56
125 100 50
118 92 58
123 99 51
118 92 56
120 93 59
125 101 50
120 94 53
119 94 54
118 92 54
120 95 53
118 92 56
122 96 55
124 100 51
121 95 55
121 95 54
120 94 57
123 98 51
122 96 55
123 98 53
121 96 53
120 96 52
125 100 51
123 99 50
121 96 54
123 98 52
120 93 57
122 96 54
125 100 51
122 97 55
119 93 57
122 97 55
119 93 54
117 91 55
122 97 53
122 97 51
124 100 51
122 96 55
119 93 55
121 96 54
120 95 55
120 94 56
122 96 55
124 100 51
122 97 54
121 95 56
122 96 53
124 100 50
121 95 55
123 98 52
122 96 54
123 97 54
120 95 54
120 94 58
120 94 56
119 94 54
121 94 56
122 96 55
123 98 53
121 96 53
123 98 53
122 96 56
125 101 50
121 95 55
122 96 56
122 97 52
121 95 57
122 96 55
120 95 56
121 96 53
122 96 55
123 97 54
121 95 55
122 97 54
123 99 52
122 97 55
122 96 55
122 96 56
124 99 52
122 97 55
121 96 55
122 97 54
121 94 57
124 99 51
123 98 53
124 100 50
121 95 56
121 95 55
121 96 54
124 99 53
122 96 56
119 92 59
125 100 51
124 99 53
121 96 54
124 100 50
123 98 53
122 96 54
123 98 53
124 99 53
120 94 56
121 95 56
123 99 52
122 97 54
122 96 54
123 98 53
123 98 53
123 98 53
122 97 54
125 100 51
123 98 52
124 100 51
123 97 54
121 95 56
121 95 55
124 99 51
121 96 55
122 97 54
123 97 54
120 94 57
121 96 54
122 97 53
121 95 56
121 96 52
121 95 56
120 95 53
122 97 53
124 99 52
123 97 54
123 98 52
122 97 54
122 97 53
122 97 55
121 95 57
121 97 51
122 96 53
120 95 54
121 96 53
121 96 53
120 95 53
120 95 52
119 93 57
122 97 52
116 91 54
122 97 52
122 98 51
122 97 52
119 94 54
123 98 53
122 96 55
122 97 52
120 95 53
122 97 53
122 97 52
119 93 55
120 95 53
120 95 53
123 99 51
122 97 53
120 95 53
120 96 52
120 95 52
122 97 52
117 90 59
122 97 52
122 97 52
122 98 52
121 95 54
120 93 57
119 94 52
116 91 55
119 93 56
120 94 56
120 95 52
118 93 52
119 93 56
124 99 50
119 94 52
120 94 55
121 97 52
116 91 53
119 93 56
124 100 49
122 96 54
117 93 51
117 93 50
120 96 50
117 91 56
118 92 56
120 94 55
119 95 51
117 92 55
113 88 54
114 89 56
118 94 51
116 92 52
117 93 50
119 95 51
114 91 49
113 89 49
119 95 51
118 95 49
120 97 48
114 89 56
114 90 51
114 91 48
116 93 47
114 90 52
115 91 52
118 93 51
114 90 51
115 91 51
112 89 49
114 90 52
117 94 47
104 81 51
115 92 49
113 89 50
111 87 50
109 86 50
114 90 51
110 85 56
112 88 51
114 89 53
113 90 48
106 83 51
109 86 48
113 89 52
104 82 46
107 85 46
107 85 47
101 79 48
104 83 45
81 63 40
67 50 39
65 49 37
69 51 40
70 52 43
65 49 38
74 55 43
69 51 41
67 49 40
75 56 44
70 52 41
70 52 41
68 50 41
73 53 46
65 50 34
73 54 44
68 51 39
75 55 46
72 54 41
74 55 44
69 52 39
73 54 45
70 51 44
73 54 42
73 54 43
74 55 44
70 52 42
79 58 46
75 55 44
76 55 48
71 52 42
75 54 47
69 51 41
70 52 40
72 53 43
72 53 43
72 54 41
75 55 46
70 51 45
73 55 41
73 54 43
75 56 44
74 54 45
69 51 41
73 53 46
73 54 45
72 53 43
73 54 45
76 57 42
71 53 41
72 53 44
69 51 42
74 54 45
77 56 47
70 53 36
76 56 45
76 55 46
71 52 45
75 56 44
68 50 39
70 51 41
76 56 47
75 55 45
70 52 40
70 52 40
76 56 45
75 55 45
73 54 43
71 53 42
73 55 43
74 55 42
76 55 48
70 53 38
71 52 42
75 56 44
70 52 40
73 53 47
70 52 42
69 52 37
71 53 43
70 52 43
72 52 44
71 53 40
71 52 43
70 52 42
66 49 39
70 52 42
69 51 41
70 52 40
73 54 43
69 52 40
66 50 36
73 54 43
67 49 42
64 47 37
73 53 46
70 52 41
71 52 43
67 50 39
83 64 41
106 83 50
103 80 49
108 85 49
112 89 49
104 82 48
110 87 47
112 88 53
110 87 47
111 89 45
110 88 46
112 88 52
111 86 54
109 86 48
112 89 50
111 88 49
115 91 50
114 91 48
113 90 49
120 95 51
111 88 49
112 88 51
114 91 48
114 91 48
113 89 51
113 90 50
118 95 48
117 93 51
118 93 53
112 90 48
118 94 52
119 95 52
120 96 51
119 96 49
118 95 47
115 92 47
117 94 49
114 90 52
118 93 52
119 95 50
118 93 54
122 97 53
116 91 53
115 89 55
120 95 53
119 94 53
117 93 52
118 93 55
120 96 50
120 94 56
119 93 56
120 95 54
121 96 52
120 94 55
123 98 53
121 96 53
121 96 54
123 98 53
123 98 52
120 95 52
121 96 53
118 93 55
119 94 53
121 97 52
120 95 54
118 92 57
121 96 51
117 93 52
120 95 55
124 99 51
119 93 57
117 93 53
121 95 56
121 96 53
122 97 53
119 94 52
121 97 52
117 92 53
122 97 53
122 97 53
122 97 54
120 94 56
119 93 55
122 96 56
121 96 54
124 99 53
124 99 53
122 97 53
122 96 55
120 95 51
124 99 52
122 98 52
122 97 53
123 99 51
122 97 53
122 97 53
122 97 53
121 96 53
122 98 52
121 95 56
122 96 54
119 94 53
123 99 52
117 91 58
122 97 55
122 97 53
122 98 53
121 97 52
122 97 54
122 97 53
122 97 52
121 97 50
124 100 51
121 95 56
118 92 56
123 98 52
120 95 54
119 92 60
123 98 53
119 94 55
121 95 56
123 98 53
121 96 53
121 95 56
123 97 54
122 96 55
123 98 52
122 97 53
121 95 56
119 93 57
124 99 51
123 98 53
124 100 51
123 98 52
120 94 56
123 97 54
125 101 49
123 97 54
122 97 54
120 94 56
121 95 56
122 96 56
118 90 61
122 96 54
123 98 53
122 97 52
125 101 50
124 100 52
122 96 55
121 95 55
122 96 56
122 96 54
123 97 54
124 98 53
121 95 56
121 97 50
121 95 54
124 99 52
121 95 57
122 98 52
123 97 54
124 99 52
122 96 55
123 98 52
122 97 53
123 98 53
122 96 54
121 95 55
124 98 53
122 98 50
122 97 53
121 95 56
124 100 52
121 96 52
120 95 55
122 97 54
123 98 53
119 92 58
123 97 54
124 100 50
117 91 57
120 96 51
124 99 51
125 101 51
120 94 56
123 98 53
121 96 51
123 98 53
121 94 57
123 98 53
122 96 55
122 96 55
122 96 55
123 98 52
125 100 51
122 97 53
120 95 54
119 93 55
123 98 52
123 99 52
124 99 52
121 96 53
123 98 53
120 95 54
121 95 55
121 95 55
122 97 52
124 99 51
119 93 57
122 97 53
119 94 53
121 94 57
121 95 57
121 95 55
119 94 54
119 94 52
119 94 54
116 91 55
122 96 55
121 95 55
121 95 54
123 98 51
121 96 53
119 96 50
121 96 54
120 96 52
117 91 56
124 99 52
119 93 54
120 95 54
122 97 53
118 94 50
120 95 53
118 93 52
122 98 50
121 96 55
121 96 52
119 94 53
120 95 53
121 95 55
122 98 50
117 91 55
122 98 52
118 93 52
122 97 52
119 94 54
120 95 53
119 94 53
120 96 52
119 95 51
119 94 53
122 97 51
117 92 53
119 94 54
118 95 50
116 91 53
118 93 52
116 92 51
116 90 55
120 95 53
117 93 51
118 94 52
115 93 47
116 92 49
116 92 51
117 93 49
115 92 50
119 94 54
121 97 49
114 89 53
115 90 53
115 92 49
118 92 54
116 91 54
116 91 52
113 88 52
117 93 51
115 91 51
115 91 51
112 89 50
118 94 50
117 93 52
117 93 50
115 92 50
110 86 50
111 89 46
113 90 48
115 92 49
112 88 50
108 87 46
116 92 50
113 90 49
109 86 48
107 84 49
106 83 49
107 84 47
107 85 47
107 84 49
108 86 46
103 81 46
107 85 46
95 73 46
75 57 40
63 47 35
68 51 38
66 49 38
64 48 37
71 53 42
65 48 38
67 50 40
68 50 41
70 52 42
69 52 40
74 54 47
71 52 42
64 48 36
73 54 43
66 50 37
69 52 38
72 52 47
71 53 41
71 51 45
70 51 45
75 55 46
73 54 43
76 56 43
74 54 45
68 50 41
72 54 41
71 52 42
71 53 41
75 56 44
69 52 39
74 54 45
72 53 45
74 54 44
73 54 43
74 55 43
71 52 42
66 50 38
74 55 44
74 54 45
74 54 44
71 53 42
71 53 41
74 55 43
73 54 44
70 52 40
72 53 42
75 54 48
75 55 47
72 55 39
72 53 43
74 54 46
68 51 39
69 51 41
76 56 45
70 51 42
73 55 42
69 51 42
68 51 40
73 54 43
72 53 44
69 50 42
79 58 46
72 53 44
76 55 46
75 56 44
72 53 43
69 51 41
71 53 40
70 52 41
67 50 39
72 52 45
75 55 45
69 52 39
69 52 39
69 52 38
69 52 40
69 51 40
79 58 48
72 54 42
72 53 43
72 53 42
69 51 39
68 51 37
71 52 42
68 50 40
68 51 38
70 52 42
73 54 43
72 54 43
72 53 45
68 51 39
68 50 41
65 48 38
70 53 38
67 50 38
64 47 40
76 57 43
106 84 46
102 81 46
109 85 51
104 83 45
110 86 50
112 89 48
109 86 48
106 83 48
105 83 45
112 89 48
106 84 47
114 91 48
110 87 47
115 91 51
114 91 48
108 85 49
111 88 49
111 88 50
111 88 50
115 91 52
114 91 49
111 87 50
118 95 48
111 88 48
116 92 52
115 91 50
114 91 50
116 93 49
120 96 51
118 94 49
114 89 53
113 88 54
117 94 49
118 95 48
115 91 53
116 91 52
120 95 51
118 94 51
121 97 49
119 94 52
120 96 51
120 96 52
115 91 51
117 91 56
118 93 52
120 97 49
117 94 48
116 91 53
120 96 49
115 90 54
125 101 51
119 94 53
119 94 54
120 95 53
118 93 51
122 97 53
120 95 52
119 95 51
121 96 54
120 95 53
115 91 52
119 93 55
123 98 53
120 97 49
120 95 53
123 100 48
120 96 49
121 95 54
121 96 52
119 95 52
119 94 54
119 94 53
124 99 53
121 96 54
123 99 50
119 94 54
118 92 54
118 92 57
120 94 55
121 96 54
120 94 55
118 93 54
122 98 51
124 99 51
120 95 54
122 97 53
121 96 54
117 92 53
122 98 51
123 99 50
122 98 51
122 96 54
120 94 56
121 96 53
122 97 52
122 96 55
119 95 52
123 99 50
121 96 54
124 99 52
119 93 58
119 94 54
121 96 53
123 98 52
122 96 55
122 97 52
123 98 54
122 96 55
123 99 51
122 96 55
123 98 53
123 97 54
124 100 52
123 97 54
119 93 55
120 93 57
123 98 52
124 100 52
123 98 53
122 97 52
121 94 57
122 96 54
123 99 52
121 96 55
121 96 53
123 98 54
122 97 53
122 97 53
122 96 55
122 97 55
121 96 54
123 98 52
122 96 56
123 98 54
122 97 55
121 96 54
121 96 54
122 96 54
123 97 54
124 98 53
119 93 59
121 95 56
123 98 54
119 92 58
121 95 55
121 95 55
123 98 52
122 97 53
124 98 53
121 96 54
122 97 52
123 97 54
121 96 55
124 99 51
122 96 56
122 97 53
120 95 56
122 97 52
121 96 55
122 96 55
121 96 55
120 95 56
123 98 51
123 98 54
123 98 53
120 94 57
125 101 51
123 97 54
121 97 50
122 97 53
121 95 56
121 95 57
121 94 57
122 96 55
121 95 55
123 98 52
122 97 53
125 101 50
123 98 53
121 97 51
123 98 52
119 93 56
120 95 55
122 97 55
119 94 56
121 95 57
121 97 51
125 101 49
121 96 54
121 96 54
121 96 52
122 97 53
122 96 54
121 96 53
119 94 52
122 97 52
124 99 51
122 98 51
124 99 52
121 96 54
123 98 53
119 93 57
122 97 53
122 97 54
120 94 56
121 96 53
121 96 53
119 93 55
122 97 52
118 92 56
115 89 56
119 94 54
121 95 54
124 99 51
118 93 55
122 97 53
120 95 53
120 96 53
119 94 55
125 100 51
120 94 54
123 98 52
120 95 55
120 95 55
119 94 54
121 96 54
121 96 52
118 93 54
124 99 51
123 98 52
120 94 53
115 91 52
121 97 51
118 94 53
117 91 57
118 93 54
122 98 51
118 93 55
120 96 51
119 94 53
122 97 50
119 93 55
118 93 56
119 94 54
120 96 49
121 97 51
121 96 51
116 92 51
121 97 51
119 94 52
118 92 54
121 95 54
119 95 52
120 96 50
121 96 53
117 91 57
114 90 52
118 94 52
116 92 52
118 92 55
117 91 55
116 92 52
115 91 51
116 92 53
117 93 53
117 93 53
118 93 53
112 88 53
114 89 55
115 92 48
117 93 51
108 84 51
113 89 52
112 88 50
114 91 47
118 94 52
112 89 49
108 87 45
109 86 49
118 95 50
115 90 54
119 95 50
112 89 50
115 92 49
109 87 48
106 83 50
110 88 47
105 82 49
107 83 52
108 85 47
107 85 45
110 87 50
100 79 45
112 88 51
111 88 48
111 89 45
106 84 47
109 88 45
108 86 46
108 86 47
103 81 47
93 73 42
94 74 42
73 55 40
65 48 37
65 49 37
65 49 36
65 48 37
71 51 44
71 51 44
70 53 38
67 49 41
68 50 41
71 53 41
64 48 35
74 54 46
75 55 46
69 51 41
71 52 43
70 51 44
64 48 36
69 52 39
74 55 45
75 55 45
66 49 38
73 53 48
74 54 44
75 56 45
74 55 42
72 54 43
70 52 42
70 51 42
75 56 44
77 57 44
69 52 39
74 55 42
67 49 40
70 53 40
72 53 44
67 49 41
71 52 43
73 53 44
72 55 39
68 50 40
76 55 47
71 52 43
71 52 43
73 53 44
66 49 36
73 54 45
73 54 43
74 54 45
73 54 44
76 56 45
71 53 43
62 47 33
72 53 44
71 53 39
68 51 38
72 54 42
75 56 44
73 54 43
69 51 41
69 51 43
66 49 38
66 49 41
68 51 37
70 52 40
69 51 41
65 48 39
70 52 42
71 52 44
67 50 37
65 48 37
66 49 37
73 54 45
72 52 44
71 53 42
69 51 39
67 50 39
72 53 42
74 54 45
69 51 43
67 50 39
73 54 45
66 50 37
69 50 44
74 54 45
67 50 40
75 56 44
71 52 41
69 51 41
64 47 37
75 54 47
65 48 38
64 47 40
67 50 38
72 52 45
72 55 39
97 76 44
99 78 45
97 76 45
106 82 51
103 81 46
108 86 47
102 80 48
103 81 47
108 86 45
106 85 46
114 90 52
103 81 48
111 88 48
106 83 50
115 91 50
107 85 48
111 87 51
113 90 49
113 90 49
112 89 48
111 89 47
114 91 48
115 91 52
113 90 50
112 89 49
108 85 48
113 90 46
113 91 47
119 96 49
116 93 48
113 91 48
120 97 48
114 91 47
119 95 51
113 88 54
111 89 48
109 86 50
115 92 49
120 95 52
119 95 51
121 98 47
116 92 50
117 93 50
116 91 54
119 95 51
117 92 52
117 93 53
120 96 49
116 92 51
119 94 54
118 94 51
119 94 53
120 96 51
120 95 53
119 95 51
118 94 50
117 93 50
117 92 52
122 98 50
119 94 53
126 102 50
117 92 52
119 94 51
120 95 54
116 91 53
119 94 53
120 94 55
120 95 52
121 95 53
121 96 52
120 94 54
124 100 50
120 95 53
122 96 53
120 95 53
119 94 54
120 95 53
120 94 56
123 98 51
117 91 56
121 96 52
124 99 52
120 95 54
122 97 53
116 91 54
122 98 52
124 100 50
122 97 53
120 96 51
121 97 52
120 95 53
119 94 54
119 93 55
124 99 50
120 95 55
121 96 53
117 92 52
119 95 51
122 96 55
121 96 53
124 100 50
118 94 52
122 97 53
120 95 55
121 95 55
121 95 56
123 99 51
123 98 52
120 94 56
124 99 52
123 97 54
121 96 55
123 98 53
121 95 56
123 98 53
120 94 56
121 97 52
123 98 53
122 97 54
121 96 54
122 96 54
120 94 55
123 98 54
123 98 54
125 100 51
122 97 53
120 94 57
122 96 53
122 96 55
122 96 54
122 97 54
122 97 54
123 98 52
123 98 52
119 93 56
117 91 58
121 95 56
123 98 52
123 98 53
123 98 53
121 95 56
121 94 57
119 92 57
123 99 51
121 96 53
123 97 54
123 98 54
120 94 56
124 99 52
123 98 52
124 98 53
123 97 54
121 95 57
123 99 51
126 102 49
122 97 53
122 97 53
123 99 50
122 97 54
122 96 56
122 96 55
122 96 54
122 97 53
122 96 55
121 96 54
122 97 54
121 96 53
121 96 55
122 97 55
120 95 54
123 98 52
122 97 53
119 94 55
122 97 53
119 93 56
123 99 51
123 98 53
125 100 51
122 97 54
121 95 54
122 98 51
121 95 55
122 96 54
124 99 51
119 95 52
121 95 55
122 96 54
121 95 55
122 97 55
120 95 54
123 99 52
122 97 53
120 94 55
122 96 54
122 96 55
120 95 55
122 96 55
121 96 55
121 95 56
120 95 53
124 100 50
120 96 52
120 94 55
120 95 55
125 101 49
120 94 55
119 95 52
122 98 50
124 99 50
122 97 53
121 96 51
120 94 55
122 97 52
121 96 53
120 95 53
124 100 49
122 97 54
121 96 54
116 90 57
118 93 53
121 96 53
122 98 52
120 95 53
122 98 50
119 94 53
121 95 54
120 95 56
120 96 51
120 94 57
123 97 54
120 94 55
119 95 52
121 96 52
118 94 52
119 94 53
123 99 51
121 96 53
119 94 52
121 96 53
123 98 52
118 92 56
120 94 55
117 92 54
117 92 55
120 96 52
119 95 51
118 92 56
113 89 51
117 92 53
119 94 55
123 98 52
118 93 53
120 95 53
118 94 52
118 94 50
119 94 51
118 92 54
115 90 55
121 96 52
117 92 53
121 97 51
117 92 53
115 91 53
119 94 53
117 92 52
115 91 51
114 88 56
110 86 52
117 94 49
116 91 52
114 91 49
117 93 50
116 92 51
113 89 51
112 89 50
114 91 48
114 91 47
115 92 49
111 88 50
109 86 49
113 90 48
117 94 49
114 91 49
111 89 48
115 93 46
110 87 49
109 87 47
106 83 49
111 89 46
114 91 49
108 85 47
111 88 48
113 90 48
103 81 48
107 84 49
107 84 48
101 79 50
99 78 46
111 88 47
104 82 47
102 80 46
98 77 45
96 76 43
97 76 44
103 82 45
74 56 41
64 48 38
67 49 41
63 47 38
70 51 42
64 48 37
67 50 39
69 51 42
67 50 39
70 51 42
71 53 42
69 53 37
68 51 39
67 50 39
72 53 44
66 50 38
67 49 41
71 53 41
70 51 43
64 47 38
67 50 38
70 52 40
66 49 39
72 53 45
70 51 44
64 47 36
71 53 42
67 50 39
77 57 46
72 54 42
69 52 39
72 53 44
66 48 40
72 53 43
64 48 35
73 53 45
67 50 40
71 53 42
73 53 46
67 50 38
71 53 43
66 49 36
66 49 39
68 49 43
71 52 42
73 54 41
64 47 37
68 50 40
72 53 42
67 49 40
73 54 45
76 55 48
73 54 44
68 50 41
70 53 38
72 54 41
71 52 43
76 56 46
73 54 43
73 53 47
68 50 39
72 54 41
69 51 39
67 49 40
70 52 41
69 52 40
70 51 41
69 51 42
70 52 40
70 53 38
78 58 47
68 50 42
67 50 38
70 52 40
70 52 41
69 51 41
72 53 43
67 50 40
70 52 41
65 48 38
76 57 43
68 50 40
67 49 39
70 52 40
68 50 40
68 50 41
70 53 39
65 49 36
71 53 40
64 47 38
65 48 37
73 54 43
71 52 43
76 58 42
93 72 44
96 75 45
102 80 48
103 81 47
97 77 44
97 77 43
97 75 46
108 84 50
104 81 48
103 82 45
103 82 46
106 85 43
112 89 47
110 86 50
109 86 50
110 88 45
110 87 49
118 95 50
107 84 50
108 86 45
107 84 49
117 93 49
111 87 51
107 82 54
113 90 51
109 87 45
113 91 46
110 87 49
116 93 50
112 89 49
111 88 49
113 90 48
119 95 51
110 87 50
118 93 52
114 91 49
116 92 50
119 95 51
112 88 53
117 92 53
117 93 52
116 93 48
117 93 51
116 92 50
119 96 48
115 90 54
117 93 50
114 91 50
117 93 51
119 94 52
120 96 52
118 93 53
114 89 53
119 94 53
118 93 52
120 96 50
120 95 53
122 98 49
120 94 54
119 93 55
114 89 54
119 94 53
117 92 53
121 96 53
123 99 49
118 93 52
121 97 52
117 94 49
116 90 57
120 97 50
121 96 53
116 92 52
119 93 56
123 99 51
123 98 52
122 97 51
120 96 52
120 95 53
121 95 55
119 95 53
117 90 59
123 98 51
119 95 52
118 93 53
123 97 53
121 97 50
120 96 53
124 100 50
121 97 50
119 94 55
120 94 56
121 96 53
117 93 51
121 96 52
123 97 54
119 93 57
121 96 53
119 95 52
121 96 53
121 95 55
123 99 51
119 94 54
120 94 57
120 95 55
122 96 56
118 94 53
121 96 52
119 94 54
120 95 54
125 101 50
120 95 54
120 94 56
124 100 49
125 101 51
120 95 52
123 99 51
122 96 54
123 97 54
119 95 51
121 97 51
122 96 53
120 94 56
121 96 52
123 98 53
124 99 52
122 97 55
123 99 51
122 96 56
121 95 54
121 96 53
124 99 52
124 100 49
122 97 53
124 99 53
122 96 55
120 96 53
122 96 53
122 97 51
122 96 54
124 99 50
118 91 59
123 97 54
120 95 53
122 96 54
124 99 53
123 98 51
123 98 52
121 95 55
125 100 51
121 95 56
125 100 51
123 97 54
122 96 55
122 96 54
122 98 51
123 98 54
121 96 55
122 97 53
122 97 54
124 99 52
121 95 56
121 96 52
121 96 54
123 97 54
123 98 52
122 96 56
123 99 52
123 98 53
120 94 54
123 97 54
122 96 55
123 98 52
123 98 53
122 97 53
123 98 52
122 97 53
119 94 55
121 95 55
120 94 55
119 93 55
121 95 56
120 94 58
120 93 58
121 95 56
120 95 55
120 94 54
124 99 52
121 95 56
121 95 56
121 96 54
119 94 53
118 92 56
124 100 50
119 93 57
123 98 52
118 92 57
122 97 54
122 96 56
121 96 55
125 100 51
123 99 51
119 94 54
119 95 52
121 95 55
117 93 53
120 95 54
123 97 53
122 97 53
120 95 55
119 94 53
118 92 56
121 97 52
121 95 54
121 95 54
123 98 53
122 97 53
122 97 53
120 95 54
119 94 53
122 97 53
120 95 53
117 93 52
124 99 53
119 93 55
119 94 51
123 99 51
123 99 50
123 98 52
117 91 57
122 98 51
121 96 52
117 92 55
120 96 51
119 94 52
126 102 48
119 94 54
114 91 50
118 92 55
120 95 52
118 93 54
121 95 55
118 93 56
119 94 53
120 95 53
121 97 50
117 91 55
122 98 50
118 94 48
122 98 50
119 94 53
118 94 51
119 93 55
118 94 53
118 94 51
118 95 49
116 91 53
124 99 52
123 100 47
116 93 50
112 87 53
113 88 53
112 88 51
117 92 53
111 87 52
118 93 53
118 94 51
115 91 51
120 97 46
112 89 49
109 86 48
119 95 51
115 91 52
114 91 49
111 86 53
113 89 52
115 92 48
116 93 48
113 90 49
112 88 51
111 88 48
109 86 49
112 89 48
119 97 47
108 86 46
105 83 49
107 84 49
103 81 49
112 87 52
106 84 47
106 84 46
110 86 51
115 90 53
107 85 47
105 82 51
110 87 48
100 78 47
103 80 48
99 78 45
96 74 48
104 82 47
101 80 44
89 70 41
101 79 46
106 83 48
107 84 49
98 78 41
92 72 43
69 51 41
63 46 38
64 48 36
65 49 38
67 50 38
67 49 39
65 48 37
68 49 42
70 52 42
71 52 44
70 53 40
68 50 41
73 54 42
70 52 40
73 53 45
70 51 43
64 47 39
63 47 37
69 51 42
67 49 39
72 53 44
69 51 41
71 52 43
70 51 43
67 50 39
68 50 41
72 53 45
72 53 43
72 53 42
66 50 37
73 54 41
66 50 38
74 55 44
72 53 42
73 53 45
68 51 38
71 53 42
72 52 45
70 53 39
66 48 40
68 51 38
70 52 42
66 49 37
69 52 40
68 50 39
74 54 44
66 49 37
71 52 44
74 54 45
70 51 43
71 53 43
73 54 45
68 50 40
74 54 44
67 49 39
74 55 43
67 49 41
69 51 42
71 53 39
69 51 41
72 54 40
62 46 35
68 51 38
79 58 49
71 53 41
66 49 38
74 55 42
67 50 39
75 56 44
73 54 43
67 50 39
65 49 34
74 55 43
67 50 40
67 49 41
68 51 37
68 50 40
70 51 43
66 49 40
68 50 41
69 50 43
67 49 39
64 48 37
70 53 39
67 49 39
59 44 33
67 50 37
65 48 38
65 48 37
67 50 40
66 49 39
64 48 38
89 69 45
97 74 49
97 77 42
97 76 44
99 78 45
94 74 42
106 84 47
103 80 48
106 84 46
106 84 48
105 83 44
105 81 52
105 83 47
107 85 46
101 79 46
98 78 42
109 86 49
108 85 47
103 79 52
108 85 51
109 84 54
107 85 48
108 87 44
111 89 46
108 84 51
109 87 45
112 90 48
113 90 50
110 87 50
112 89 48
110 87 49
115 92 48
116 92 52
118 94 50
118 94 51
111 88 50
113 89 51
117 95 45
117 95 46
115 90 53
120 94 53
110 88 47
120 94 53
115 92 49
116 92 51
112 88 53
120 96 49
121 97 48
117 94 47
120 96 49
117 92 52
112 88 52
119 95 51
121 97 49
122 96 53
119 94 53
119 94 52
121 97 50
117 92 52
123 99 50
119 95 52
118 94 49
117 92 55
119 95 52
120 95 55
118 93 54
122 97 54
118 93 52
116 93 51
120 96 51
120 95 54
120 96 51
121 97 50
120 95 54
119 94 53
120 94 56
123 99 50
121 96 54
124 99 50
120 95 52
122 98 50
117 92 54
119 93 56
122 97 52
123 99 50
122 97 52
120 95 53
120 96 51
115 90 55
119 94 52
120 96 52
118 93 55
120 95 52
120 95 54
124 100 51
120 95 53
121 96 53
122 96 56
120 94 56
124 100 50
122 97 52
124 100 50
119 96 50
122 98 51
121 96 53
125 101 48
122 96 53
118 93 54
120 94 56
120 95 54
121 95 55
123 99 50
119 93 55
123 98 54
122 97 53
125 101 51
126 101 50
122 96 55
122 96 55
124 100 50
120 95 52
121 96 54
122 96 55
122 97 52
122 97 55
121 95 54
120 93 59
122 97 54
120 94 56
123 98 52
119 93 56
120 95 54
120 94 54
122 97 53
123 98 53
123 98 53
123 98 53
124 100 51
123 98 53
121 96 53
124 99 52
122 96 55
123 97 54
126 102 50
121 94 57
119 92 57
121 96 53
121 96 53
122 96 54
122 97 54
124 99 52
123 98 52
121 96 55
121 95 56
121 95 56
122 96 55
124 99 52
124 99 52
121 95 56
123 97 54
122 97 53
121 96 54
124 99 53
121 95 56
122 97 53
123 98 53
124 99 52
124 100 52
125 101 50
119 93 57
122 97 52
122 97 53
122 96 56
125 101 50
121 95 55
122 97 54
122 96 54
121 95 55
122 96 55
120 95 55
121 96 52
122 97 55
122 96 55
123 98 53
122 97 54
123 98 53
122 97 52
121 96 55
123 97 54
122 97 52
121 95 55
121 95 54
121 97 49
122 97 53
121 95 56
120 95 53
125 101 50
122 97 54
119 95 51
122 96 54
120 95 54
121 96 55
122 97 53
123 98 54
121 95 56
120 95 53
119 93 55
121 97 52
122 96 54
119 94 52
121 96 54
120 95 54
126 102 49
120 95 53
122 98 50
121 96 54
118 92 55
119 93 54
121 96 51
121 97 51
121 97 50
123 98 52
122 96 54
118 93 53
121 95 55
119 95 52
121 98 49
119 94 53
119 93 56
122 97 52
123 98 51
120 94 56
120 96 50
120 95 52
117 93 51
117 93 50
120 95 54
118 92 55
120 97 50
116 90 55
121 97 50
115 90 55
114 91 49
120 95 53
118 93 52
120 96 52
119 95 53
118 93 54
118 93 54
119 94 52
119 95 50
116 92 51
117 91 55
120 96 50
120 95 53
117 92 53
114 90 51
118 93 54
117 92 52
118 93 54
121 97 51
119 94 53
116 92 51
116 93 48
120 97 46
117 94 47
118 93 52
116 93 47
116 91 52
112 90 46
117 92 52
110 87 51
112 88 52
117 94 48
114 91 48
116 93 47
112 89 49
108 86 44
114 91 51
114 89 54
114 92 46
114 92 47
107 85 45
109 86 51
111 88 49
107 84 49
115 93 47
108 85 49
104 83 47
107 85 44
105 83 44
105 84 44
108 86 48
109 87 44
104 83 44
108 85 50
99 77 47
102 81 45
98 74 53
100 79 44
98 78 43
105 82 50
103 80 51
105 82 50
89 70 41
95 73 47
90 70 42
101 79 47
94 74 43
67 51 35
65 49 38
63 47 36
69 51 42
64 48 37
64 47 38
70 52 41
62 46 36
69 51 40
68 49 42
66 49 40
61 45 36
65 48 37
69 51 43
69 52 39
67 49 41
65 48 37
66 49 37
65 47 39
72 53 42
71 52 43
73 54 42
69 52 40
65 49 35
67 49 41
70 52 41
69 51 41
71 52 44
77 57 47
72 53 44
68 50 40
73 54 43
63 46 39
69 51 42
70 52 40
71 53 41
68 50 39
73 53 47
71 52 43
69 52 41
71 52 44
71 53 40
70 51 42
72 54 41
71 52 41
67 48 43
72 53 43
75 55 47
71 53 41
67 50 40
60 45 34
67 50 39
67 50 39
66 49 37
71 52 44
65 48 39
70 52 41
66 50 37
74 56 41
69 51 41
69 51 41
72 52 44
70 51 43
71 53 39
73 54 42
71 52 43
70 52 40
71 53 40
70 52 41
73 54 41
69 51 41
67 49 40
68 50 42
69 51 43
65 49 36
67 49 41
66 49 41
67 50 39
65 49 37
64 48 35
62 47 34
68 51 37
68 50 40
63 47 36
64 48 37
66 49 40
69 51 40
65 48 37
64 48 36
62 47 33
95 75 45
92 72 43
94 73 45
97 77 44
103 80 48
104 81 48
100 79 43
99 77 46
96 74 48
101 79 46
101 80 46
100 79 45
105 81 51
102 80 48
103 81 46
107 86 45
107 86 46
99 78 46
105 83 46
105 83 47
109 86 49
108 84 52
100 78 50
112 89 50
112 90 46
109 87 46
103 80 48
109 86 50
116 91 53
111 88 50
110 87 49
116 93 48
111 88 48
112 89 47
106 82 52
116 91 52
117 92 51
115 92 49
107 84 51
120 96 48
115 93 47
107 84 49
113 89 51
116 92 51
115 91 51
119 94 52
114 91 49
116 91 54
116 92 50
117 93 52
118 94 51
121 97 50
115 90 54
116 92 51
117 93 51
120 96 51
113 88 54
121 98 48
117 93 51
115 90 53
120 97 47
118 93 54
122 98 50
122 98 50
116 92 50
122 97 51
117 92 53
121 97 52
117 93 52
120 94 54
120 96 50
119 94 54
118 93 54
119 94 53
121 96 54
120 95 52
117 91 56
121 96 54
121 97 51
121 96 53
120 96 52
120 94 54
120 95 55
123 100 48
117 92 54
119 94 52
124 99 53
121 96 53
122 97 54
123 98 53
122 98 52
123 98 52
124 99 51
118 93 52
120 94 55
116 89 58
120 95 53
121 96 53
120 94 56
121 97 51
123 98 53
119 94 51
120 95 52
120 94 57
121 96 52
121 96 53
124 98 53
120 95 53
123 98 52
120 94 55
124 99 53
122 97 54
122 97 54
120 94 55
120 97 50
121 96 53
123 98 54
118 92 56
119 94 55
121 95 53
122 97 54
124 100 52
125 100 51
120 95 53
122 97 52
121 95 54
120 94 56
121 95 54
122 98 52
124 99 51
121 96 54
120 94 55
119 93 55
124 100 51
123 98 53
122 97 52
122 97 52
120 94 56
122 97 53
119 93 55
122 97 54
123 98 52
123 97 54
122 96 54
121 96 54
121 96 54
121 96 53
121 95 56
122 96 54
120 95 54
124 99 53
121 95 56
118 93 55
121 96 53
121 96 55
122 97 54
121 95 56
123 97 54
122 96 56
122 97 53
122 96 56
122 96 54
120 95 56
123 98 54
122 96 56
122 97 54
124 99 51
120 94 57
119 93 57
121 95 55
121 96 53
119 93 57
122 97 53
120 95 55
122 96 54
123 98 51
123 98 53
122 97 53
121 95 55
122 97 55
122 97 53
119 93 56
125 100 51
119 93 55
123 97 54
121 95 54
122 97 54
120 93 57
123 99 51
122 96 55
121 96 53
124 100 49
122 97 54
124 99 51
124 100 50
122 97 53
122 96 54
120 94 55
120 95 53
122 97 55
119 93 56
123 99 50
124 99 52
118 93 55
121 96 52
118 93 53
120 95 54
118 93 55
118 93 53
118 92 56
125 100 51
121 96 54
121 95 56
119 94 53
121 96 53
117 90 57
121 96 53
122 97 50
120 95 55
122 97 53
116 91 54
121 95 56
121 96 54
119 94 53
119 95 50
119 93 57
117 91 57
122 99 49
118 92 55
122 97 52
117 92 52
120 95 53
115 90 56
120 94 54
122 97 52
118 94 51
120 95 52
117 92 53
119 94 54
117 93 50
121 96 55
119 95 51
116 91 53
113 88 53
118 93 52
118 94 52
119 94 54
117 94 48
121 96 51
122 98 50
119 94 52
119 94 51
109 85 51
123 99 50
119 95 52
118 95 48
114 89 55
115 91 51
116 92 50
118 93 53
116 93 48
115 91 50
113 89 50
113 89 52
117 93 51
115 90 54
114 90 51
114 91 49
122 98 49
115 91 51
114 91 49
116 91 52
115 92 50
110 87 48
112 89 50
111 88 50
114 90 50
112 89 50
119 94 52
110 87 49
110 85 54
110 87 50
110 88 48
110 87 49
111 87 53
111 89 46
105 82 49
112 88 49
114 91 48
107 84 50
108 87 45
108 87 44
107 86 44
106 84 47
105 83 46
105 83 47
106 83 48
106 83 49
97 76 45
102 80 47
101 79 47
98 78 43
97 76 46
96 75 47
98 78 42
96 76 42
99 78 46
93 72 45
86 68 40
90 72 39
85 65 43
64 49 34
64 46 40
62 46 36
66 48 40
66 49 40
67 50 40
66 49 39
61 45 38
68 50 43
66 49 37
70 52 42
68 50 39
62 47 36
71 52 43
70 50 45
66 49 39
68 50 42
67 50 39
66 48 40
67 50 39
72 52 44
62 46 36
63 48 35
69 51 41
72 53 42
67 50 38
74 55 44
70 52 41
70 52 42
68 51 40
74 55 44
74 55 43
65 49 37
69 51 40
72 54 40
68 51 39
66 49 39
72 54 41
68 50 41
68 50 41
66 50 38
67 50 38
67 50 37
72 54 42
71 52 43
66 49 38
70 53 38
72 53 43
65 48 40
72 53 44
72 53 43
73 55 42
71 53 41
69 52 39
70 52 42
63 48 35
70 51 43
69 51 40
70 52 40
67 50 37
72 53 43
70 52 41
68 51 40
70 52 41
75 55 46
64 48 37
72 53 44
72 52 45
71 53 42
69 51 41
64 47 40
64 48 36
68 50 39
68 50 42
67 50 38
61 46 34
63 47 36
67 49 40
68 49 43
67 49 41
60 45 32
64 47 38
66 49 39
72 53 42
64 47 39
65 49 34
61 45 35
69 53 35
87 67 42
87 69 40
87 68 40
96 76 44
89 69 42
97 75 47
88 68 42
88 69 42
89 70 42
103 82 46
101 80 45
100 80 44
99 77 47
108 84 51
108 86 45
98 78 42
105 82 49
106 82 53
111 88 50
107 84 49
105 82 49
106 83 50
103 82 45
111 88 50
110 87 47
109 86 47
112 89 48
114 93 44
112 89 49
113 89 49
109 86 49
114 89 52
112 89 49
111 88 50
114 92 47
116 92 52
106 83 50
117 93 52
114 91 48
112 89 51
118 95 50
109 86 50
117 94 49
113 89 53
115 92 48
113 89 50
111 89 46
118 95 48
121 96 51
115 91 50
117 92 53
116 92 52
116 91 52
114 90 54
119 96 49
111 88 49
117 93 52
120 96 49
114 90 53
118 95 49
118 94 49
118 94 50
117 93 51
118 94 52
119 95 50
117 93 51
121 96 54
117 91 57
118 94 53
120 96 50
119 95 50
117 92 53
116 92 50
118 94 52
119 94 53
118 93 54
116 91 54
122 96 53
119 96 48
122 97 54
117 93 51
117 92 54
120 95 53
119 94 54
121 95 55
119 94 54
121 96 53
119 93 55
123 99 50
122 98 51
122 97 51
122 97 52
120 95 54
123 98 53
120 94 56
122 96 54
124 100 51
117 92 55
122 97 52
125 102 48
122 97 52
118 93 53
121 96 53
121 96 53
120 95 54
120 95 53
120 94 56
121 95 54
117 91 57
120 95 53
118 93 55
123 97 53
121 96 53
123 98 52
120 95 52
124 100 51
120 95 56
123 98 52
122 96 54
122 96 55
120 94 55
119 93 56
121 95 55
121 95 55
119 93 58
123 98 53
119 93 56
121 96 55
119 94 55
120 94 55
122 97 52
121 95 56
122 97 52
124 99 52
121 95 56
122 97 53
121 96 53
120 94 58
120 94 55
120 95 55
123 99 51
122 98 51
122 96 54
123 97 54
123 98 53
119 92 59
123 97 54
119 93 55
122 97 53
123 98 53
121 95 57
120 94 55
121 95 55
122 97 54
123 98 53
121 95 56
122 96 54
120 96 52
122 97 52
124 100 52
124 99 52
119 94 53
120 94 56
124 100 50
119 93 57
124 99 53
122 97 53
121 95 55
119 94 54
123 98 52
119 93 58
123 98 53
123 97 54
123 98 52
122 97 53
122 96 54
120 94 55
124 99 52
123 98 53
119 93 58
122 97 53
123 99 51
122 97 53
117 92 54
120 95 54
123 98 53
121 97 50
121 96 54
124 99 52
121 96 53
122 96 54
123 98 52
121 95 53
120 94 55
122 97 53
118 93 55
121 96 54
119 94 54
121 96 54
121 95 56
120 94 57
122 97 53
122 98 50
123 98 54
124 100 51
121 95 56
118 93 55
123 98 52
121 96 53
123 98 51
119 94 54
122 97 52
118 93 53
120 94 55
120 95 55
119 94 52
121 97 53
120 95 54
119 95 52
119 94 52
122 97 53
122 97 52
118 93 53
118 93 53
119 93 55
119 94 53
116 90 57
122 97 52
120 96 52
119 93 56
120 95 53
120 95 54
122 98 51
121 96 52
115 90 54
118 93 52
121 96 53
117 93 51
118 92 54
123 98 53
120 95 55
121 98 49
117 93 51
117 92 53
119 95 52
120 95 53
116 92 52
116 92 50
117 93 51
118 93 53
117 91 54
117 93 51
115 91 52
113 90 48
113 90 50
120 95 53
114 90 52
119 94 55
116 91 52
115 92 49
110 86 52
120 95 53
118 94 51
119 94 53
115 92 49
115 91 52
116 91 51
115 90 52
112 89 47
113 90 48
118 94 49
112 90 47
117 94 49
113 90 51
111 88 51
111 87 52
116 91 52
111 89 47
114 90 50
111 89 47
113 89 50
111 87 50
108 84 52
118 95 48
106 83 47
108 85 49
98 78 42
108 87 45
103 82 45
112 89 47
110 88 48
104 81 50
108 86 47
105 82 50
105 83 47
97 76 45
105 83 46
101 79 48
106 84 46
107 85 46
103 81 47
100 79 45
93 72 45
96 77 40
101 78 50
98 75 52
92 71 45
98 76 49
96 75 46
93 73 42
87 67 42
92 72 42
81 62 42
63 47 35
63 47 36
62 46 37
61 45 36
68 50 41
66 50 38
62 45 39
63 47 36
64 48 35
64 48 37
65 48 38
59 44 34
72 53 43
67 49 39
68 50 41
69 51 40
65 49 37
69 51 41
66 49 38
66 48 42
68 51 39
69 52 38
74 53 48
73 53 45
67 50 38
68 50 39
70 52 41
62 45 38
72 53 43
70 52 41
67 50 40
70 52 40
70 52 42
69 52 38
69 50 41
69 52 38
68 50 41
66 48 40
63 47 37
71 54 39
67 51 38
68 51 37
69 51 41
65 48 38
68 50 39
64 49 35
67 50 36
70 52 42
72 52 45
67 50 39
67 49 41
69 51 42
71 53 40
69 50 43
67 50 39
71 53 42
70 52 42
69 51 42
69 51 43
68 50 41
68 50 39
64 47 38
68 49 43
72 53 43
69 50 42
65 48 39
65 49 37
72 53 41
71 52 43
66 49 38
69 52 38
70 51 45
63 46 38
63 48 35
67 50 38
73 53 46
64 47 36
69 52 39
69 50 43
64 48 35
65 48 38
69 51 41
63 48 34
65 48 40
58 44 31
67 51 36
84 66 39
81 63 40
93 72 45
93 72 44
100 79 42
93 72 46
89 69 43
95 73 47
94 73 45
98 77 45
96 77 38
102 81 46
101 79 48
96 74 48
106 83 48
105 82 50
105 83 49
102 79 48
110 87 47
105 83 48
102 79 50
104 81 47
112 89 48
103 81 47
105 83 49
106 85 45
107 84 48
111 87 52
107 85 49
109 86 50
112 88 51
113 89 51
116 93 49
116 93 48
113 90 49
110 87 49
111 89 47
116 92 51
111 89 46
113 89 53
115 92 49
110 86 50
110 87 50
112 89 51
115 90 52
113 91 48
112 88 50
116 91 51
117 93 52
117 94 50
115 91 50
113 90 48
118 94 49
117 92 55
119 96 47
118 94 50
114 89 53
116 92 51
115 91 49
121 98 47
118 94 51
119 95 51
120 97 49
118 94 51
118 94 51
118 93 53
119 94 52
121 97 50
121 96 52
118 92 56
119 96 49
119 94 52
119 95 49
122 98 51
121 96 52
119 94 52
120 96 51
124 100 49
116 92 50
121 96 53
120 96 51
121 96 53
117 93 50
119 93 54
113 90 48
119 94 53
120 95 53
122 98 52
122 99 48
119 94 53
121 96 55
115 89 56
120 95 53
119 94 53
118 93 55
124 99 51
119 94 54
120 94 56
120 96 52
122 96 54
123 98 51
119 94 54
122 97 52
121 96 53
120 96 51
123 98 52
120 95 55
122 98 51
117 92 53
121 96 54
123 97 54
120 95 54
119 94 54
121 97 52
121 96 53
117 92 55
120 95 55
121 95 55
120 95 53
123 97 54
119 93 55
123 98 52
119 94 54
122 97 54
123 98 54
121 95 55
122 96 54
121 95 56
124 99 51
121 95 56
123 98 53
121 96 55
121 96 55
123 97 53
121 96 53
120 95 53
121 95 56
122 96 54
121 96 52
120 94 57
122 97 53
122 96 54
120 96 52
120 95 55
123 98 53
123 98 53
122 96 55
123 98 52
121 96 53
123 98 51
123 97 54
123 97 54
121 95 55
123 99 51
120 94 56
119 93 57
122 96 54
123 98 54
122 96 55
121 96 53
123 98 51
123 97 54
122 97 54
122 97 52
123 98 53
121 95 55
121 96 52
119 92 57
122 97 52
121 95 55
121 95 54
122 97 53
121 96 54
124 100 52
121 96 53
119 94 54
124 98 53
121 95 55
118 92 55
121 96 55
121 95 56
123 98 53
123 97 54
123 99 52
119 94 53
120 93 58
124 99 52
121 97 52
123 98 54
121 96 54
125 100 51
120 94 57
118 94 53
121 95 56
123 98 51
120 93 57
121 96 51
123 98 53
125 100 51
116 91 54
118 92 55
121 96 52
118 93 53
121 96 53
123 98 52
119 94 55
121 95 57
121 96 52
122 97 53
119 94 56
124 100 51
124 100 50
120 95 53
124 99 51
121 96 52
118 93 55
120 95 52
119 94 54
119 93 54
121 96 54
121 96 53
122 97 54
121 97 50
119 95 52
120 95 53
118 93 53
118 93 52
122 97 52
117 92 54
120 94 55
118 93 54
121 97 49
120 95 55
119 94 53
119 94 51
120 96 49
122 99 49
120 95 55
115 91 51
121 96 52
119 94 54
116 91 55
115 92 50
120 95 54
117 92 54
120 96 50
122 99 49
121 97 51
121 96 53
122 97 51
114 89 52
116 92 49
114 89 54
116 93 50
113 90 50
120 97 48
114 90 51
114 90 50
116 92 51
121 97 49
116 90 55
115 92 49
117 94 49
117 94 49
117 92 52
111 87 51
114 90 51
113 89 50
115 92 49
111 88 48
107 84 49
112 89 48
114 91 49
112 88 51
112 88 54
116 92 51
115 91 50
109 87 47
111 88 47
111 88 48
111 88 50
110 86 50
102 82 43
116 91 52
105 82 50
107 84 49
110 88 46
96 76 42
108 86 47
110 87 47
103 81 48
106 83 50
104 82 48
98 76 49
106 84 47
103 82 45
97 77 41
104 81 49
99 78 46
93 74 41
102 81 45
99 79 44
101 80 45
99 79 43
92 72 42
94 73 45
95 74 46
87 69 40
90 70 44
92 73 43
86 66 43
80 61 43
87 67 44
84 65 44
76 59 38
67 51 35
64 47 37
64 48 37
63 47 37
64 48 36
60 44 36
67 49 40
66 49 39
65 49 35
63 47 35
64 47 38
65 49 37
66 49 38
62 46 36
64 48 37
70 52 43
60 45 35
65 49 37
59 44 35
68 50 39
65 48 39
68 51 39
69 51 41
71 53 42
65 48 39
72 52 45
66 49 39
66 49 37
71 52 43
69 51 42
68 50 39
70 53 40
65 49 37
69 52 40
72 52 45
64 48 36
63 47 36
66 49 40
69 50 44
71 53 43
65 48 40
68 51 38
70 52 43
71 52 42
69 52 37
69 51 42
68 51 39
66 48 40
68 51 41
69 51 41
69 51 41
64 48 38
64 47 39
69 52 40
61 45 34
62 46 35
62 48 33
68 50 41
66 49 38
69 51 42
71 53 40
71 53 41
68 51 40
64 48 36
68 51 40
65 48 37
66 49 37
64 47 37
69 51 40
70 52 41
64 48 36
64 49 34
62 46 36
61 45 38
65 48 38
63 46 38
64 48 38
61 46 34
63 47 37
67 49 40
66 48 41
60 45 35
61 46 34
69 52 40
76 59 38
82 62 46
95 73 48
87 67 45
94 73 45
92 71 45
98 75 49
91 71 44
92 71 45
86 65 47
91 71 43
99 78 46
93 72 44
84 66 41
104 81 49
103 80 48
95 75 43
101 79 47
100 78 48
100 80 43
105 83 47
107 85 46
101 79 48
100 79 47
108 86 45
107 84 49
104 83 45
107 84 49
100 78 46
106 83 49
103 81 47
113 91 47
108 85 50
105 82 48
112 89 49
110 87 49
108 85 50
113 90 48
104 82 48
112 90 47
114 91 48
116 93 48
114 91 48
109 87 46
119 95 52
113 88 53
107 84 49
112 90 46
115 91 51
114 91 49
111 87 51
121 97 48
116 92 52
108 85 49
114 90 51
118 94 50
114 90 51
116 93 48
117 93 49
117 94 47
114 90 53
118 93 52
113 90 49
119 95 51
114 89 52
115 91 51
123 100 46
114 90 50
120 95 53
120 97 48
116 92 49
121 98 49
117 92 54
116 91 55
115 91 52
119 95 51
115 90 54
120 96 49
117 92 53
121 97 51
118 92 54
120 96 52
119 94 53
117 93 53
121 96 51
118 94 51
122 98 51
121 95 54
120 94 55
125 101 50
121 97 51
122 98 51
119 93 55
118 92 56
121 96 51
118 94 52
120 95 53
121 96 53
120 96 48
120 94 55
120 95 54
124 100 50
121 97 51
119 93 58
120 95 53
123 98 52
122 96 53
122 96 55
121 95 54
120 96 51
120 94 55
122 97 51
121 97 51
123 99 51
121 97 51
121 96 54
121 96 54
124 99 53
121 96 54
123 99 48
122 97 54
122 97 52
123 98 52
123 98 52
122 96 54
122 96 56
123 98 53
122 96 54
123 97 54
120 95 55
120 94 56
122 97 53
121 96 53
122 97 53
122 97 54
122 97 54
122 96 55
117 92 53
120 94 55
124 100 51
123 98 53
119 93 56
123 99 51
121 96 54
121 95 55
121 96 55
121 96 54
120 94 53
123 97 54
120 95 54
121 96 54
120 95 52
119 93 56
120 94 56
122 97 53
121 96 55
122 96 54
121 95 55
122 98 53
120 94 56
120 94 55
120 95 54
122 97 54
123 98 53
123 98 53
120 94 56
124 99 52
118 92 56
120 95 54
123 99 50
122 97 54
124 100 51
120 95 56
122 96 55
123 99 51
122 97 54
118 93 54
121 95 54
121 96 52
122 97 53
120 95 53
123 98 53
120 95 55
121 95 56
118 92 56
121 96 54
121 96 53
122 97 53
122 97 53
120 95 52
120 95 55
123 98 53
119 94 56
123 97 54
121 96 53
120 95 53
119 95 51
125 100 51
119 94 56
120 95 53
124 99 50
121 94 57
123 99 49
120 95 52
120 96 50
123 98 52
124 99 52
121 96 53
119 94 53
121 96 54
120 94 55
119 95 51
119 94 54
119 95 52
118 92 56
123 98 53
119 94 53
121 96 53
117 93 51
122 98 51
123 98 53
119 95 52
119 94 54
121 97 52
121 96 55
120 96 51
117 93 50
115 91 54
116 90 55
118 95 49
118 93 55
118 93 53
121 96 53
122 98 52
118 94 52
121 97 50
119 94 53
117 92 52
122 99 47
119 94 53
120 95 51
116 91 54
118 94 51
122 99 46
118 93 53
119 95 51
120 96 51
119 94 52
117 93 50
121 96 53
120 97 47
118 93 55
115 92 50
118 93 51
117 92 53
118 94 50
114 89 52
118 94 50
115 90 51
118 93 51
114 92 48
117 93 52
110 87 49
115 91 51
113 89 52
115 92 50
114 90 52
114 90 52
118 95 47
112 89 50
115 90 53
115 91 50
112 89 47
116 93 49
110 87 49
108 86 48
111 88 50
108 86 48
116 93 51
106 83 50
113 89 51
117 94 47
111 88 49
102 79 51
111 87 51
98 77 45
106 84 47
104 82 47
104 81 50
105 85 43
104 82 46
100 79 44
100 78 46
99 77 47
100 79 47
99 78 44
103 82 45
91 70 46
102 79 49
95 75 44
95 74 47
98 77 44
82 64 40
90 70 43
89 70 39
92 73 42
88 70 39
95 74 45
86 66 44
84 66 41
81 63 37
82 62 44
92 72 43
78 60 40
88 69 40
91 71 45
74 56 39
69 52 39
63 47 36
55 41 30
56 42 32
62 46 35
67 50 39
62 46 38
66 49 38
66 50 36
63 47 37
61 46 35
64 48 36
67 50 39
62 46 37
65 48 38
64 48 36
73 53 46
71 52 42
65 48 38
64 47 37
66 49 39
63 46 37
65 48 38
64 47 37
63 47 37
68 50 41
67 49 41
71 52 43
66 49 39
69 52 38
67 49 39
68 50 41
67 49 41
72 53 44
65 48 38
69 52 38
68 51 38
65 49 36
68 50 40
63 48 35
71 51 44
61 46 33
67 49 42
64 48 37
66 49 40
64 47 37
67 50 39
74 55 45
70 51 43
66 49 39
68 50 41
67 50 39
67 49 39
64 48 37
70 51 43
64 48 36
67 49 39
67 50 38
62 45 38
72 54 41
68 50 41
65 48 39
65 48 39
64 47 37
62 46 39
68 50 41
64 46 39
66 49 38
68 49 42
70 51 43
60 45 35
65 48 39
66 48 39
67 48 43
61 45 36
60 44 38
71 52 45
64 47 39
58 43 33
66 50 37
65 47 41
60 44 35
79 61 42
83 64 42
83 63 43
93 72 44
84 64 44
85 66 41
81 63 39
86 66 42
93 73 42
87 68 40
99 77 49
88 68 44
98 76 48
101 79 46
96 74 49
93 74 40
93 72 46
96 75 45
102 81 45
97 76 44
100 78 48
109 86 50
97 77 42
101 79 48
106 83 50
96 75 46
104 83 44
102 80 50
110 87 49
109 85 51
102 81 47
105 82 50
111 87 50
113 90 49
111 88 49
113 89 49
108 85 49
116 93 50
110 87 50
111 87 49
112 88 52
111 89 48
114 90 50
108 85 49
117 93 50
112 89 51
111 88 50
108 85 50
115 90 55
115 91 49
115 90 53
110 86 51
113 90 49
112 88 51
118 94 51
116 91 52
116 92 50
120 95 52
116 92 49
122 98 49
114 90 50
115 91 52
115 92 48
117 94 49
118 93 52
116 92 50
111 86 54
121 98 48
118 94 51
121 97 50
116 92 52
118 94 52
115 90 53
122 97 51
120 96 51
114 91 50
120 96 50
122 98 50
120 95 53
119 95 52
117 92 53
119 95 53
115 90 53
119 94 52
121 97 51
119 95 49
118 93 53
120 96 51
117 90 59
120 95 53
120 95 53
120 96 52
120 96 51
116 91 54
120 96 50
122 97 53
119 94 53
122 99 49
122 97 53
118 94 53
119 94 54
122 98 52
120 96 50
121 95 56
120 96 52
121 97 51
121 96 52
121 96 53
121 96 52
121 95 54
119 94 52
122 97 52
122 96 55
122 96 55
118 94 52
122 98 51
121 95 55
117 92 54
122 97 52
121 95 54
120 95 55
122 97 54
125 100 50
121 96 53
122 97 53
122 96 54
121 95 55
122 97 54
124 100 50
122 97 53
120 95 53
123 98 53
122 97 53
121 97 52
122 97 53
121 95 56
121 96 55
122 96 55
120 95 53
123 97 54
117 91 54
119 94 54
121 96 55
120 94 57
121 96 55
121 97 50
123 99 52
124 100 52
122 96 55
124 100 52
120 95 54
122 96 54
119 93 55
120 95 53
121 95 55
121 96 55
120 94 54
119 94 56
125 101 50
120 95 55
122 97 54
125 100 51
121 96 54
122 97 53
123 98 52
122 97 54
121 96 54
119 94 54
121 96 53
123 97 53
122 97 52
121 95 54
119 93 55
120 95 53
120 95 51
122 98 50
120 93 57
121 96 54
121 97 52
120 95 54
123 98 54
121 95 54
122 97 55
121 96 53
125 101 50
122 97 53
122 96 54
123 99 51
122 96 54
123 98 52
120 94 55
121 96 54
121 96 54
121 96 53
122 96 56
120 95 55
121 97 50
120 95 53
121 97 50
116 90 57
120 97 49
121 96 53
121 95 56
124 99 51
120 95 54
118 94 52
119 94 53
122 97 54
119 94 53
119 94 54
120 96 52
119 93 54
119 94 52
122 97 53
117 92 54
116 91 53
118 93 54
116 94 46
123 99 51
121 97 51
120 96 52
120 95 53
119 93 55
121 96 52
120 95 54
118 93 53
118 93 53
115 90 55
117 92 53
116 91 52
117 92 54
117 92 52
117 91 57
117 93 50
116 93 49
121 96 52
118 95 50
118 93 55
115 91 51
117 91 56
118 92 57
118 95 48
117 96 43
119 95 52
115 91 52
115 92 49
115 90 53
119 95 50
117 94 50
118 93 53
116 90 56
117 93 51
117 93 51
120 96 50
114 89 52
113 89 50
118 93 54
118 93 52
118 93 51
112 88 52
113 89 52
113 89 52
111 88 48
115 91 49
121 97 48
107 85 48
119 96 46
117 93 50
113 90 50
117 92 52
112 89 48
112 88 53
107 85 47
110 88 47
113 88 53
104 82 47
114 90 52
112 88 52
109 86 48
113 90 49
113 89 50
115 92 47
108 86 47
107 86 45
105 82 49
104 83 46
104 81 50
104 82 48
100 79 46
106 84 45
107 84 48
105 83 47
96 75 46
99 77 47
101 80 47
101 80 44
97 76 45
102 80 46
102 80 48
103 81 47
107 84 48
102 80 48
93 73 43
92 72 44
88 69 40
93 73 44
87 68 39
91 72 39
88 68 45
88 68 44
89 69 43
87 67 44
88 68 43
79 61 39
88 68 44
77 58 41
81 62 42
83 64 41
72 55 39
69 52 38
59 44 34
60 44 37
60 44 37
60 44 35
67 50 39
64 48 37
60 45 33
58 44 32
65 48 41
68 51 39
62 45 38
68 50 41
65 48 37
68 49 42
63 46 38
63 47 38
64 46 41
63 47 37
70 51 41
63 48 35
60 45 35
64 48 36
61 45 37
68 50 40
74 54 47
65 48 37
66 50 37
69 51 40
60 45 33
67 50 38
63 47 35
64 49 34
65 48 39
71 51 44
67 49 40
67 51 37
65 48 40
65 48 38
67 50 37
72 54 39
63 47 35
68 50 43
68 50 43
71 51 46
69 51 41
63 47 35
68 50 41
63 47 37
70 51 44
68 50 41
73 53 44
65 49 37
65 49 38
66 50 37
72 52 44
63 47 37
64 48 37
68 49 42
60 45 35
67 49 41
64 48 38
61 45 36
74 55 44
67 50 39
59 43 36
65 48 38
61 46 35
66 49 38
64 47 40
63 46 40
64 48 37
67 51 38
63 47 36
64 48 34
61 44 37
66 48 40
59 44 34
69 51 42
70 54 36
68 51 38
82 64 41
82 65 37
69 52 37
73 55 40
88 68 42
76 58 39
86 67 41
81 63 39
81 62 42
88 69 42
89 68 47
91 71 43
87 68 42
95 74 45
93 73 42
100 79 44
97 77 42
99 77 46
101 78 48
101 80 45
100 80 44
96 75 46
103 81 47
110 87 47
104 83 45
104 82 45
112 88 51
103 81 47
103 80 48
106 85 43
107 85 49
100 80 42
108 85 49
108 84 50
106 83 48
104 83 44
105 82 49
112 89 48
106 84 46
108 86 47
109 86 48
110 85 56
114 90 50
111 88 49
113 90 48
108 85 50
112 89 49
110 87 49
113 89 51
112 88 49
112 90 47
117 92 53
115 91 50
118 94 49
111 88 50
116 93 49
115 90 52
116 92 52
118 92 54
115 90 52
119 96 49
113 90 50
118 94 51
117 94 48
115 92 49
120 96 50
115 91 53
119 95 52
117 93 51
116 92 52
119 94 52
119 94 51
120 96 50
116 91 52
117 94 49
122 97 52
119 97 46
117 93 52
116 92 50
122 97 53
120 94 56
120 95 51
118 93 54
120 95 54
118 92 56
122 98 51
117 92 54
116 92 50
124 100 51
119 93 55
119 95 49
118 94 53
119 95 52
119 94 54
120 95 54
118 93 55
117 91 57
120 96 52
120 95 55
120 96 52
121 97 52
122 99 49
118 91 58
120 96 52
122 97 54
117 93 53
120 94 55
120 96 52
124 100 50
121 96 52
117 91 57
121 95 57
121 95 54
120 94 54
117 91 56
121 96 54
126 102 48
122 97 52
122 97 53
125 100 51
120 95 53
124 100 50
120 94 55
119 94 55
121 96 54
120 96 50
124 99 51
122 96 55
123 98 54
119 93 56
123 98 53
122 96 54
119 94 55
123 98 53
119 95 52
120 95 52
121 96 54
124 99 52
120 95 55
125 100 51
122 97 55
120 95 53
120 95 54
124 99 53
123 98 52
121 96 55
123 98 52
117 92 53
121 95 57
123 98 54
121 95 54
123 98 53
120 95 54
118 93 54
123 97 54
123 98 52
121 95 56
120 94 57
120 94 55
121 96 54
123 98 53
117 92 56
122 97 53
121 95 55
123 98 53
122 96 54
120 95 52
124 100 52
121 95 54
123 98 53
120 94 55
121 95 54
120 95 54
122 97 54
121 95 54
122 97 53
120 94 56
121 96 53
121 95 56
123 99 51
123 97 54
122 96 53
124 99 52
121 95 54
121 96 53
122 98 52
120 95 56
120 95 53
121 96 55
123 97 54
123 98 54
124 100 51
120 94 54
118 92 55
119 94 55
124 100 49
120 94 55
118 92 57
122 96 54
120 95 54
123 97 54
121 97 50
122 98 52
120 95 53
119 94 54
122 96 55
121 95 56
124 100 49
122 98 49
117 92 55
121 96 52
122 97 53
120 95 55
121 95 55
116 92 52
121 96 54
119 95 52
118 94 51
123 98 50
113 88 53
119 95 52
116 92 51
121 98 46
120 95 53
116 91 52
120 97 49
117 92 51
120 96 50
122 97 51
121 96 52
122 96 54
117 93 52
120 95 53
121 96 51
123 99 50
117 93 53
120 95 52
119 94 54
120 97 49
117 93 53
119 94 53
120 96 49
111 87 51
117 93 51
121 97 50
117 92 53
112 89 50
115 90 53
120 96 49
119 94 54
111 86 53
118 93 55
115 91 50
110 86 52
119 95 51
115 91 52
118 94 50
115 91 51
110 86 52
112 90 47
114 90 52
118 94 51
111 87 51
112 89 48
113 89 50
117 94 49
113 89 51
116 93 48
114 89 55
120 96 51
113 91 45
114 89 54
115 89 55
110 88 47
106 84 46
116 93 50
109 86 51
112 89 48
113 90 48
106 84 46
110 87 48
110 87 50
100 79 45
111 88 47
107 84 50
116 93 47
109 86 49
106 84 47
105 81 51
106 85 47
104 83 45
100 78 48
102 81 46
104 82 47
103 80 50
94 73 45
90 70 45
101 79 46
103 80 50
94 73 46
96 74 48
81 63 39
87 68 42
89 69 44
90 70 42
86 66 44
95 74 45
94 72 46
89 69 45
82 64 39
91 72 41
74 57 36
81 63 41
79 60 43
85 66 43
83 64 43
79 61 38
77 59 39
83 63 43
67 51 36
76 58 42
61 45 36
60 44 34
58 43 34
61 46 34
61 47 33
62 46 36
60 45 34
62 45 38
63 46 37
65 48 39
58 44 31
61 45 35
64 48 36
62 47 35
65 48 39
67 49 41
62 46 35
65 48 38
65 48 38
67 49 41
59 44 35
67 49 40
65 48 38
69 51 41
66 49 39
72 51 47
62 46 36
62 47 34
59 44 34
64 47 38
68 50 40
67 49 40
65 48 38
71 52 45
66 48 41
67 50 39
66 48 40
65 48 37
62 47 35
62 47 34
59 44 34
66 49 38
58 43 33
63 46 37
63 46 38
65 49 35
60 45 33
65 49 36
59 44 34
66 49 38
62 46 36
68 50 41
67 49 41
65 48 37
57 42 33
64 48 36
65 49 38
64 47 40
70 53 40
66 48 40
67 49 41
66 48 40
65 49 38
64 47 36
58 43 34
62 45 37
66 49 39
66 49 38
64 48 36
60 45 35
66 48 39
63 47 38
60 44 34
58 44 32
57 42 33
59 44 34
70 53 38
83 65 39
77 58 44
74 57 37
73 55 38
83 64 42
81 62 42
86 66 44
84 66 40
83 64 41
80 62 38
91 70 46
86 65 45
92 71 44
88 68 44
91 71 44
88 67 47
98 77 46
91 72 41
94 73 45
96 75 45
99 77 47
93 73 43
98 76 46
96 76 43
98 76 47
105 82 51
101 79 47
94 73 46
102 79 50
101 78 49
106 83 51
104 83 44
106 83 50
97 77 42
107 85 48
114 90 52
104 83 43
110 87 49
112 89 50
112 89 48
110 87 49
106 84 49
108 86 49
110 87 49
113 90 49
107 84 49
117 93 50
116 93 48
107 85 48
113 91 46
113 89 52
116 93 47
107 85 47
109 87 48
117 94 47
114 90 50
116 92 52
117 93 50
121 98 48
116 91 53
116 91 53
118 93 54
114 91 47
116 92 51
113 88 53
115 90 54
113 90 50
113 89 52
117 93 54
118 95 50
117 93 51
115 91 52
119 94 52
121 97 50
114 90 51
122 97 53
119 94 53
117 92 53
121 96 53
122 98 49
119 94 53
117 93 51
114 90 52
116 89 59
116 91 53
115 92 49
118 93 52
118 94 50
121 96 53
118 94 50
120 97 48
122 97 53
118 94 51
120 95 52
120 95 53
116 91 52
119 94 53
119 95 50
117 93 52
117 94 49
121 97 52
121 96 53
120 95 52
122 97 54
121 96 53
122 96 55
120 95 52
118 93 53
117 93 52
121 97 50
121 97 49
120 96 52
122 96 54
117 92 52
121 96 53
122 97 52
120 95 53
124 99 52
121 95 55
116 91 54
121 96 54
122 97 52
120 95 54
119 95 52
119 93 56
120 94 55
119 93 55
121 96 52
120 95 55
120 95 53
120 94 56
119 93 55
122 96 54
122 97 54
116 89 59
121 95 54
119 92 58
123 98 53
122 97 53
120 94 55
123 97 54
121 96 54
123 98 52
121 96 53
121 95 55
119 94 52
116 90 58
121 95 54
118 93 56
120 96 51
122 97 54
120 94 56
119 94 53
121 95 56
120 93 57
122 97 52
121 95 55
122 96 56
124 99 52
121 96 53
125 101 51
123 97 54
122 97 53
125 100 50
120 95 52
121 96 53
122 97 53
124 99 53
120 95 53
122 97 54
121 97 52
121 96 53
118 92 55
120 95 53
122 97 53
123 98 53
120 94 55
121 95 57
120 94 55
121 96 53
122 97 54
123 98 54
123 100 48
120 95 54
119 95 52
120 96 50
123 98 52
120 94 56
120 94 57
119 93 57
122 97 52
121 95 56
118 92 57
117 92 54
121 96 53
121 95 54
121 97 51
120 94 55
122 97 53
123 99 51
119 94 53
121 96 53
121 95 55
124 100 50
123 98 52
123 98 53
118 93 54
122 97 51
121 96 53
121 96 53
120 94 55
121 96 53
118 94 53
119 94 53
122 97 53
119 93 55
118 93 53
118 93 53
117 92 53
119 94 53
116 93 49
117 92 54
121 97 48
120 95 52
120 96 51
122 98 50
117 90 60
116 92 51
118 94 50
120 95 53
122 97 52
117 92 54
120 97 47
119 94 55
118 92 55
116 92 51
119 94 54
116 91 52
117 93 52
120 96 49
119 96 49
118 95 47
119 95 49
118 94 51
119 94 53
116 91 53
116 93 47
116 92 51
116 93 50
120 96 50
114 91 46
118 93 51
116 92 50
116 92 50
114 91 48
115 93 47
117 93 51
113 88 53
114 91 49
109 86 50
111 88 48
117 92 51
113 89 51
113 89 51
113 89 49
114 90 51
114 89 52
116 92 51
118 95 48
112 88 50
109 86 49
113 90 48
108 85 48
107 85 48
110 86 52
114 91 49
113 91 47
105 83 48
112 88 50
116 93 50
108 86 49
110 86 51
101 79 46
101 80 44
104 79 54
108 86 48
103 82 44
106 84 46
106 84 47
106 84 46
100 79 46
106 82 51
105 82 50
105 83 48
103 82 46
103 82 43
103 81 46
103 81 45
93 72 47
99 78 46
93 73 42
98 75 50
97 76 45
89 69 41
96 76 43
95 74 44
95 73 48
88 69 42
87 68 41
84 65 42
86 68 38
81 63 40
80 62 40
79 62 38
78 60 40
84 66 40
77 59 39
78 60 40
72 56 36
75 57 39
67 51 36
67 52 35
72 54 40
69 52 40
61 46 35
58 43 34
57 42 35
57 44 28
59 44 34
60 44 37
60 44 35
59 44 34
63 46 39
60 44 35
62 46 34
59 44 36
63 47 37
65 48 39
63 47 35
55 40 33
63 47 37
65 48 38
60 45 33
64 48 36
61 46 34
64 47 39
63 46 39
64 47 38
68 50 40
68 50 40
61 45 36
59 44 33
67 49 40
64 47 39
62 45 38
65 48 38
62 46 37
66 50 37
69 51 39
69 50 41
62 46 35
68 50 38
63 47 36
61 46 36
56 43 29
64 47 38
62 46 36
67 50 39
69 51 41
63 46 38
61 46 35
69 51 41
70 52 42
65 49 38
64 47 39
63 47 35
60 45 35
63 47 37
61 45 36
61 45 37
64 47 38
62 47 33
60 45 34
64 47 39
57 43 33
60 45 34
62 46 37
62 46 37
62 46 37
58 43 36
58 43 34
61 45 36
59 43 37
56 41 32
54 40 31
57 42 34
57 42 34
66 49 41
64 48 36
77 59 40
77 59 39
71 54 37
70 53 37
71 54 37
75 58 38
78 59 42
73 55 41
78 60 39
85 67 37
86 66 45
88 69 43
80 62 41
89 68 47
77 58 42
94 75 42
89 69 44
96 76 43
98 77 45
98 78 43
92 73 41
94 74 43
99 79 44
92 71 45
106 83 50
92 72 44
101 80 45
101 79 48
94 74 45
99 78 44
106 85 45
103 83 44
104 83 46
101 79 46
102 80 47
110 88 46
107 85 45
103 81 47
107 84 49
109 86 50
105 83 45
104 83 45
105 84 45
110 86 50
103 81 47
110 86 50
113 90 49
112 89 51
118 94 49
107 86 44
115 90 54
112 87 52
109 86 49
113 90 48
111 88 50
112 88 51
109 85 52
113 90 50
118 94 49
116 92 52
112 88 52
112 88 51
107 83 51
115 91 50
111 87 52
114 89 54
111 87 51
121 96 52
117 93 50
115 90 54
113 91 48
118 95 48
115 91 49
118 93 53
117 93 52
113 89 50
120 94 55
118 93 52
117 92 53
115 91 53
112 88 52
119 95 51
118 93 54
122 98 51
120 96 50
117 92 54
119 95 52
118 92 56
120 95 52
119 95 51
117 93 53
118 92 55
119 93 55
119 93 54
119 94 52
118 91 58
116 91 53
119 94 53
120 95 54
122 98 51
119 94 53
121 96 53
119 94 53
118 94 50
121 96 52
119 95 52
118 93 53
119 95 52
116 92 52
120 94 54
120 95 53
123 99 50
118 93 55
119 94 53
118 93 55
121 97 52
121 95 55
120 94 57
122 97 53
120 95 55
123 98 53
120 94 55
125 100 51
124 99 52
121 95 54
120 95 55
123 98 52
120 95 53
120 96 52
123 98 52
121 96 55
123 97 53
121 96 51
121 95 54
121 96 54
123 98 53
119 94 55
119 94 55
121 95 54
121 96 53
122 98 50
122 97 53
120 95 53
123 99 49
117 92 53
121 96 55
122 96 54
120 95 54
123 97 54
125 100 51
120 94 56
122 96 55
122 96 55
122 97 54
121 96 54
120 96 51
122 97 52
117 91 57
120 96 51
120 95 56
123 99 50
121 95 56
120 95 55
123 97 54
121 96 52
121 96 54
121 95 56
123 98 52
122 97 53
118 92 57
120 95 55
121 96 54
121 96 54
120 94 57
119 94 54
123 98 53
118 92 57
123 99 50
122 97 54
125 100 50
121 96 52
122 97 53
121 97 52
119 94 53
119 93 57
119 94 53
123 98 53
121 95 55
124 99 51
122 97 51
120 95 54
116 90 56
120 95 53
122 96 55
122 97 52
122 97 52
122 98 51
120 95 54
118 93 53
119 94 54
121 96 53
123 98 54
117 92 54
119 94 55
123 98 52
121 97 52
122 98 50
119 96 49
121 97 52
121 95 55
124 99 52
123 98 51
120 96 52
120 96 51
121 96 53
118 94 53
115 91 50
122 97 53
116 91 53
116 91 55
122 98 50
121 96 53
119 94 54
121 96 51
116 91 54
120 94 54
121 97 52
120 95 55
117 91 55
118 94 50
123 100 48
117 93 52
119 95 51
121 96 53
117 93 51
116 91 55
115 90 54
119 96 49
118 93 54
121 96 52
118 94 49
117 92 52
116 91 54
118 93 52
120 96 51
120 96 48
114 89 53
118 94 51
118 93 53
121 96 51
119 95 52
117 94 49
115 91 50
116 92 51
116 92 50
121 97 50
116 92 52
118 93 53
115 92 49
114 91 47
111 88 50
112 89 48
112 90 47
113 88 52
119 96 48
115 91 50
112 88 51
115 92 49
108 85 49
111 88 50
112 88 51
108 86 47
117 94 48
111 88 50
110 87 49
112 89 51
109 85 51
103 82 46
108 86 48
110 87 47
113 89 49
107 87 43
100 80 44
103 82 43
110 88 45
103 81 49
113 90 47
110 86 51
110 89 43
106 84 46
101 79 46
96 76 45
102 80 47
102 80 46
104 82 48
98 77 45
101 79 49
95 73 46
97 76 44
91 72 41
93 72 44
98 77 46
88 70 39
89 70 41
93 72 45
91 72 40
92 71 47
86 67 42
82 62 44
86 66 43
92 72 43
86 65 46
79 61 38
84 66 39
73 56 38
82 64 39
79 60 41
72 56 35
71 54 38
71 53 39
69 52 38
65 49 36
76 57 41
65 50 33
64 48 35
70 52 39
60 45 33
53 39 32
59 43 37
57 42 34
59 44 34
57 42 34
57 42 34
60 45 35
60 43 37
63 47 37
66 49 40
62 47 35
60 45 34
66 49 40
61 46 33
56 42 30
60 44 37
58 43 33
61 45 35
62 47 34
63 47 38
64 47 39
58 44 33
62 46 35
61 44 37
66 50 37
62 47 35
63 47 36
66 49 38
64 47 38
64 48 37
56 42 31
62 46 36
61 45 36
64 47 39
63 47 36
65 47 41
66 49 38
60 45 33
59 44 33
63 46 37
63 47 37
65 48 39
62 46 37
67 50 39
65 48 38
63 47 37
66 48 40
62 45 37
63 47 36
66 50 38
60 45 34
66 49 38
68 50 40
64 47 39
64 47 40
65 49 37
61 45 37
57 43 33
58 44 34
67 48 43
61 44 40
62 46 37
63 47 35
60 45 34
57 43 32
63 46 38
56 42 32
62 45 39
49 36 28
54 40 31
61 46 35
66 49 37
66 50 36
68 51 38
61 46 34
75 57 39
65 48 37
68 52 36
79 61 39
86 67 42
78 61 37
79 61 38
81 61 43
85 66 41
79 61 39
82 62 45
98 77 44
84 65 42
89 69 43
89 69 44
90 71 42
88 68 44
96 76 44
92 72 44
91 71 43
91 70 46
94 74 43
99 78 45
93 74 39
99 78 47
99 77 45
100 79 42
100 79 46
98 77 46
109 86 48
102 80 49
101 78 49
110 88 48
103 83 43
98 77 45
108 86 45
115 92 48
107 85 46
105 82 51
107 84 50
112 88 50
113 89 49
103 79 51
105 83 48
110 87 51
111 88 46
114 89 53
105 83 47
112 88 51
118 94 49
106 84 47
116 92 50
111 87 52
113 89 50
119 96 48
114 91 50
119 96 48
114 91 48
116 92 51
113 90 50
115 93 44
114 90 51
116 93 50
119 93 54
118 93 52
112 89 50
116 90 57
111 86 55
110 86 53
118 95 46
106 84 48
111 88 49
114 91 49
119 95 51
121 97 49
120 95 53
116 93 48
114 89 53
115 91 50
116 92 52
113 88 52
115 91 52
118 93 54
116 91 55
117 93 53
117 93 53
110 85 56
119 96 49
121 97 51
115 89 55
122 98 51
119 95 50
118 93 52
116 92 52
120 96 51
115 90 54
118 95 50
122 97 51
116 91 54
122 99 48
121 97 49
118 92 55
119 94 52
120 95 54
118 92 56
119 94 55
120 94 55
119 94 54
121 96 53
122 98 51
119 95 50
120 95 52
122 98 52
122 98 52
116 91 54
121 96 52
122 97 54
120 96 50
120 95 54
121 96 53
121 95 56
121 96 51
119 94 53
122 98 50
118 92 56
118 92 55
122 97 53
123 98 53
121 95 55
117 91 56
123 98 53
120 95 53
123 98 51
118 93 53
123 97 54
123 98 54
120 95 53
121 96 54
122 96 55
120 95 53
122 97 52
120 96 52
121 95 55
123 99 51
119 93 56
120 94 56
123 98 51
125 100 51
120 95 53
123 99 50
124 98 53
123 97 54
121 96 53
120 95 53
120 95 54
119 93 56
120 95 55
121 95 55
120 95 53
122 96 54
121 96 55
121 96 55
122 97 51
122 96 55
121 95 56
120 95 54
120 95 55
121 97 52
119 93 56
121 96 53
122 97 53
121 96 55
120 96 52
122 97 54
117 91 57
116 91 53
125 100 51
123 98 52
120 94 56
121 96 53
123 99 50
120 95 53
120 95 53
121 96 55
119 94 54
119 94 53
121 96 52
121 97 51
120 94 56
121 95 56
122 98 51
122 97 52
122 98 52
122 98 51
122 97 53
117 92 55
124 99 52
121 96 54
118 93 54
121 95 55
122 97 54
126 102 49
119 94 54
120 96 51
119 94 52
119 95 51
120 95 53
117 92 53
119 94 52
114 89 55
115 91 51
122 97 52
117 93 52
120 95 53
118 93 53
115 90 54
119 95 53
120 96 49
113 89 51
116 91 53
115 92 49
118 93 55
119 94 54
115 91 52
119 94 54
117 93 52
121 96 54
120 96 52
121 97 51
120 97 47
112 87 54
120 96 49
120 97 47
113 88 52
121 96 51
120 95 53
114 89 54
118 95 49
115 91 53
118 94 51
116 92 50
120 95 53
115 90 53
114 90 51
115 91 51
116 92 51
116 92 51
117 93 49
115 91 49
113 89 53
117 93 51
113 90 51
115 91 52
113 90 50
117 92 51
114 91 49
109 87 47
113 90 49
118 94 50
115 91 51
114 91 50
119 96 48
115 91 51
116 91 52
108 85 48
111 87 51
113 90 47
115 92 48
112 88 50
111 88 50
111 88 47
108 85 50
110 88 45
108 85 47
113 90 47
107 83 50
112 88 50
111 88 47
106 85 46
105 83 47
101 79 47
109 88 44
107 85 47
107 85 49
110 88 46
108 86 47
104 83 45
100 79 45
97 75 46
100 78 46
102 80 48
104 82 47
104 82 48
99 78 46
94 74 43
97 76 43
95 75 44
84 65 41
104 83 44
101 79 47
97 75 46
94 74 43
90 70 44
94 74 44
87 67 45
83 65 41
89 69 41
92 72 45
83 64 43
88 68 45
92 71 46
83 65 40
72 53 43
79 60 40
75 59 36
71 54 36
68 52 36
64 49 33
71 54 38
82 64 40
65 48 37
68 52 36
60 45 32
64 49 33
58 43 32
60 44 36
55 41 33
52 38 32
53 39 30
60 44 39
61 45 35
56 42 30
63 48 35
59 45 31
62 46 35
58 43 35
63 47 35
61 46 35
62 46 36
63 47 36
58 43 34
64 47 37
59 43 36
62 45 39
57 43 32
55 41 31
62 45 39
64 48 36
56 41 32
62 46 37
60 45 33
62 45 37
59 45 33
62 46 35
64 47 38
58 42 35
62 47 35
61 45 38
66 48 41
58 43 34
64 48 37
63 47 36
62 46 35
61 45 36
60 45 34
60 44 35
65 48 40
59 43 36
61 45 36
61 45 36
65 49 34
61 45 34
60 45 35
61 45 35
62 47 34
64 46 40
64 48 36
64 48 35
64 47 38
54 41 27
64 47 40
60 45 35
58 44 32
59 44 35
62 46 36
62 47 35
60 44 35
64 47 38
58 42 35
58 43 34
55 40 33
54 41 29
54 41 30
56 42 31
57 43 31
63 47 37
63 47 35
65 48 37
62 47 35
74 56 39
80 61 43
74 54 43
72 55 38
69 52 37
75 58 39
71 55 36
79 60 42
79 61 40
81 62 43
82 63 42
80 63 38
78 60 38
81 63 39
94 73 45
87 68 41
94 73 46
89 70 40
99 78 43
87 66 45
97 76 45
94 73 45
100 77 50
95 73 47
90 71 41
94 75 40
97 78 41
103 82 44
96 76 44
100 78 46
95 75 43
108 86 47
103 81 48
104 83 43
108 85 49
98 77 43
112 90 46
114 91 49
104 81 49
99 79 43
105 82 48
101 80 45
114 90 50
111 87 51
108 86 48
105 84 45
104 81 49
112 89 49
112 90 47
109 86 50
113 88 53
108 86 46
112 88 51
110 88 46
117 92 54
114 90 50
112 89 49
118 95 49
115 91 50
112 89 48
115 92 49
111 88 50
109 87 46
119 94 53
115 92 49
115 91 50
114 90 50
112 88 54
120 98 46
108 85 48
113 88 52
114 89 54
118 94 51
111 87 53
118 95 49
117 93 53
121 96 52
120 96 49
117 93 51
115 92 51
115 90 53
120 97 48
121 96 52
118 94 52
121 98 50
118 93 54
115 93 47
117 92 55
113 90 51
122 98 48
116 91 53
118 94 51
122 97 51
120 96 51
113 90 50
120 95 53
119 94 52
119 95 50
120 95 55
119 95 49
120 94 56
119 94 52
119 96 49
121 97 51
119 95 52
116 92 53
116 92 52
118 92 55
119 95 53
123 98 53
120 96 52
121 97 51
123 99 52
120 95 53
122 97 52
116 91 53
121 95 54
119 94 53
121 96 51
123 98 51
119 93 56
122 99 49
122 97 53
119 93 55
123 99 51
120 95 52
122 97 54
122 99 49
119 94 53
121 96 51
121 97 51
118 94 52
120 96 51
120 96 50
121 95 54
122 97 51
121 96 54
121 96 52
122 98 52
119 93 57
121 96 52
120 96 53
120 94 55
121 96 53
125 101 51
122 97 53
121 96 55
122 96 56
121 95 55
124 100 51
123 99 51
122 97 52
121 96 54
121 95 57
122 97 53
122 98 52
121 95 56
121 97 51
123 99 52
119 94 53
120 94 55
119 93 58
123 98 51
122 97 53
121 96 54
121 96 54
122 97 54
120 95 54
121 95 55
121 95 55
121 96 55
124 99 51
124 99 52
122 97 52
116 90 55
120 95 53
121 95 55
121 96 54
117 92 54
120 95 55
120 95 54
122 97 53
121 96 53
121 96 52
122 96 55
122 98 51
124 99 51
119 94 52
121 97 51
123 98 51
121 96 53
121 96 54
122 96 54
118 93 53
119 94 54
120 94 55
120 94 56
119 94 52
119 95 52
117 92 54
122 97 52
119 95 53
119 93 54
122 97 52
122 97 52
123 99 49
121 96 53
120 96 51
117 92 52
117 92 52
116 91 53
118 94 52
122 97 51
117 92 54
122 96 54
119 95 51
120 95 53
119 94 53
119 95 50
121 97 50
118 93 54
116 92 53
116 92 51
120 94 56
122 98 50
119 94 52
121 97 51
118 93 51
114 89 53
117 91 55
117 93 52
117 93 52
118 94 51
115 91 52
122 97 53
121 96 51
116 92 52
117 93 48
121 96 51
118 94 51
118 92 54
115 91 52
119 95 50
111 87 50
120 95 53
118 93 52
119 95 49
115 91 51
118 95 48
112 89 49
113 90 49
119 95 52
113 89 50
114 90 52
117 93 50
115 92 50
114 90 52
109 85 51
110 87 48
115 92 50
110 86 53
116 92 50
114 92 46
115 92 49
115 92 47
111 87 52
112 88 51
120 96 48
116 93 48
105 84 45
113 91 47
115 92 48
110 86 50
108 83 53
109 85 50
110 88 45
112 89 50
108 85 49
103 81 47
105 83 47
106 85 45
105 82 50
103 81 46
104 82 47
101 80 44
104 84 42
104 80 52
102 81 46
107 85 47
98 76 48
102 81 45
99 76 49
104 82 45
102 81 45
97 75 48
96 76 44
91 71 42
95 74 45
91 71 42
94 74 43
85 66 43
97 76 46
94 73 44
86 66 43
85 65 45
91 70 46
85 67 41
87 66 44
75 56 42
89 68 45
88 67 47
85 65 44
84 64 44
81 63 39
71 54 38
73 56 37
65 49 36
64 48 36
77 59 40
62 47 34
64 48 36
70 53 38
60 44 36
64 49 35
66 48 40
61 45 34
59 43 35
54 41 30
48 35 30
49 37 29
55 41 31
58 43 35
49 37 28
54 41 28
58 44 33
56 41 35
55 40 33
63 47 35
60 45 35
65 48 38
62 45 38
56 42 31
62 45 37
59 44 34
60 45 34
65 48 39
62 47 34
61 45 35
63 48 36
63 47 36
62 45 38
59 44 36
61 45 36
62 46 36
61 46 35
61 45 36
63 46 38
62 45 37
61 45 35
65 49 37
60 46 33
66 48 40
65 48 39
58 43 33
59 44 33
59 44 34
66 48 42
64 47 37
60 44 36
55 41 32
65 48 38
60 44 35
65 49 37
60 45 34
59 44 34
54 41 29
62 46 37
54 40 31
59 44 34
62 46 36
66 48 41
59 43 37
59 44 35
59 44 35
56 42 31
61 45 36
55 40 32
58 44 33
58 43 35
55 41 33
54 41 30
54 41 30
50 37 29
51 38 29
51 38 30
57 42 33
64 48 36
67 51 37
58 43 33
75 58 37
64 49 35
66 49 38
64 49 34
69 54 32
76 58 41
75 57 39
83 64 42
82 64 39
79 61 39
80 63 36
84 64 44
88 68 43
83 64 41
91 70 47
88 69 41
85 66 42
89 70 41
85 65 43
80 62 40
96 75 44
90 71 41
86 67 42
92 71 45
94 75 38
96 74 47
94 73 45
98 77 43
98 78 42
100 79 45
104 82 46
100 79 46
96 75 45
103 80 50
98 76 48
100 80 42
98 77 43
105 83 47
105 83 48
110 88 48
101 79 45
102 79 50
108 85 49
109 86 50
108 86 48
114 90 50
106 85 46
109 85 53
107 85 49
113 90 50
115 91 49
110 87 49
114 90 51
106 83 49
107 85 48
107 85 48
113 89 50
106 83 49
113 91 47
114 91 49
111 88 49
114 90 51
115 92 48
116 92 50
112 88 52
116 92 51
117 94 49
116 92 53
119 94 52
118 94 49
117 94 49
110 85 52
115 91 49
117 93 52
118 93 51
116 91 54
115 91 53
117 94 49
118 95 49
119 95 50
116 92 50
113 89 52
115 91 52
119 94 54
115 92 49
119 94 52
121 97 51
119 95 50
116 92 51
117 92 53
119 95 51
118 93 53
118 94 50
120 96 51
117 92 52
121 96 53
117 92 52
118 93 53
117 93 52
116 92 52
120 95 53
121 97 50
117 92 53
120 95 52
115 92 50
121 95 55
120 95 54
122 97 52
121 97 50
117 92 54
117 93 53
117 92 53
120 95 53
122 97 53
118 94 50
120 95 53
116 91 55
120 95 54
121 96 54
121 97 51
122 97 52
119 95 52
121 96 52
123 98 53
123 98 52
119 93 54
124 100 50
121 96 53
119 94 54
121 95 54
123 99 49
121 97 52
120 96 52
118 93 53
117 92 54
121 96 52
118 92 55
122 97 51
121 96 52
119 94 53
119 94 55
117 93 52
117 93 53
122 96 55
122 97 52
120 94 58
121 95 55
119 93 57
122 98 51
119 95 52
120 95 55
121 97 52
123 99 51
120 95 54
121 95 55
118 92 56
121 96 53
121 95 55
124 100 51
119 94 54
120 95 54
119 94 55
123 97 54
120 94 56
120 94 56
120 95 54
120 95 54
120 95 55
124 100 52
121 96 54
119 95 49
122 97 53
122 97 52
118 93 55
120 96 52
122 98 51
119 93 57
122 96 55
119 93 55
124 100 50
118 93 55
126 102 47
120 94 54
121 96 54
117 92 53
119 94 54
124 100 50
124 100 50
119 95 51
123 98 51
119 95 52
118 93 56
119 93 56
120 94 57
120 96 52
120 95 53
119 93 56
119 94 53
122 97 52
123 98 51
121 96 52
120 96 50
121 97 52
120 94 54
121 97 50
118 92 56
119 94 51
119 94 52
118 93 53
113 88 55
119 96 49
121 97 51
122 98 51
119 95 49
118 93 52
120 95 53
119 96 50
116 92 50
116 92 52
122 98 52
121 97 50
118 93 53
112 87 56
118 94 51
118 93 52
117 93 51
119 94 53
116 91 54
115 91 51
119 95 52
119 94 54
118 95 49
114 90 53
119 95 50
114 90 51
120 96 50
119 95 50
120 95 52
119 94 52
118 93 54
119 94 54
115 91 52
114 92 46
112 89 48
118 94 50
118 94 53
109 85 54
114 90 49
113 89 51
115 90 54
111 85 56
118 94 50
118 94 49
114 90 53
115 91 52
117 92 51
108 84 53
112 89 47
113 89 49
113 89 50
112 89 47
106 83 47
118 94 49
113 91 48
111 88 48
110 86 52
105 84 44
115 92 48
116 93 50
110 86 51
106 83 49
111 87 51
107 85 48
113 91 47
109 86 47
110 86 51
113 91 46
106 84 45
106 83 50
108 87 44
107 84 49
105 84 46
100 78 46
104 83 46
107 86 46
107 85 46
100 80 42
101 79 47
105 84 46
106 83 49
102 80 47
93 73 44
105 83 48
98 75 49
100 79 47
95 73 48
95 73 47
99 78 43
96 76 42
96 75 43
86 69 37
84 65 42
94 73 45
89 69 43
83 64 41
81 61 44
86 66 43
85 66 41
83 65 41
80 62 39
78 59 40
70 53 38
77 58 42
80 61 42
71 54 39
77 58 42
75 57 41
79 60 40
74 58 36
63 47 33
62 47 34
65 49 36
71 55 36
66 51 34
64 48 36
57 43 30
58 43 32
58 42 35
54 40 32
50 37 30
50 37 31
51 37 32
48 36 28
52 38 32
55 40 32
56 41 34
56 42 30
61 45 38
59 44 35
55 41 33
60 45 35
63 46 38
59 43 36
57 42 32
65 47 40
55 41 32
60 44 36
63 46 37
60 44 37
56 42 31
58 42 36
60 45 35
56 41 35
53 39 32
61 45 37
62 46 37
61 44 39
62 45 38
58 43 36
61 45 35
58 43 35
58 44 32
61 45 38
57 43 32
64 47 38
63 47 38
63 46 39
61 45 38
56 42 31
62 45 38
53 40 29
56 42 31
60 45 34
59 44 35
55 40 34
57 43 32
59 43 35
59 43 35
61 44 38
58 43 33
58 43 34
60 44 37
59 42 37
51 39 26
58 43 35
59 43 38
54 40 31
55 40 33
57 42 34
56 41 34
56 41 34
51 37 31
48 35 29
43 32 26
60 44 37
56 41 33
51 38 31
59 45 32
60 45 34
66 49 39
59 44 33
64 47 37
54 42 27
66 49 38
76 59 39
75 57 40
76 58 39
77 59 41
73 57 36
80 62 38
86 66 44
85 65 44
84 65 43
84 65 42
83 64 42
83 65 40
78 60 39
88 67 46
89 69 42
90 70 41
89 69 43
88 68 43
94 73 45
98 78 42
88 68 43
96 76 41
100 79 46
96 74 47
100 79 45
99 78 44
103 81 46
94 73 44
106 84 47
93 73 42
101 79 47
100 79 46
106 83 51
105 83 46
109 87 46
102 80 46
104 84 42
104 83 44
102 80 45
105 83 48
103 80 49
102 80 46
109 86 49
104 82 48
113 91 47
109 86 49
109 87 46
116 93 47
116 93 49
111 88 47
115 92 47
116 93 49
108 85 49
114 91 49
114 91 50
103 80 49
115 92 50
114 90 51
112 88 51
114 91 51
107 84 50
114 91 48
111 88 51
119 96 47
120 97 49
114 92 46
109 85 53
110 88 47
115 91 53
115 92 49
111 88 48
115 90 52
117 93 52
113 89 52
113 90 51
109 86 49
120 95 54
113 88 53
114 91 49
116 92 50
115 90 53
119 95 53
122 99 48
114 91 49
120 97 49
119 94 53
120 95 52
118 94 52
118 94 51
118 94 49
119 96 49
116 92 52
117 91 55
117 92 51
121 96 52
118 94 52
119 95 52
118 93 54
121 95 54
120 94 56
120 95 53
119 95 52
121 96 53
119 95 49
115 90 54
121 97 50
117 93 51
119 95 50
126 102 48
121 97 50
121 97 50
117 94 48
120 94 56
115 91 53
122 97 53
121 97 50
122 98 50
119 95 52
119 93 56
121 97 52
121 97 52
120 96 51
120 95 53
118 92 55
122 98 52
122 97 51
121 96 54
124 100 49
121 95 55
122 98 51
120 95 53
123 98 51
117 91 55
120 95 51
121 97 52
118 92 56
124 100 52
123 98 53
121 97 52
122 98 51
121 96 53
122 98 52
122 96 54
121 95 55
121 97 50
121 96 53
121 95 55
121 95 55
120 94 55
120 94 55
122 96 56
123 99 51
119 93 56
119 93 56
121 95 55
122 96 55
119 94 52
121 96 54
121 97 52
121 96 54
120 94 56
121 95 54
120 94 55
120 95 54
124 100 52
121 95 55
121 95 54
119 94 53
123 98 53
122 97 52
119 92 57
122 97 53
118 93 54
121 95 54
122 97 53
121 95 56
123 98 52
123 99 50
122 97 52
120 95 53
121 96 51
120 96 52
120 95 55
115 91 52
121 96 53
120 95 52
118 94 50
118 93 53
122 98 50
121 95 57
117 93 53
120 95 55
122 97 53
121 96 55
123 98 53
119 95 52
122 97 53
119 94 51
122 96 54
119 94 53
119 95 51
123 98 52
118 92 55
120 96 50
116 92 52
118 93 53
120 95 52
117 91 56
123 99 50
118 93 55
123 98 52
122 97 54
122 97 52
118 93 55
118 92 54
114 89 55
123 98 53
122 97 55
123 98 52
117 92 52
119 95 52
119 94 53
117 93 51
119 94 53
120 96 51
118 93 53
118 93 54
121 98 49
118 94 50
116 91 54
113 89 53
118 95 50
115 91 51
114 89 54
115 90 53
116 93 49
116 92 52
115 92 50
119 94 53
117 93 49
115 91 53
115 90 52
118 94 50
115 90 52
120 96 50
118 93 52
117 93 50
116 92 49
117 92 52
116 91 52
115 90 53
111 87 50
117 94 48
117 92 54
112 90 47
112 88 51
108 85 49
115 91 50
113 90 50
113 91 47
111 88 50
119 95 50
111 87 51
103 81 50
111 88 48
111 89 47
108 86 48
113 90 51
114 91 47
112 89 50
107 85 46
106 84 46
109 87 46
104 81 49
110 87 50
103 81 47
109 86 49
103 82 43
109 86 50
103 80 52
109 86 50
104 83 45
101 79 50
96 74 47
101 80 46
100 79 44
102 81 43
94 73 46
101 80 45
103 81 48
100 78 47
97 76 46
89 69 44
101 80 45
104 83 43
91 70 45
90 70 43
89 69 46
97 75 47
84 65 40
95 75 44
89 70 40
87 67 43
80 61 40
72 55 38
83 64 41
83 63 45
90 70 44
73 56 39
74 56 40
86 66 44
77 59 39
74 56 39
64 48 35
82 63 40
63 47 36
71 54 38
70 54 37
63 48 33
56 42 33
64 48 36
61 46 35
65 49 36
54 39 33
46 34 26
51 38 30
46 34 29
46 34 27
35 26 22
39 29 25
44 33 24
48 35 29
53 38 34
58 43 33
47 35 26
57 42 34
55 40 32
55 41 32
61 44 38
58 43 36
49 37 26
58 43 35
62 46 36
64 47 37
53 40 30
57 42 33
64 46 40
61 46 34
60 45 34
62 45 39
64 47 38
59 44 34
63 46 39
62 45 38
58 44 32
59 44 36
60 44 35
60 45 34
59 44 34
59 44 35
60 45 34
67 50 39
58 43 34
60 45 33
58 43 35
55 41 33
60 45 35
63 46 40
60 45 34
55 41 32
55 41 31
60 44 36
61 45 38
58 42 37
59 43 37
56 42 32
52 38 31
56 43 30
55 41 32
57 42 33
54 39 33
56 42 33
48 36 26
50 37 29
49 36 28
46 34 28
47 34 31
43 31 26
49 36 30
46 34 27
54 41 30
55 39 36
60 45 35
50 37 30
61 45 35
62 47 36
64 48 34
54 40 30
66 50 36
61 47 33
69 53 35
63 48 34
68 51 39
67 50 37
79 59 44
74 57 36
69 53 35
75 57 39
86 67 42
83 65 41
84 65 42
83 65 39
88 68 45
82 65 37
88 68 45
90 70 42
90 70 43
90 69 44
95 74 45
91 71 42
96 75 44
92 72 41
93 72 45
101 80 46
97 75 48
91 72 42
100 79 46
105 82 50
102 78 51
103 82 46
95 75 42
98 77 45
102 79 49
101 79 48
95 74 46
103 80 48
108 85 49
105 83 48
108 85 48
108 86 47
109 85 50
104 81 51
113 89 51
103 82 45
102 80 48
107 84 49
112 90 47
108 85 48
111 88 51
107 86 45
111 88 48
108 83 52
105 82 50
104 82 46
115 90 54
109 87 46
110 86 52
108 85 49
113 90 51
114 90 51
111 87 53
111 87 53
116 92 51
115 91 51
116 91 53
115 90 54
112 88 52
113 91 47
114 91 49
113 90 48
115 92 50
116 93 49
120 96 52
114 91 49
118 94 52
116 91 54
116 92 49
115 92 48
118 93 53
112 87 54
118 93 54
117 92 53
118 93 54
118 93 52
116 92 50
112 87 52
114 92 47
119 94 52
119 93 54
118 93 54
116 93 49
119 93 56
116 91 55
122 98 50
118 93 54
116 92 52
123 98 52
119 95 50
116 92 52
121 96 52
120 95 52
118 93 54
124 100 49
115 90 56
119 94 54
122 98 49
116 92 51
123 98 51
119 95 50
121 97 52
119 93 56
123 98 50
119 94 53
119 94 53
121 97 51
120 96 51
118 94 52
120 95 53
122 97 52
120 95 53
121 96 53
122 98 51
120 96 52
120 95 53
120 97 48
117 90 59
122 97 52
120 96 50
123 99 51
120 94 55
122 97 54
121 96 53
120 95 52
118 93 53
118 93 54
120 94 55
120 95 54
120 95 53
122 97 55
121 96 52
121 96 54
120 95 55
119 94 55
119 95 52
121 96 53
125 101 50
119 94 55
120 95 53
121 96 53
119 94 55
121 96 53
121 95 55
119 93 55
120 94 55
118 92 56
121 96 54
118 92 55
124 99 51
121 95 57
120 94 56
121 95 54
121 95 55
120 95 53
123 97 54
120 94 54
119 94 54
120 94 55
123 98 51
118 92 57
122 97 50
120 95 53
119 94 55
119 94 54
122 97 52
121 96 53
119 93 57
121 95 55
115 91 53
118 94 52
123 98 52
121 97 50
120 95 52
122 97 55
123 98 52
122 96 54
123 99 51
120 96 52
121 97 51
122 98 50
119 93 54
122 97 53
120 95 53
121 96 54
120 95 52
124 99 52
120 94 56
120 96 52
118 94 52
119 94 54
121 96 54
119 93 56
119 95 53
118 92 57
120 95 52
119 94 53
121 96 52
120 95 54
120 96 53
111 86 54
116 92 52
117 93 51
120 96 50
121 96 51
122 98 51
119 95 53
117 93 49
117 91 55
113 89 51
119 95 51
121 97 50
116 92 53
114 91 50
116 91 54
115 90 53
121 96 51
119 94 53
119 94 51
118 93 53
118 94 53
121 98 48
114 90 52
118 94 50
113 89 52
118 94 51
120 97 48
115 92 48
116 92 52
118 94 49
114 90 51
110 88 47
117 91 55
113 89 53
118 95 46
119 95 49
119 95 52
114 90 51
113 89 50
112 88 52
114 91 51
115 91 51
110 88 47
115 91 50
109 86 47
112 90 46
111 88 49
114 90 52
116 92 49
112 89 48
114 90 51
110 87 50
111 87 50
109 87 48
113 90 50
101 79 47
115 91 53
109 86 49
108 84 50
108 84 52
113 88 52
113 90 49
107 84 48
104 82 47
105 84 46
104 81 49
101 80 45
107 85 48
111 88 50
113 89 49
101 80 46
100 80 42
110 88 47
105 83 48
96 75 45
100 79 44
104 83 45
96 76 44
108 85 48
103 81 48
101 80 45
101 78 48
92 71 45
92 72 44
98 76 47
89 70 42
87 66 46
83 65 37
99 75 51
91 71 43
86 66 45
85 67 40
83 64 39
76 59 35
80 63 38
86 66 44
86 67 42
79 61 39
87 67 43
73 56 38
77 59 39
78 60 39
74 57 38
80 61 41
67 50 37
70 53 36
73 55 39
72 55 37
63 48 33
67 51 37
63 47 34
68 51 40
59 44 33
55 41 31
54 40 33
45 33 27
53 39 31
48 35 30
47 35 29
51 37 31
48 35 30
43 31 27
38 27 24
43 31 27
36 26 23
50 36 30
49 37 29
53 40 30
53 39 31
54 40 31
54 40 32
56 40 36
53 40 31
56 41 33
55 41 32
59 45 32
53 38 32
57 43 32
54 40 31
62 47 34
55 41 32
56 41 33
58 42 35
59 44 34
55 41 31
55 41 30
55 41 32
58 43 33
53 39 32
58 43 33
60 44 34
56 42 31
59 44 35
62 47 34
55 41 31
61 45 37
55 40 34
59 44 34
62 46 34
59 43 36
53 39 31
57 42 34
57 43 32
56 42 31
55 41 31
56 41 33
54 40 34
55 41 33
52 38 31
54 40 31
54 40 31
55 41 34
53 39 32
48 35 29
46 34 28
47 34 30
51 36 35
45 32 29
39 28 25
44 32 26
51 37 31
49 35 31
54 40 30
49 36 30
58 43 35
59 44 34
53 39 31
69 53 37
61 47 32
66 50 36
62 47 35
64 48 37
72 54 39
76 58 39
70 53 37
71 54 37
77 59 39
76 57 42
79 61 41
66 51 33
68 52 36
73 55 39
84 65 42
74 57 38
85 66 40
84 65 41
84 65 41
88 69 41
93 73 41
90 70 44
94 74 43
86 67 41
86 67 42
91 70 47
86 67 40
96 75 47
99 77 48
99 79 43
95 75 40
98 76 47
99 78 46
102 81 45
98 75 49
106 84 47
100 78 47
99 77 46
102 80 48
101 79 47
107 84 49
105 83 46
103 82 44
108 85 49
100 79 46
106 84 47
102 80 46
107 84 50
101 79 46
108 86 46
105 81 52
112 87 55
111 87 51
115 92 48
112 88 54
107 84 50
111 89 47
108 85 48
110 86 50
113 90 49
114 91 48
113 90 47
113 90 49
117 94 48
106 84 48
114 90 50
104 83 46
115 92 49
113 89 51
110 87 50
114 91 49
118 94 52
115 93 47
116 92 52
117 94 48
110 86 51
115 90 54
117 92 53
115 91 51
118 94 51
116 92 50
116 92 50
117 92 53
119 95 51
118 95 48
113 88 54
118 94 49
113 90 50
119 95 48
117 91 56
118 93 53
115 90 52
115 92 49
121 97 50
116 92 52
119 96 48
113 89 50
121 97 51
115 92 50
114 90 50
120 96 49
117 93 52
116 92 51
121 96 53
114 89 55
116 92 51
120 96 50
119 93 55
116 91 53
118 94 50
118 94 52
121 97 50
119 96 48
115 91 53
121 96 52
121 97 50
116 93 50
115 91 53
115 91 52
119 95 51
118 94 53
120 94 56
118 93 54
119 96 48
121 96 52
121 95 54
122 97 53
123 99 51
122 97 50
121 97 51
120 95 54
118 93 54
120 95 54
117 93 52
121 97 50
120 96 51
116 91 53
121 98 48
123 98 52
117 93 53
122 96 54
119 94 54
120 95 53
119 93 57
121 96 53
122 96 54
118 92 55
116 91 55
119 95 52
121 96 53
119 94 53
117 91 56
121 96 55
122 97 53
123 99 51
120 95 53
122 96 55
119 94 54
123 98 52
122 96 55
121 95 54
122 98 50
118 93 52
121 97 51
122 98 51
122 97 53
122 97 54
121 96 53
121 96 55
120 95 53
121 95 54
122 97 54
120 95 52
124 100 51
121 96 53
122 98 52
122 98 51
119 95 53
120 95 55
120 95 54
122 97 53
117 92 54
121 96 53
117 92 53
122 97 52
123 99 52
122 98 51
116 91 54
122 97 52
120 95 53
119 94 52
120 96 50
122 98 52
123 99 51
118 94 51
123 98 51
117 92 53
119 95 53
121 96 51
122 98 51
119 94 55
120 96 50
120 95 52
120 95 54
122 98 50
119 94 53
117 92 55
122 99 48
118 93 53
119 96 50
119 94 53
119 96 50
122 96 54
123 97 53
116 92 52
119 94 54
123 98 51
118 94 52
117 92 53
119 95 52
112 87 53
114 89 53
119 95 50
119 94 54
119 96 50
121 97 51
121 97 50
120 95 52
119 95 50
117 92 53
116 93 50
119 96 48
114 91 49
116 91 54
119 96 49
117 92 54
113 89 51
121 97 49
119 95 50
115 92 50
120 96 49
120 95 52
115 91 53
115 92 49
116 92 50
117 93 50
113 90 49
115 92 48
114 91 48
113 88 52
114 89 53
117 92 52
115 92 47
111 87 52
115 92 47
113 90 50
115 92 48
114 91 48
114 91 50
118 95 49
117 93 53
107 84 48
112 88 52
106 85 44
116 92 49
107 85 48
111 88 49
112 89 51
113 90 48
109 84 54
114 90 49
110 87 49
111 87 51
107 84 51
108 84 53
105 84 43
105 80 54
109 86 50
103 82 45
106 84 44
100 80 44
104 82 47
106 83 49
98 77 46
105 84 45
107 86 44
105 83 47
104 82 48
99 78 45
98 78 42
96 76 42
102 80 48
94 74 44
91 72 40
93 71 47
93 72 46
93 73 45
95 74 46
87 68 41
90 70 43
94 73 46
92 72 43
81 63 39
78 59 43
86 66 44
81 63 38
82 65 38
82 64 40
82 62 44
87 66 46
83 64 41
81 63 38
74 56 40
80 61 41
83 63 45
70 53 38
69 53 34
71 54 39
71 54 37
63 47 36
64 48 33
66 50 36
65 48 37
61 45 34
55 41 31
57 42 34
62 47 35
51 38 30
46 34 27
50 36 31
45 33 26
54 40 32
47 34 30
46 34 28
36 27 22
38 27 26
33 24 21
32 23 22
33 24 20
42 31 27
45 34 26
47 34 29
53 39 31
50 37 29
45 33 27
55 41 30
50 37 29
57 42 33
53 39 30
54 40 33
51 39 27
53 39 32
59 43 37
55 40 35
53 40 28
60 43 39
55 41 32
54 40 32
63 46 38
54 40 30
58 43 34
59 44 33
55 41 31
58 43 34
60 43 40
53 39 31
61 45 38
60 45 35
56 40 36
59 45 33
48 36 27
48 36 27
53 40 28
61 46 33
53 39 33
62 45 37
58 43 35
60 44 36
50 37 30
47 34 30
52 38 32
50 38 26
52 40 28
42 32 23
46 33 29
37 27 23
36 26 23
40 28 27
48 35 30
42 31 26
42 30 27
46 34 29
47 34 29
44 32 28
45 33 28
50 37 31
51 38 30
70 52 41
62 46 37
65 48 38
65 49 37
63 47 35
54 40 32
57 43 30
75 56 43
70 53 37
64 48 36
71 54 39
69 52 38
73 56 38
78 59 45
81 62 45
82 63 41
80 61 41
83 63 45
77 60 38
84 65 40
81 62 42
88 69 43
88 69 41
83 65 40
90 69 48
92 71 44
89 69 42
100 78 47
90 70 43
97 76 43
97 75 48
95 75 43
95 74 46
89 70 40
99 79 43
100 78 48
99 77 48
106 84 45
94 73 45
103 80 48
104 82 48
101 80 43
109 86 49
100 79 44
104 82 47
103 81 48
111 88 49
104 81 49
107 85 46
109 87 46
109 86 50
102 80 47
102 81 43
108 86 45
108 84 52
104 82 46
111 88 50
113 89 51
109 86 49
104 81 51
114 92 46
111 88 49
110 87 51
112 90 48
115 91 52
111 88 49
114 90 49
113 90 48
111 87 50
112 89 47
118 94 50
113 89 50
110 86 51
112 89 49
112 89 49
112 88 52
115 92 48
115 90 54
114 90 52
109 85 52
114 90 52
117 93 51
117 93 51
117 94 47
116 92 50
113 88 54
114 89 54
116 90 55
115 91 51
114 90 53
115 92 49
119 95 51
119 96 48
117 93 49
116 93 49
117 93 51
117 93 52
120 96 50
121 96 53
116 92 51
118 93 56
119 96 49
119 95 49
119 94 55
119 94 53
116 92 52
120 95 53
117 93 52
119 95 51
119 95 52
118 93 53
113 88 55
119 94 52
116 91 52
122 97 53
122 98 52
117 93 51
113 89 52
124 100 49
120 95 55
123 99 51
120 96 51
121 96 53
119 95 51
121 96 51
120 97 50
119 96 49
120 95 54
122 97 53
119 95 52
117 91 55
119 95 52
120 95 54
122 96 55
120 95 52
120 95 54
122 98 52
120 94 55
121 96 53
121 95 53
118 92 57
123 99 51
120 95 54
119 94 54
119 94 54
117 91 55
122 96 54
121 96 55
118 93 55
120 96 50
121 96 54
121 97 52
117 93 52
124 99 52
122 99 50
122 97 53
122 96 55
121 97 52
120 95 53
120 95 54
122 97 53
122 99 49
123 99 52
121 97 50
121 95 55
121 96 54
117 92 54
122 98 51
119 93 56
119 94 55
121 95 56
119 95 53
123 98 53
123 98 52
124 100 50
121 97 52
120 94 57
121 95 54
118 93 53
120 94 56
120 95 54
121 98 49
121 96 54
120 94 54
121 95 54
121 96 51
120 94 57
119 94 53
120 95 53
119 95 51
122 96 55
120 95 53
120 95 54
124 100 49
118 93 53
117 91 54
121 96 52
119 94 52
116 92 50
120 95 52
117 93 52
117 93 51
118 94 51
117 92 55
121 97 51
117 93 52
119 95 52
118 93 54
119 94 53
117 93 53
122 98 51
121 97 49
121 97 51
122 99 46
118 92 56
119 95 52
122 98 50
116 91 53
117 93 52
114 90 52
119 95 52
118 93 53
117 92 54
118 94 50
116 92 51
119 95 52
119 95 52
115 91 50
117 93 52
116 91 53
122 97 51
116 92 51
116 92 53
116 92 53
115 91 50
113 89 50
117 92 51
116 92 49
120 95 52
116 93 50
113 89 52
121 95 54
117 93 52
120 96 50
119 95 50
115 91 51
113 89 50
114 91 48
116 92 50
116 91 52
114 90 51
112 89 50
114 91 47
114 90 51
113 90 49
113 90 48
116 93 48
112 88 53
118 93 53
109 85 52
114 92 46
106 84 48
115 90 54
112 88 51
113 90 49
115 93 47
109 85 50
113 89 51
114 91 51
110 87 49
114 90 52
110 87 49
106 83 49
104 82 47
111 90 45
106 85 44
109 86 48
108 85 48
106 85 45
111 88 50
105 83 48
109 86 48
111 87 51
104 81 50
105 85 41
104 81 49
106 84 46
104 82 45
99 78 44
100 78 48
102 81 45
94 74 43
103 79 51
94 74 42
102 81 45
100 78 48
93 74 40
92 72 43
99 78 45
98 75 50
96 74 48
95 73 48
88 68 43
84 66 39
95 75 45
90 70 44
91 72 43
85 65 44
82 63 42
83 63 43
86 65 45
78 60 39
86 66 42
77 59 40
78 60 41
84 64 43
80 62 39
66 50 34
71 54 38
78 59 42
65 50 34
63 47 36
69 53 36
71 53 39
63 47 35
66 49 38
59 44 34
67 50 38
56 41 35
54 40 32
45 33 27
50 37 30
57 42 34
38 28 22
38 28 23
49 36 30
41 30 25
38 27 24
38 27 26
38 28 24
34 24 23
34 24 23
31 22 22
33 24 22
35 25 21
43 32 26
46 34 26
53 39 31
51 38 30
47 36 25
49 36 29
48 36 28
49 35 31
46 34 26
46 35 26
56 42 32
50 35 33
55 41 32
54 40 32
53 39 33
56 41 34
49 36 30
56 41 33
54 40 32
48 36 25
56 42 33
56 41 33
52 38 31
52 38 32
51 38 29
55 42 30
54 40 31
55 40 33
53 38 33
59 43 36
48 36 27
48 36 28
52 38 31
55 40 35
52 39 31
54 40 31
48 35 29
45 33 26
47 34 29
40 28 26
41 29 27
28 20 19
40 29 27
27 19 17
35 25 23
52 37 35
38 27 24
47 34 30
43 31 26
47 35 29
43 32 26
51 38 30
49 37 27
41 30 23
51 37 30
53 40 30
51 37 31
67 49 39
64 48 36
71 53 38
62 47 34
64 48 34
68 52 37
66 51 32
68 52 36
72 55 38
62 47 33
81 61 42
71 54 37
80 61 43
77 58 43
83 64 43
87 67 42
82 63 41
95 73 50
71 55 36
83 65 41
83 64 43
86 68 40
88 68 44
86 67 41
91 73 40
89 70 41
84 65 41
93 73 43
88 68 42
100 79 46
88 69 41
91 71 43
97 76 45
99 78 45
93 73 43
102 81 47
104 82 48
107 86 43
101 79 49
93 75 36
106 84 47
91 72 42
102 81 44
106 83 48
99 75 51
108 86 47
105 84 46
107 85 46
108 84 50
103 81 47
105 82 50
109 87 46
110 88 46
107 84 49
108 86 45
108 87 43
117 94 46
111 89 46
106 83 50
110 87 49
111 88 49
108 86 46
108 86 48
108 86 48
113 90 49
114 91 47
111 88 50
115 92 51
110 88 48
113 89 52
115 92 49
112 88 50
114 92 46
115 91 50
116 92 49
113 90 48
113 89 52
110 87 50
115 91 49
111 87 49
114 90 53
113 88 54
120 97 49
114 89 52
111 88 51
116 91 52
115 90 53
118 95 49
117 93 50
116 92 50
121 96 52
117 93 52
116 92 49
115 90 54
119 94 52
118 94 51
118 93 51
119 94 53
118 94 52
115 91 51
117 93 52
118 93 54
115 90 53
121 96 51
117 93 50
110 85 56
115 89 58
119 96 48
121 98 48
120 95 52
121 96 52
114 90 50
113 89 53
120 95 52
119 95 51
116 92 53
120 95 53
123 98 50
120 94 55
121 96 52
116 92 51
120 95 53
118 94 51
117 92 54
118 93 54
118 93 55
113 89 52
118 93 55
119 92 57
117 91 56
123 99 51
122 97 52
120 96 51
123 99 50
121 97 52
120 96 49
119 95 51
119 93 55
118 93 52
120 96 50
120 95 53
119 95 51
122 97 55
122 98 50
120 96 52
124 99 53
121 97 49
118 94 52
123 98 53
118 94 52
120 94 55
122 97 54
122 97 54
120 95 53
119 94 54
122 96 54
121 96 53
122 97 52
120 95 52
119 92 58
118 93 53
123 98 52
119 92 58
120 96 51
120 94 55
119 93 54
120 95 54
121 96 53
120 95 53
121 96 53
123 98 51
122 98 52
123 99 51
122 97 54
117 93 53
120 95 53
118 92 57
121 97 52
122 97 53
120 94 56
122 97 51
122 97 52
122 97 52
122 98 51
124 99 52
121 96 52
118 95 50
121 95 54
122 97 52
120 96 50
120 96 52
121 98 49
120 95 52
123 97 54
121 97 51
121 96 54
113 89 53
119 94 52
121 95 54
120 97 49
117 93 51
123 99 51
120 95 54
118 93 53
123 97 53
122 97 52
124 100 50
117 92 52
120 95 54
120 96 52
120 95 53
117 93 52
118 93 54
120 95 51
119 95 50
122 99 49
119 93 55
117 94 50
118 93 52
118 94 51
115 90 54
116 91 53
119 94 52
117 93 51
115 90 54
116 92 50
118 94 51
116 91 52
116 92 53
118 95 49
118 95 49
116 92 53
115 91 53
119 96 50
118 93 51
119 95 51
114 91 49
113 90 47
117 93 49
117 94 48
115 91 50
119 95 51
118 95 48
116 93 50
118 93 54
115 90 54
122 97 52
114 90 51
117 94 49
121 98 49
113 89 50
117 94 46
116 91 52
117 93 52
113 91 47
113 89 51
115 91 52
111 87 52
114 91 49
115 93 47
114 90 50
114 90 49
113 89 51
106 84 47
111 88 50
110 87 49
106 85 46
105 82 49
106 84 48
112 89 46
110 87 48
111 89 45
108 85 49
98 77 46
109 87 47
102 80 47
108 85 51
107 84 48
106 84 48
104 83 45
102 80 48
105 85 43
106 84 47
92 71 47
97 77 42
99 77 47
101 80 44
97 76 46
95 74 46
101 79 47
98 78 42
91 72 41
99 78 43
92 71 45
94 73 44
103 81 47
94 72 48
91 71 43
90 70 44
86 66 44
94 73 43
97 76 45
79 62 37
92 73 42
93 73 44
85 67 40
86 67 43
83 64 41
73 57 36
83 65 38
75 57 39
78 60 39
72 55 38
66 50 36
76 58 39
72 55 38
68 52 36
72 55 38
64 48 36
74 56 39
67 51 37
72 55 38
72 54 40
60 45 33
68 52 37
55 41 32
63 47 36
63 46 38
47 35 29
55 41 33
54 40 31
44 32 25
44 32 26
41 30 24
43 31 29
41 30 26
39 28 24
43 31 27
40 28 27
40 28 27
37 27 25
34 25 22
30 21 19
27 19 18
25 17 18
30 21 20
41 30 25
40 30 23
45 34 25
52 37 33
45 33 26
47 35 27
46 35 24
53 39 31
52 38 30
52 39 29
50 37 28
56 42 32
46 34 27
56 41 34
52 38 31
50 37 29
52 38 31
50 38 28
54 39 32
52 39 29
52 38 31
48 36 27
52 38 31
46 35 26
47 34 28
51 38 32
49 37 26
41 31 23
46 34 25
52 39 31
49 36 29
45 33 27
41 30 23
34 24 22
29 21 18
29 20 20
33 23 22
27 19 19
32 23 22
31 22 20
44 31 28
35 25 24
40 29 26
38 27 26
43 31 28
46 34 28
39 28 26
45 33 28
54 39 33
50 37 30
56 42 32
60 45 34
52 39 30
50 37 29
63 46 36
60 45 35
58 44 31
64 48 35
65 49 35
59 44 32
70 53 37
76 59 38
66 51 35
70 53 38
72 56 35
73 55 38
69 53 37
77 59 41
78 61 38
87 68 42
75 58 38
86 66 42
79 61 39
84 65 41
84 65 42
89 69 43
92 72 43
77 58 42
94 74 43
89 70 41
91 70 45
92 72 44
102 80 48
90 69 45
102 80 46
95 75 43
93 72 45
99 76 50
100 79 44
97 76 45
100 79 44
101 80 42
106 83 48
104 83 46
100 78 49
108 86 44
99 78 43
102 79 48
109 85 50
107 85 46
103 81 47
101 79 47
109 86 49
106 85 45
107 84 49
108 85 49
111 87 50
112 89 50
114 92 48
106 84 45
110 87 48
107 85 47
110 87 48
106 84 47
108 86 48
107 85 46
103 81 47
111 88 48
117 93 50
113 90 49
114 91 47
109 87 48
112 89 48
112 89 50
113 89 52
111 88 49
110 87 48
117 93 50
116 93 48
117 92 55
120 95 52
113 88 54
115 90 52
116 92 51
111 88 49
114 89 55
118 94 49
122 97 52
112 87 53
116 92 49
113 90 49
113 88 54
114 90 53
110 87 50
118 95 47
115 91 50
117 92 53
118 93 52
113 90 49
119 95 48
121 97 51
118 93 52
119 96 49
121 95 55
117 93 50
118 93 53
118 94 52
118 95 50
113 88 55
118 94 53
116 92 51
118 92 54
117 92 52
117 94 49
121 97 51
116 93 50
122 97 51
117 92 55
126 103 47
114 90 52
114 89 52
121 96 53
118 94 52
122 97 53
118 93 53
116 92 50
119 94 53
116 92 53
117 93 50
121 96 53
118 94 52
122 98 50
120 96 52
120 96 50
120 94 57
122 98 51
119 94 53
122 97 52
119 94 54
121 96 54
121 96 53
125 101 49
124 99 51
118 93 52
125 101 51
122 98 49
119 93 57
119 94 54
121 96 53
119 94 53
122 97 52
120 96 51
120 94 53
118 92 57
119 94 53
122 96 54
117 92 55
122 97 50
120 94 56
123 98 51
123 99 51
118 94 52
122 97 53
120 95 53
120 94 55
120 94 56
122 96 56
124 100 50
123 99 50
122 97 53
124 99 51
118 92 56
123 98 52
123 98 51
119 93 57
120 95 52
122 98 50
119 95 51
119 94 54
118 93 52
118 93 51
119 93 57
123 98 52
119 95 51
124 100 52
116 91 55
119 94 53
120 95 54
120 95 53
122 98 49
118 92 55
123 99 49
121 95 54
119 93 56
119 95 51
119 93 55
120 96 51
119 94 52
121 97 51
124 100 49
119 96 49
116 92 53
120 96 51
120 96 52
122 97 54
117 93 52
117 92 55
120 95 53
118 95 50
119 93 54
118 92 55
121 97 50
123 98 53
115 90 54
122 97 53
122 98 49
118 93 52
120 95 54
118 93 54
118 94 51
115 91 52
117 93 50
118 94 49
114 92 47
117 94 50
120 96 50
120 96 50
119 94 53
117 94 48
121 96 52
114 89 54
115 92 49
117 93 50
120 95 52
117 91 55
115 91 51
118 94 49
110 85 54
120 96 51
114 90 52
116 91 53
116 91 54
118 94 52
114 90 50
117 94 48
115 92 49
113 89 49
115 90 53
115 92 50
116 93 47
115 91 52
110 87 48
119 97 45
115 92 49
117 93 50
113 90 50
112 89 50
112 88 51
114 91 48
113 90 48
110 87 51
115 91 50
114 90 51
114 91 49
117 93 51
108 85 51
108 85 49
111 87 50
109 87 46
109 87 46
112 90 45
108 87 43
110 89 44
112 89 48
104 81 48
108 84 51
110 88 44
102 82 42
101 80 45
105 83 46
102 80 46
100 79 46
106 86 43
110 88 47
101 80 46
101 80 46
101 81 43
107 85 47
96 74 46
100 78 47
100 79 47
94 73 44
97 77 43
88 69 43
102 80 47
98 76 47
102 79 50
93 71 47
91 71 43
92 70 49
93 72 45
96 75 44
98 77 43
86 67 40
86 68 38
85 66 41
83 63 43
86 67 41
90 71 39
87 68 41
85 66 40
75 58 38
79 61 41
73 56 37
80 62 40
86 67 42
81 63 40
77 59 39
80 61 43
72 55 36
72 56 36
75 57 39
70 53 35
59 45 31
60 45 34
62 47 34
60 45 35
67 51 37
66 50 37
63 46 37
51 37 30
59 44 34
50 37 30
65 47 39
50 37 30
53 39 32
55 40 34
43 31 27
40 29 25
44 32 27
40 29 26
35 26 22
31 22 20
37 27 25
31 22 20
31 22 20
27 19 18
36 25 25
23 16 15
27 20 18
30 21 21
22 15 15
23 16 16
30 21 21
27 19 17
34 25 21
37 27 21
40 30 22
50 37 29
50 37 27
52 38 31
48 35 30
44 32 26
48 35 28
46 34 25
45 34 26
49 37 28
47 34 30
46 34 27
43 32 23
44 33 27
47 35 27
51 38 29
53 39 34
42 31 24
43 31 28
42 31 26
36 26 21
38 28 24
30 21 20
21 14 14
27 19 19
23 16 17
31 22 20
25 18 17
33 23 23
32 23 21
38 27 25
32 22 21
33 24 23
33 24 21
34 25 22
38 27 24
54 39 35
42 30 27
45 33 28
40 29 24
45 33 28
52 38 31
56 42 32
56 41 34
51 37 31
58 43 33
50 37 30
57 43 32
63 47 35
65 50 34
55 40 33
64 49 34
70 54 35
77 58 42
74 57 37
67 51 36
68 51 35
69 53 34
65 50 34
77 59 39
77 59 40
77 60 37
72 57 33
84 64 43
79 61 39
84 65 42
82 64 38
78 60 39
81 63 38
93 71 48
90 70 42
87 67 44
81 63 40
92 72 43
84 64 42
90 70 42
96 75 45
97 75 49
94 73 45
97 76 45
99 77 47
102 81 45
97 77 41
99 77 47
93 72 46
101 79 48
100 79 43
86 67 43
101 80 44
105 83 48
102 80 47
109 87 47
108 86 46
108 86 48
93 73 45
105 84 43
112 91 45
103 81 46
106 84 46
107 84 48
103 81 47
115 92 50
106 84 47
107 85 47
99 77 48
107 86 44
108 85 49
110 86 53
111 88 50
113 90 49
114 90 50
109 87 48
116 94 47
104 82 48
108 85 50
115 91 50
120 95 52
113 90 49
105 82 49
111 88 47
111 87 51
111 87 52
118 95 48
113 90 50
112 90 48
114 91 50
120 96 51
114 90 50
109 86 48
117 94 49
114 91 48
114 89 53
116 92 50
124 99 52
120 95 52
115 92 50
114 91 49
108 84 53
118 95 48
113 88 54
119 95 50
118 93 54
115 91 50
116 93 49
115 91 53
118 94 50
117 92 53
113 90 49
121 96 53
117 93 50
116 90 56
120 95 52
122 97 53
114 90 52
118 92 57
119 94 52
119 95 51
117 93 49
117 92 55
119 95 52
117 93 52
116 92 50
117 93 51
114 89 52
120 95 53
123 99 49
121 97 50
119 93 55
120 95 53
119 94 54
115 90 53
119 95 51
119 95 52
119 95 50
118 92 54
116 92 50
118 94 52
118 93 53
116 91 54
124 100 49
117 92 54
122 97 53
119 96 49
122 97 53
117 92 53
118 94 53
120 95 52
122 97 51
119 94 53
120 95 54
121 98 49
117 93 52
122 97 52
118 92 56
119 94 53
120 96 51
118 93 52
121 97 49
117 90 60
118 94 52
120 94 55
122 97 51
123 99 51
118 93 53
122 97 51
122 96 55
120 94 53
120 95 54
120 94 55
121 96 53
120 94 56
122 98 50
122 96 54
122 97 54
120 96 51
118 93 53
121 96 55
122 97 54
120 94 55
118 92 58
118 92 55
119 93 55
118 92 55
118 94 51
122 97 54
120 95 53
120 96 52
119 93 55
119 94 53
121 97 51
121 96 52
117 93 53
120 95 52
118 93 53
122 97 53
120 95 53
120 95 55
121 96 52
120 95 53
121 95 55
119 94 54
121 96 52
119 95 52
120 95 53
117 92 52
122 98 50
119 94 53
120 95 56
117 92 52
114 90 53
119 94 52
120 95 52
119 94 54
119 96 47
118 94 50
119 95 51
118 93 52
121 97 49
117 92 52
116 92 52
121 96 53
119 94 53
118 93 55
119 93 54
116 91 52
120 95 52
118 93 51
114 89 54
116 91 54
117 92 53
115 92 49
115 91 52
120 95 54
118 94 50
113 89 50
122 99 48
119 94 53
117 93 52
115 92 49
119 95 52
118 96 44
119 94 52
113 90 49
115 91 49
116 92 51
115 91 52
111 87 50
123 100 47
119 94 51
112 88 52
118 95 48
113 91 47
115 92 47
122 98 50
114 91 49
116 93 48
116 93 49
114 91 50
110 86 51
115 92 49
113 90 48
106 84 47
117 94 50
110 88 46
109 87 47
111 88 49
105 82 49
113 89 51
117 94 47
104 81 49
110 87 50
110 86 52
109 88 44
116 94 47
100 78 49
104 83 46
111 88 49
102 80 46
106 84 47
104 81 47
111 89 47
105 81 51
99 80 39
110 87 49
102 80 48
103 81 47
106 85 44
99 77 48
109 87 47
100 79 46
102 80 47
97 75 47
101 80 45
110 88 47
96 76 43
96 73 50
100 79 46
98 76 46
91 71 44
94 73 43
99 77 46
97 76 46
94 74 45
100 78 49
86 66 44
96 74 47
87 67 42
83 64 40
83 64 42
85 66 44
88 67 45
84 65 40
76 58 39
85 66 43
83 64 41
79 61 38
84 65 39
81 63 38
81 62 42
82 62 44
75 57 41
75 57 41
74 57 37
69 54 32
77 58 43
69 52 39
63 46 39
65 49 35
62 47 34
58 43 34
53 40 27
62 46 36
65 49 38
63 47 35
51 38 28
60 44 37
56 41 34
53 39 34
53 39 32
51 37 32
47 34 30
42 30 26
49 35 32
46 34 28
34 25 22
35 26 22
40 29 26
40 29 26
36 26 24
30 21 20
29 21 18
33 24 22
28 20 19
28 20 20
26 18 18
28 19 21
25 18 17
21 14 15
24 16 18
21 14 15
18 12 13
20 14 14
16 11 10
24 17 15
30 22 19
31 22 19
27 20 17
29 21 18
36 26 22
30 22 20
33 24 21
37 27 24
29 20 19
31 21 21
28 21 17
34 24 21
23 16 15
21 14 16
23 16 16
16 11 12
28 19 19
22 15 16
18 13 13
24 16 17
23 16 16
30 21 19
27 19 19
26 18 18
27 19 18
26 18 17
35 25 24
31 22 20
37 26 25
36 26 23
42 30 28
39 28 25
42 31 27
46 34 27
41 30 26
44 33 26
50 36 31
50 37 30
52 39 29
49 36 29
51 38 30
57 42 33
57 42 33
61 46 35
66 50 36
58 44 31
65 49 36
68 51 37
60 45 33
70 52 39
66 50 35
75 58 37
68 51 39
71 55 36
78 60 39
77 59 39
70 53 36
75 56 42
82 63 39
82 62 44
79 60 42
89 69 45
77 59 41
78 60 39
93 72 46
85 65 42
78 59 41
88 70 40
94 72 47
92 72 44
90 71 43
95 73 46
98 77 47
88 68 43
86 66 42
95 75 43
96 75 44
103 82 45
95 77 38
94 74 41
101 79 47
98 77 46
101 80 43
111 88 46
111 88 49
96 74 46
104 83 43
103 81 48
104 82 48
102 81 45
104 81 51
108 87 45
107 85 46
108 86 47
112 87 54
103 81 47
112 89 50
104 83 46
112 89 48
102 80 48
112 88 51
106 82 53
112 89 46
118 95 48
106 84 47
109 85 52
107 85 46
108 86 47
112 89 49
112 88 51
114 89 53
108 85 49
110 86 51
111 87 49
112 89 49
106 82 51
116 93 47
115 91 50
113 89 52
114 90 51
116 93 48
112 90 48
109 85 51
111 88 50
112 91 44
117 94 48
119 96 49
115 91 52
115 92 46
117 94 49
115 91 51
111 88 50
113 89 51
114 91 49
114 90 52
118 94 51
118 94 53
119 95 50
115 91 51
120 97 49
115 90 54
114 91 49
117 91 55
115 90 54
117 92 54
117 93 49
115 91 50
115 91 51
114 89 52
119 95 52
120 96 50
117 92 52
117 93 51
119 94 53
118 93 53
121 97 48
122 97 54
123 99 50
115 91 50
118 93 54
120 95 54
119 94 51
119 94 52
121 96 53
119 94 53
120 95 53
117 94 49
117 92 53
122 96 55
119 93 56
118 94 50
120 94 55
123 98 51
122 98 51
120 95 52
121 96 53
120 94 55
120 96 51
117 92 55
119 94 54
119 92 57
118 93 52
119 94 53
119 94 53
119 93 58
121 96 52
122 97 54
116 91 54
117 92 54
124 98 53
119 93 55
117 92 54
120 94 54
115 90 55
120 95 54
122 97 52
119 94 53
120 95 56
121 96 55
119 95 51
122 97 52
121 97 51
122 97 52
122 97 52
122 97 54
123 98 52
122 98 52
120 95 54
123 99 51
121 95 56
119 93 55
120 93 58
121 97 50
122 97 54
120 96 51
119 95 51
118 92 56
118 93 55
122 97 52
118 93 53
119 94 56
121 96 53
124 100 50
121 95 55
117 92 55
120 95 54
116 91 53
121 97 51
122 96 54
122 97 52
120 95 53
122 98 50
120 96 51
120 97 47
119 95 51
122 98 50
121 98 48
117 91 56
117 94 50
119 94 53
119 95 51
121 96 54
116 90 58
116 91 54
119 96 49
119 94 52
118 92 56
122 97 55
121 97 50
120 96 50
115 91 52
116 93 49
121 96 52
120 96 52
117 93 50
119 94 52
122 98 49
118 93 53
116 92 51
118 94 52
124 102 46
115 90 53
118 94 52
113 88 55
117 93 53
116 93 48
121 96 52
112 90 47
119 96 48
117 92 51
115 91 50
116 90 56
118 94 52
117 93 52
114 89 56
117 93 50
116 92 51
116 93 49
116 92 50
113 89 51
113 88 52
116 91 53
113 90 48
112 90 47
118 94 52
114 90 50
118 93 52
117 93 49
116 91 53
112 88 50
113 90 47
114 91 48
117 95 46
114 91 49
106 83 49
115 91 52
112 88 50
115 89 55
110 87 48
106 83 48
113 90 49
117 95 46
113 90 49
106 85 45
107 85 46
113 89 52
106 84 47
113 90 48
109 88 45
112 88 50
114 91 50
101 80 44
113 91 46
110 87 49
110 87 48
104 82 47
107 85 49
94 72 47
103 82 47
102 81 44
105 83 47
104 82 46
98 77 45
102 80 47
102 79 49
104 83 44
102 81 45
97 77 44
94 74 44
97 76 44
101 80 45
99 79 42
101 79 45
98 77 45
93 72 46
89 69 43
91 70 45
84 65 41
87 67 44
93 72 45
95 74 48
97 76 44
95 75 44
81 63 38
86 68 40
91 71 44
85 65 43
77 60 38
74 58 36
81 63 41
80 63 38
79 60 41
80 63 38
80 62 37
82 63 40
88 68 43
76 58 40
65 49 35
76 58 41
82 62 45
72 54 39
65 50 35
67 50 38
67 51 35
73 55 41
60 46 32
73 56 38
57 43 33
53 40 28
56 42 33
68 51 37
63 46 38
55 41 34
54 40 32
51 38 29
43 31 27
51 37 32
51 37 30
44 32 29
35 25 21
47 34 30
46 33 29
44 32 28
39 28 26
29 20 19
32 23 20
30 21 19
32 23 22
27 19 18
31 22 22
25 17 17
28 20 20
27 19 18
21 15 15
27 18 20
26 18 18
20 14 15
17 12 12
26 18 19
17 12 12
19 13 14
23 16 16
22 15 16
22 15 16
15 11 11
15 10 11
13 9 9
19 13 14
15 10 11
21 14 15
13 9 9
18 12 13
25 17 18
16 11 11
24 17 17
19 13 13
24 17 17
29 20 21
30 21 20
16 11 10
28 20 18
30 21 20
26 18 18
26 18 18
28 20 19
35 25 23
45 32 30
38 27 24
37 27 23
42 30 28
38 27 24
41 30 24
46 33 30
45 33 28
42 31 27
42 31 24
56 40 35
61 45 36
49 37 29
51 37 31
55 41 33
55 41 31
56 42 31
68 51 38
52 39 29
66 49 37
55 41 32
65 49 34
62 47 33
69 53 36
72 54 42
65 49 37
71 53 40
71 53 40
66 51 35
74 56 40
81 63 41
84 64 44
70 54 35
77 60 37
82 64 39
78 60 38
87 68 42
81 64 37
93 72 47
90 69 47
94 74 43
92 72 44
89 68 46
90 70 43
82 64 41
100 78 47
90 70 43
95 74 44
93 73 43
103 81 46
89 69 45
93 72 44
92 73 40
93 73 42
92 72 44
95 74 46
97 76 46
105 83 47
98 77 44
103 80 51
106 83 49
103 81 47
103 81 47
106 85 44
107 84 50
99 76 49
100 78 47
104 84 43
107 86 45
109 87 47
107 83 51
109 87 46
105 83 48
103 81 48
109 86 49
114 92 47
106 85 44
114 91 50
101 79 48
110 87 51
107 85 47
114 91 48
112 89 49
114 90 50
104 82 48
112 88 50
108 86 47
116 91 53
111 88 48
111 89 47
112 90 47
116 92 50
110 87 51
117 93 51
114 90 49
112 88 51
118 93 52
111 88 48
107 83 52
112 89 50
117 92 53
112 89 48
116 92 50
112 88 51
112 88 53
116 92 49
118 95 48
114 90 53
114 89 54
112 87 53
115 91 54
119 95 51
113 90 48
116 93 49
117 92 53
115 91 52
118 94 53
119 95 52
116 91 52
116 92 50
119 95 49
117 93 53
117 93 50
119 94 53
120 96 51
117 93 51
120 97 48
119 95 50
118 93 53
115 91 52
119 94 54
119 95 50
115 90 53
117 92 54
118 95 48
121 97 49
117 92 53
119 95 50
118 93 53
115 92 48
120 95 52
118 94 51
117 91 55
119 94 51
119 95 52
123 100 48
117 92 55
118 93 52
121 97 51
118 94 52
121 96 55
120 95 53
115 90 55
117 91 57
119 93 54
122 97 54
121 96 54
121 96 51
118 93 51
117 92 56
120 96 52
121 97 50
122 98 50
123 98 52
117 92 54
121 96 52
119 95 52
119 94 53
121 95 53
121 96 52
122 97 52
118 93 55
120 95 54
123 99 52
119 93 55
118 93 53
122 97 52
120 93 57
121 95 55
118 93 53
120 95 53
121 96 51
119 94 55
119 94 53
119 94 55
119 96 48
119 93 54
120 96 50
120 96 53
119 94 54
120 95 53
120 95 52
125 100 51
121 96 52
120 95 54
117 92 54
118 92 55
122 98 51
115 90 55
122 97 51
120 95 52
120 95 52
122 98 50
119 93 56
119 95 51
121 95 54
122 98 51
121 96 52
125 101 49
118 93 53
119 95 51
121 95 54
122 98 49
122 98 50
120 95 53
120 95 54
124 100 49
120 96 51
119 94 51
120 96 51
118 93 55
116 90 55
119 94 54
117 92 53
117 93 51
118 93 52
122 99 49
119 96 49
118 94 49
116 92 51
120 96 51
119 95 52
121 98 47
120 96 52
120 96 50
112 87 55
121 95 55
117 93 51
121 96 52
117 93 51
117 93 51
118 93 52
123 100 47
117 93 51
111 87 51
114 90 52
114 91 49
110 87 51
115 90 52
113 89 52
113 89 52
119 95 49
116 93 48
109 86 49
114 89 54
117 93 51
117 93 52
115 91 52
115 92 49
116 91 52
114 91 48
116 92 51
114 91 50
116 93 46
113 89 51
111 87 51
116 93 48
113 89 51
114 90 50
112 88 51
117 94 49
112 89 49
112 87 53
115 91 49
105 82 51
106 84 48
115 92 47
114 91 48
111 87 51
110 88 48
105 82 47
117 94 46
112 90 44
109 87 48
109 87 46
108 85 48
101 80 46
109 86 50
108 86 46
111 88 49
106 84 47
106 85 43
109 87 46
105 83 47
101 80 44
107 85 45
102 81 47
94 75 42
102 79 50
101 80 45
98 77 45
94 74 43
98 78 44
100 78 49
100 79 44
100 78 47
100 79 44
99 77 47
93 73 42
104 83 45
98 76 48
91 71 44
95 74 44
87 68 43
98 76 46
87 68 41
92 73 41
82 63 39
94 73 44
93 72 44
73 55 40
86 67 41
80 63 38
88 68 46
87 67 43
81 62 42
77 58 41
84 64 46
84 64 43
72 54 40
81 62 42
77 58 43
64 49 34
69 52 39
69 51 42
63 48 33
67 51 37
67 50 39
65 49 36
65 49 35
66 50 34
58 44 31
60 45 32
57 42 35
58 43 33
57 42 32
51 37 31
49 36 29
53 40 30
51 37 31
53 39 30
42 31 27
45 33 28
41 30 25
47 34 31
47 34 30
36 26 23
38 28 25
44 32 28
38 27 24
37 26 26
37 27 24
28 20 18
33 24 22
30 21 20
22 15 14
32 22 22
27 19 18
27 19 19
27 19 19
28 19 20
24 17 17
22 15 16
31 21 22
23 16 17
20 14 15
22 15 16
17 12 12
18 13 13
20 14 15
11 8 8
28 19 21
26 18 18
21 15 15
19 13 14
29 20 20
24 16 17
16 11 12
24 17 17
22 15 15
26 18 19
26 18 18
21 15 14
28 19 19
34 24 23
41 28 29
29 20 19
32 22 23
37 26 25
39 28 25
39 28 25
43 31 29
37 26 25
40 28 27
33 24 20
48 35 31
48 35 29
52 38 33
52 38 32
45 33 27
48 35 29
48 35 30
57 43 32
50 37 31
58 43 34
67 50 37
67 50 38
56 41 35
61 46 35
57 44 31
61 46 36
67 50 38
64 49 35
70 53 40
70 53 36
73 56 39
70 53 38
72 56 36
73 55 40
76 57 43
71 55 36
78 60 39
73 55 39
81 61 45
68 52 36
87 67 45
83 65 38
79 62 38
88 69 40
88 69 41
93 73 43
95 73 48
83 65 40
85 66 42
103 82 46
92 73 41
83 64 42
95 74 45
95 74 47
91 71 44
85 66 43
91 69 49
102 81 44
102 80 49
94 74 43
96 76 43
102 80 48
95 73 49
103 80 48
98 77 44
101 81 44
99 79 43
104 82 47
100 78 46
106 83 51
103 82 44
105 82 48
96 75 45
101 81 44
103 82 45
106 84 46
105 82 50
110 89 44
111 89 47
112 89 47
104 82 48
107 84 49
113 89 51
105 81 51
111 88 49
112 89 50
108 86 45
110 87 47
109 87 47
108 84 53
112 89 48
109 86 49
109 88 45
108 85 50
113 90 49
113 89 51
110 85 53
114 92 47
110 86 51
116 93 48
116 93 47
112 89 49
111 87 51
113 89 50
114 90 51
116 93 50
111 89 46
116 94 47
119 95 51
116 93 49
112 89 50
117 94 48
116 94 46
117 94 49
113 91 47
115 92 48
113 89 52
111 88 49
119 95 49
117 93 52
119 95 50
118 95 48
118 94 52
119 94 54
113 90 49
121 97 50
116 92 52
118 94 52
117 93 52
113 90 47
116 90 54
112 88 51
119 95 50
115 92 49
116 91 54
120 96 52
120 95 52
121 97 50
118 93 53
118 93 52
123 98 51
117 92 53
118 94 51
117 93 51
117 92 53
120 96 50
121 96 52
118 94 51
119 94 53
117 92 55
117 92 52
118 94 51
124 99 50
116 91 52
118 93 52
117 92 53
122 97 52
118 92 57
119 94 54
115 90 56
119 94 55
115 90 55
120 96 52
121 96 53
116 92 53
120 94 55
122 97 53
120 94 56
120 94 55
121 97 52
121 96 52
118 93 53
120 95 54
122 96 55
122 97 50
120 95 52
120 95 53
118 92 55
120 95 53
121 95 55
119 94 52
118 93 53
120 95 53
119 93 57
123 98 52
120 95 53
121 97 52
120 96 52
122 98 49
116 92 52
122 97 52
122 97 52
123 99 52
120 95 51
118 93 53
118 93 54
119 94 53
123 97 53
118 94 51
123 98 53
121 96 54
119 94 53
118 94 50
120 95 54
120 96 53
118 93 52
118 92 54
118 92 56
116 91 56
122 98 51
124 100 50
119 94 53
119 95 51
118 92 55
119 94 52
120 95 54
122 98 51
119 95 51
118 94 51
115 90 55
123 99 49
119 94 54
118 95 49
120 96 50
120 95 52
117 93 51
118 92 54
121 96 51
121 96 53
120 95 52
117 92 55
120 95 53
115 91 52
119 95 50
117 92 52
116 92 51
116 91 54
116 92 51
121 97 49
123 98 50
113 88 54
120 97 49
115 91 50
117 93 49
120 95 54
114 90 51
121 95 54
118 94 50
118 94 50
120 97 47
117 93 52
115 91 50
117 93 49
119 96 49
115 92 50
117 93 50
118 94 50
116 91 52
118 93 51
114 91 50
116 93 47
114 90 50
117 93 51
116 92 50
115 92 48
109 86 48
110 87 48
114 92 47
109 85 51
117 93 51
111 88 48
111 88 49
109 86 49
109 85 51
117 94 48
112 89 48
113 89 52
112 89 47
115 91 52
108 86 47
116 92 53
103 82 43
111 88 48
111 88 50
104 81 49
103 82 45
108 86 48
108 85 48
115 90 54
102 80 47
101 80 46
111 89 47
110 88 48
102 79 50
104 83 46
106 83 48
98 77 45
104 82 48
104 82 44
98 77 45
102 80 46
104 82 47
104 82 47
103 81 46
101 80 45
101 79 48
95 75 44
102 80 45
99 77 47
94 74 43
96 75 46
103 81 46
88 69 40
94 74 42
96 75 45
93 73 45
99 76 48
94 74 43
89 70 42
92 72 43
92 71 44
98 76 48
95 74 45
88 68 43
88 69 42
86 68 40
83 64 44
83 65 39
83 65 39
81 62 42
80 61 41
84 66 41
86 66 42
77 59 38
69 52 39
74 57 37
87 67 44
60 45 32
67 50 38
68 52 35
74 56 39
72 54 40
67 51 37
69 52 37
67 51 35
62 46 36
57 43 31
52 39 30
59 44 34
52 38 31
53 39 30
56 42 31
50 38 29
49 36 30
53 39 33
51 38 30
50 36 30
42 31 25
42 30 26
36 26 21
41 30 26
55 40 34
36 26 24
37 26 24
26 18 17
31 22 21
32 23 20
34 24 23
33 24 21
30 22 19
33 24 21
30 21 20
26 18 19
27 18 19
25 18 17
28 20 19
24 17 17
33 23 23
24 17 17
26 19 18
24 17 16
28 20 20
20 14 14
25 18 17
31 21 22
29 20 21
23 16 16
25 17 17
23 16 15
24 17 16
24 17 17
27 19 20
25 18 18
28 19 20
26 19 17
30 21 21
32 22 23
30 21 19
24 17 17
41 29 28
31 22 21
31 22 20
40 28 27
33 24 21
32 24 20
39 28 26
44 32 28
35 25 23
45 33 27
40 29 25
46 33 30
47 35 29
47 34 31
43 31 27
51 38 32
58 43 34
53 39 31
52 38 32
56 41 33
56 41 35
51 38 29
65 48 37
60 44 35
67 51 36
63 46 38
60 45 33
70 53 39
66 50 36
70 53 39
57 44 28
58 44 31
65 49 36
75 57 38
73 54 42
83 63 44
77 58 41
83 64 40
81 63 40
80 62 39
80 62 42
76 58 40
82 65 37
85 66 43
83 65 38
81 62 41
87 67 42
83 64 41
89 69 43
87 67 43
90 70 44
97 76 46
100 79 47
91 71 43
96 76 42
102 80 47
91 71 45
95 75 43
104 82 47
93 73 42
101 80 45
95 75 43
100 77 48
101 79 47
109 85 52
106 84 47
95 75 44
100 78 48
99 77 46
106 83 49
104 82 46
109 86 48
103 82 47
102 82 42
104 82 47
102 81 44
111 89 47
110 88 46
102 81 45
114 91 47
108 86 45
105 82 50
105 83 46
106 83 49
101 79 48
107 86 45
101 79 48
104 82 48
114 91 48
107 84 51
106 83 50
112 88 51
107 85 48
117 94 47
116 94 47
110 87 49
107 84 49
112 90 48
110 87 50
113 89 52
112 90 46
112 89 48
123 101 45
112 88 52
114 91 49
114 90 50
115 91 49
112 88 49
115 92 48
112 89 51
112 89 50
115 91 51
118 94 52
118 94 51
115 90 52
110 87 51
115 92 49
119 94 52
114 90 53
116 92 53
115 90 54
121 96 52
116 91 52
114 89 53
118 93 53
114 89 52
117 93 51
118 94 51
119 94 51
120 96 51
117 93 51
122 97 52
120 95 53
121 95 54
118 93 52
115 90 53
115 91 52
118 94 50
115 91 53
119 97 47
119 95 51
118 92 57
112 89 50
123 98 51
118 94 52
119 95 53
121 96 52
121 97 49
117 92 53
117 93 51
115 91 50
121 97 50
123 99 52
118 93 55
121 98 47
121 97 51
120 95 53
122 97 52
118 94 50
119 93 55
120 95 53
121 96 53
120 94 54
117 92 54
119 94 52
120 95 51
118 93 54
113 89 52
120 95 54
117 92 54
122 98 49
118 92 55
120 95 53
121 96 53
118 93 53
120 96 51
118 94 53
122 97 53
118 93 53
118 92 55
119 94 55
116 91 54
122 96 54
120 96 51
119 94 55
120 93 57
121 96 53
121 97 52
121 95 55
119 94 54
124 100 49
117 92 55
125 100 50
119 94 53
121 96 53
119 94 53
119 92 57
117 93 51
119 95 49
119 94 54
119 95 51
118 93 53
119 95 51
125 101 48
121 96 52
118 93 54
114 90 54
122 97 52
118 92 56
116 92 51
122 98 52
119 95 50
119 94 54
119 93 54
117 92 54
114 90 53
119 94 54
121 96 51
121 96 52
119 96 50
118 94 52
121 97 49
123 100 47
114 90 51
117 93 50
117 91 55
120 94 54
120 95 51
123 99 50
114 90 52
116 91 55
119 95 52
121 96 53
121 96 53
118 93 55
120 95 54
119 95 51
115 91 51
118 93 53
120 96 53
111 87 52
114 90 53
116 92 51
121 97 51
118 93 54
121 97 51
118 94 50
119 95 52
117 92 54
119 94 52
116 91 52
115 92 49
116 93 50
117 94 48
120 95 54
114 90 50
117 93 52
112 89 49
114 91 49
116 92 50
117 92 52
113 89 52
111 88 49
114 90 52
111 87 50
110 87 51
115 91 51
117 93 49
112 88 52
109 87 47
110 88 47
113 90 49
113 89 52
109 86 49
106 83 48
110 86 50
117 93 50
115 92 46
108 85 49
104 82 46
110 88 47
107 85 49
107 85 47
103 80 49
95 73 49
108 87 44
113 90 48
110 86 49
111 89 47
116 94 46
108 86 49
101 79 47
101 79 47
113 91 47
99 77 49
105 83 47
106 83 48
107 84 49
110 87 48
109 86 50
105 83 46
100 78 46
99 79 44
98 77 46
97 76 44
99 78 45
94 74 44
97 76 47
95 73 46
99 78 45
96 75 47
93 72 47
93 73 44
96 75 47
94 73 44
93 73 44
93 72 46
93 72 44
89 68 45
87 69 37
91 71 45
88 70 40
83 64 40
98 76 48
93 71 49
87 68 41
89 67 49
81 62 41
78 61 38
81 61 44
80 60 45
70 53 38
83 63 43
87 67 45
76 58 37
79 61 39
65 50 34
78 59 43
79 60 41
72 54 40
74 56 39
71 54 36
64 48 35
69 51 40
65 49 35
66 49 37
60 45 33
63 48 33
62 46 36
61 45 36
60 45 34
60 45 33
59 44 34
61 46 34
58 43 34
59 44 35
45 32 28
45 33 28
52 39 31
57 41 35
39 29 23
46 32 32
44 32 28
37 27 23
46 34 27
37 26 25
33 23 21
42 30 27
39 28 26
38 27 25
37 26 26
38 27 25
32 22 22
32 23 21
35 24 24
28 20 19
28 20 19
23 16 15
26 18 18
29 20 20
29 21 20
28 20 20
23 16 15
20 14 15
23 16 16
28 20 20
25 17 16
26 18 18
31 22 22
32 22 22
17 12 11
34 24 23
28 20 19
23 17 15
27 19 16
31 21 21
33 23 21
29 21 18
27 20 17
32 23 22
42 30 28
32 23 20
34 25 20
37 27 24
40 28 26
45 33 29
42 31 27
43 31 27
40 28 26
42 31 26
50 36 32
45 33 27
50 37 31
61 44 37
44 33 26
51 37 30
58 43 36
48 36 27
50 37 29
54 40 32
51 38 29
63 47 35
69 52 39
60 44 35
61 46 35
67 50 37
67 50 37
54 41 30
71 54 36
67 50 37
79 59 44
66 49 38
70 52 40
75 58 36
62 48 32
70 53 38
81 62 40
76 57 41
75 59 36
81 62 42
74 57 37
85 66 42
85 67 40
78 58 45
87 67 42
84 64 45
92 71 46
86 66 44
77 60 36
88 68 44
89 69 43
93 72 44
91 71 44
91 71 44
93 73 42
92 71 45
101 78 52
100 80 42
101 81 43
97 76 45
91 70 46
94 73 45
98 76 48
99 77 47
98 77 44
105 83 46
95 75 43
96 74 48
100 79 46
103 83 40
104 83 45
102 79 50
105 84 44
105 83 47
110 87 48
103 80 48
102 80 47
108 85 50
106 83 48
105 83 48
109 86 49
109 87 46
111 86 54
106 85 44
108 86 47
114 91 46
107 84 48
104 80 51
114 91 48
115 93 46
109 88 45
117 93 52
106 82 52
113 90 48
116 93 48
116 92 50
118 93 53
114 91 49
113 90 48
112 89 50
111 88 49
110 87 48
113 91 44
117 93 51
113 89 51
110 87 50
116 92 51
115 90 53
109 85 53
115 90 52
113 90 49
111 88 49
117 95 46
118 95 49
115 92 50
112 88 51
116 91 53
121 96 51
115 91 52
116 93 50
117 93 51
114 89 54
114 91 50
117 93 50
117 93 50
117 92 51
120 97 49
120 96 51
114 91 51
112 88 50
117 92 54
117 93 52
116 91 56
114 90 50
113 89 51
117 94 49
119 95 51
118 93 54
115 91 52
117 92 56
120 95 54
118 93 53
114 91 49
119 93 55
120 94 54
116 91 54
119 94 53
119 95 52
121 97 49
116 93 50
120 96 51
113 88 55
119 95 52
121 97 51
120 95 52
119 96 47
123 99 50
118 94 50
119 94 53
121 96 52
115 91 53
119 94 53
122 98 52
122 97 52
122 97 53
119 95 51
121 96 53
118 93 53
120 95 53
121 97 49
118 93 54
123 98 52
122 97 52
124 100 51
118 95 50
120 95 55
120 96 53
120 95 53
119 95 50
120 94 54
115 91 52
122 98 51
118 92 55
122 97 55
117 91 55
122 96 56
120 94 54
119 95 52
123 98 53
121 95 55
122 97 52
119 93 54
122 96 56
116 91 52
121 96 53
118 93 53
120 95 52
120 95 54
116 91 54
121 96 54
121 96 53
119 95 51
123 99 51
122 98 51
121 97 50
119 95 52
118 93 54
120 96 51
122 98 50
119 94 51
120 95 53
122 97 51
118 94 50
122 97 52
120 94 55
114 91 50
119 94 55
116 92 50
119 94 52
122 98 47
121 96 53
118 93 53
116 92 50
113 89 51
118 93 54
118 92 55
120 95 51
119 93 54
119 95 50
118 95 50
117 93 52
117 92 54
119 94 52
119 94 52
122 97 51
117 93 51
121 96 52
116 92 52
116 92 52
117 93 51
118 94 51
115 90 54
117 92 53
117 92 55
119 94 54
116 94 46
114 90 52
113 89 51
115 92 49
118 93 52
116 92 50
116 91 54
115 91 51
112 89 48
112 89 51
118 95 47
112 88 52
118 94 53
110 86 52
117 94 50
115 92 50
114 89 53
112 90 48
117 93 51
114 89 52
114 90 51
113 89 51
116 92 50
115 92 48
113 89 51
116 92 52
119 95 50
112 89 47
111 87 53
112 88 51
112 89 48
112 87 53
114 90 51
113 88 53
106 83 49
112 89 49
109 87 47
115 91 51
115 92 49
110 87 49
114 91 47
112 89 50
106 84 47
107 84 50
107 84 50
103 80 48
104 83 44
109 87 46
101 80 45
105 83 49
107 85 46
104 81 49
100 79 47
105 83 48
103 81 45
106 84 48
102 82 41
105 84 45
101 79 49
103 82 45
100 77 50
102 81 45
103 81 48
107 85 48
104 82 48
99 78 45
98 77 45
93 73 42
97 78 41
101 80 45
95 74 45
95 74 46
100 78 48
94 73 46
88 68 43
87 67 43
87 68 43
90 70 44
86 67 41
84 65 41
82 63 41
80 60 44
85 65 42
89 69 44
79 61 40
83 64 42
80 61 43
74 56 40
84 64 45
80 61 42
80 62 38
66 51 33
74 57 38
75 57 40
69 52 39
74 56 40
71 53 41
67 51 36
64 49 32
59 45 31
64 49 32
65 50 35
59 44 33
56 43 31
65 49 34
53 40 29
55 41 33
56 42 32
48 36 27
57 43 32
51 37 31
56 42 33
46 34 28
49 36 29
49 36 31
48 35 28
49 36 30
38 28 24
47 34 28
40 28 27
47 34 31
46 33 30
43 32 26
33 24 20
36 26 23
29 21 19
37 27 24
36 26 24
33 24 22
26 18 18
31 22 22
32 23 22
35 24 25
30 21 21
24 17 17
29 21 20
24 17 15
30 21 20
33 24 22
36 25 25
24 17 16
21 15 14
30 21 21
26 18 17
34 24 24
46 33 30
36 25 25
26 19 18
29 21 19
26 18 18
34 24 22
36 25 26
41 29 28
37 26 24
39 28 25
38 27 24
34 24 22
30 22 18
34 25 22
35 25 22
47 33 32
49 35 32
43 31 28
41 30 25
49 35 32
40 30 24
53 39 31
47 34 29
49 36 31
48 36 28
60 44 34
50 37 30
59 44 34
63 46 39
57 44 30
44 33 25
55 41 32
50 38 26
60 45 35
67 51 37
66 49 38
68 52 36
56 42 31
68 50 39
69 52 37
76 58 41
76 58 40
67 50 40
77 59 41
77 58 44
77 59 40
74 57 37
82 64 41
81 62 41
77 58 40
70 54 36
84 65 40
87 67 45
87 68 41
80 63 38
80 62 38
85 65 43
76 59 39
98 76 47
100 78 47
95 74 44
91 72 39
97 75 46
86 68 41
90 70 43
96 75 44
98 77 45
92 72 44
98 76 48
90 70 44
99 77 46
96 74 48
100 79 45
99 79 41
101 81 44
102 81 45
106 85 44
100 79 45
99 78 46
105 83 48
102 79 50
104 81 51
101 80 44
102 81 46
110 87 48
110 86 50
106 84 48
106 83 49
109 87 46
104 83 45
105 82 47
105 83 47
111 88 48
103 81 48
110 87 48
111 88 49
112 89 49
108 86 45
106 84 45
113 89 51
115 92 49
108 85 47
109 86 50
113 88 53
107 85 47
110 87 51
108 85 49
108 84 51
119 96 48
110 87 49
110 87 50
113 91 47
116 93 50
106 83 50
114 90 51
114 91 49
109 87 48
111 87 50
114 92 47
110 87 50
111 88 50
114 91 49
118 95 50
111 87 51
114 90 49
109 86 50
110 86 51
118 94 49
117 93 52
116 92 53
111 88 51
114 91 48
115 91 52
113 89 52
115 92 49
118 93 52
121 97 50
114 91 50
117 95 47
119 95 51
119 95 50
114 91 50
120 95 53
114 90 52
117 93 50
115 92 49
116 91 52
115 91 49
113 90 49
115 90 53
116 92 52
118 94 53
117 93 52
118 93 52
116 91 54
123 99 50
120 96 50
116 92 53
119 94 52
120 96 52
116 91 56
120 95 51
121 96 52
118 93 53
117 93 53
121 97 51
121 97 51
117 93 49
115 92 48
120 94 55
118 93 52
119 95 52
117 92 54
122 97 52
116 91 54
118 93 53
119 94 53
118 94 51
119 94 53
121 96 53
118 94 51
117 93 53
117 92 53
120 96 52
117 92 54
120 96 51
121 96 54
120 96 52
117 91 55
123 99 50
120 94 54
118 94 52
120 94 55
119 95 52
118 92 57
123 99 48
121 95 54
120 96 52
120 95 52
119 94 53
123 98 51
120 95 53
120 95 52
122 98 51
120 95 52
122 97 52
121 96 53
119 93 55
116 91 54
122 97 53
117 92 53
118 93 54
118 93 54
121 98 49
119 95 51
119 94 53
121 97 52
119 94 54
122 96 54
116 92 53
121 97 49
121 96 51
121 96 52
123 98 51
116 92 53
116 91 54
119 94 51
119 94 53
124 100 49
118 94 51
118 94 50
116 92 52
122 97 53
117 92 55
120 94 56
118 93 54
119 95 51
116 92 50
120 96 50
120 94 54
117 94 48
117 93 51
119 95 52
117 94 49
120 96 50
116 92 50
116 92 52
115 90 54
119 95 50
116 91 54
121 96 52
119 95 53
115 92 49
117 92 53
116 93 49
117 93 50
118 94 49
114 90 50
113 90 51
117 93 52
111 87 51
114 91 49
114 91 48
115 90 54
115 91 51
116 92 50
114 90 49
118 94 50
109 87 46
114 91 49
107 84 48
116 93 50
110 87 47
110 86 51
109 88 44
111 88 50
115 92 48
111 89 47
109 86 48
117 94 49
109 87 45
118 93 53
118 94 51
105 82 49
106 83 49
114 90 51
105 82 48
108 86 47
115 90 52
110 87 49
105 83 48
112 90 46
105 83 47
102 79 49
113 90 47
109 86 48
109 86 51
103 81 45
105 83 47
107 85 46
114 90 49
103 80 48
100 78 48
105 82 50
106 83 48
111 87 51
107 85 47
102 80 47
108 86 45
106 82 50
101 78 49
109 86 47
108 85 49
90 70 43
98 77 44
103 81 46
102 79 48
106 83 48
105 83 47
89 70 42
93 74 40
94 74 44
94 73 44
93 74 42
90 70 43
93 72 45
96 75 45
91 72 41
91 71 42
91 70 46
91 70 46
92 72 43
94 74 43
92 71 46
86 67 42
88 68 43
83 65 40
88 68 45
84 65 42
78 60 38
80 62 40
89 69 43
82 64 40
79 61 39
72 55 38
76 59 39
72 54 40
75 56 42
73 55 40
66 50 35
70 54 36
73 55 40
74 56 40
70 53 39
67 52 35
81 60 45
59 44 35
64 48 36
60 45 35
61 46 33
64 48 36
60 45 34
54 41 30
60 45 33
63 48 35
54 39 33
60 44 36
50 37 30
45 34 26
52 38 32
51 36 34
57 42 34
45 33 29
45 33 27
47 35 27
44 32 27
34 25 21
44 32 28
35 25 22
41 30 25
45 32 30
41 30 26
39 28 27
31 22 21
40 29 26
36 26 24
45 33 29
33 23 23
30 21 20
33 23 22
29 21 19
33 23 22
34 25 22
28 20 18
35 25 23
35 26 22
38 27 26
37 26 25
30 21 21
36 26 24
43 31 28
30 21 20
38 27 26
31 22 21
28 20 18
40 28 26
35 25 24
42 30 28
38 27 25
43 31 28
45 32 29
41 30 25
53 39 32
42 31 27
52 37 34
42 31 27
43 31 27
46 33 31
46 33 29
46 34 27
46 33 28
41 30 25
50 37 30
56 41 34
47 34 29
56 42 32
58 43 35
55 41 32
55 41 31
56 42 31
59 45 32
56 41 34
60 45 35
62 47 33
72 54 39
63 47 35
67 49 40
69 52 38
67 51 37
67 51 36
68 51 37
66 50 36
77 59 40
73 56 37
80 61 40
73 56 36
78 59 40
82 63 43
83 64 42
78 60 40
77 59 40
83 65 40
77 60 37
97 75 47
81 63 40
92 72 42
82 63 43
76 59 35
83 64 41
82 63 40
89 69 44
96 75 47
93 72 47
99 78 45
91 71 44
105 83 47
85 65 43
87 68 42
96 75 46
95 75 43
99 78 44
93 72 45
92 71 44
93 72 44
97 77 44
106 84 45
99 77 47
100 78 48
103 82 46
104 82 46
99 78 44
98 78 42
101 79 47
98 78 43
99 77 46
101 80 45
94 75 40
104 82 47
107 85 47
108 84 51
102 80 47
102 80 49
106 84 47
106 84 46
99 77 47
110 87 48
101 79 47
109 86 49
110 88 47
104 83 45
112 90 47
111 88 49
105 82 48
109 87 46
107 85 45
108 84 50
109 87 47
112 88 50
112 88 51
112 90 43
114 91 49
117 94 46
119 95 48
116 94 46
114 90 50
114 91 49
112 90 47
119 95 50
115 91 50
113 90 50
116 91 53
116 93 49
113 89 52
114 91 48
115 92 46
116 92 51
116 93 50
115 92 47
118 93 51
117 93 51
114 90 51
114 91 49
114 90 51
115 92 48
117 93 50
115 92 49
114 90 50
115 92 50
118 95 50
118 94 51
122 97 53
110 86 50
116 92 51
118 93 51
115 92 49
121 95 54
119 95 51
120 98 45
116 91 54
114 89 54
115 92 49
121 98 47
116 91 54
118 93 52
121 97 52
121 97 49
118 94 52
116 93 49
119 95 52
118 93 54
118 94 51
115 90 53
115 90 54
118 95 47
120 96 50
123 99 49
115 92 49
113 88 57
119 94 52
120 95 55
123 99 50
120 95 51
120 96 52
122 98 49
121 96 51
120 94 55
119 94 52
121 96 54
122 98 49
116 89 59
120 95 54
120 95 52
115 90 53
118 93 54
118 92 56
120 95 53
120 95 52
116 90 58
119 93 57
118 93 53
123 98 51
117 92 53
114 89 54
122 97 53
120 96 51
121 96 54
123 98 52
124 101 48
119 94 53
117 91 56
121 96 52
121 96 54
121 96 53
117 92 53
116 92 52
121 97 53
118 94 50
118 93 53
121 96 52
117 92 54
123 98 53
116 91 54
119 94 54
120 95 54
115 90 54
119 95 49
118 93 53
120 96 52
119 95 50
117 92 53
118 94 51
118 94 51
119 95 52
117 91 54
119 96 48
118 94 53
121 96 51
120 96 50
117 93 52
119 94 54
116 91 52
120 96 50
119 95 51
117 93 49
118 94 51
118 94 51
121 96 53
116 92 51
115 91 52
122 98 50
120 95 51
118 93 53
115 91 52
119 95 53
116 92 53
114 89 52
114 91 49
117 94 50
118 94 50
117 92 52
118 94 52
116 92 51
119 95 51
118 95 49
114 89 54
114 90 50
110 88 48
117 92 55
110 86 52
116 93 49
119 96 48
113 89 52
123 99 48
117 93 48
111 88 50
117 93 50
115 90 53
108 86 45
113 89 51
118 93 52
115 91 52
110 86 50
115 91 52
118 95 50
113 90 49
118 94 50
117 94 49
113 88 54
114 90 52
110 87 50
115 92 50
109 86 48
116 93 49
111 88 50
109 86 50
106 84 48
105 82 48
108 86 48
115 90 53
104 82 48
105 83 47
116 92 49
111 88 48
111 87 51
108 85 50
105 83 46
95 74 47
106 84 47
107 84 48
107 84 49
111 88 48
108 85 49
105 84 46
101 79 48
111 89 48
101 79 48
104 81 50
106 83 50
105 84 45
110 88 46
101 80 44
103 81 47
101 80 44
94 73 44
101 80 44
103 82 46
98 78 42
98 76 48
100 80 43
94 74 43
100 79 47
93 72 44
95 76 41
97 76 43
95 75 43
88 69 40
86 67 42
90 71 39
94 74 43
87 69 40
85 66 42
88 69 40
86 67 41
95 75 42
89 69 41
82 65 37
96 74 48
75 57 37
81 62 42
82 64 40
80 62 38
84 65 42
79 60 42
72 55 38
70 54 36
75 58 37
81 62 42
69 52 38
67 51 35
75 57 41
76 58 40
76 58 39
67 50 37
71 54 39
69 51 38
65 50 32
59 44 34
67 51 35
62 47 34
66 50 35
61 47 33
65 49 37
69 51 40
57 43 32
60 45 34
55 41 33
64 48 36
60 44 37
51 37 31
51 38 31
60 45 35
48 35 29
48 35 29
45 32 27
54 40 32
48 34 31
45 33 27
41 29 27
41 30 25
40 28 26
43 31 27
37 27 24
48 35 29
39 28 26
39 28 25
44 32 29
38 27 25
44 32 28
34 24 23
37 27 24
35 25 21
32 23 22
33 24 22
33 24 21
32 23 21
36 26 23
36 26 23
37 26 25
40 29 27
43 31 28
26 19 17
47 34 30
37 26 25
35 25 22
36 26 24
39 28 25
41 29 27
49 35 32
38 28 25
40 29 26
39 29 24
39 28 26
33 24 20
50 36 31
51 38 30
58 42 35
43 31 27
38 28 23
45 32 29
52 38 31
47 35 28
51 38 28
48 36 27
58 44 32
54 40 32
59 44 35
58 43 35
60 45 34
60 45 33
65 49 34
56 41 33
67 50 37
57 43 31
54 41 27
64 49 33
62 47 33
70 54 37
63 48 35
68 51 37
64 49 35
74 57 37
70 53 36
68 53 34
70 54 35
69 53 35
72 55 37
71 54 37
69 53 37
82 63 42
77 60 38
75 57 38
81 63 39
85 67 41
89 68 46
88 69 41
94 73 43
82 63 41
85 65 43
88 68 42
95 75 42
86 66 43
90 71 42
84 64 43
89 69 44
90 71 42
91 72 41
89 69 45
96 74 46
92 73 40
93 73 43
101 79 47
97 76 46
93 72 45
95 74 45
97 75 48
95 75 44
109 86 48
106 84 47
98 78 44
95 74 47
103 81 46
93 74 41
106 83 49
105 83 44
108 84 52
109 87 48
106 84 49
103 82 46
102 80 45
109 87 48
109 86 48
97 76 43
103 80 49
109 87 47
109 86 49
107 85 48
109 86 49
107 86 45
106 85 46
106 84 46
113 89 52
117 94 50
115 91 50
105 83 49
106 84 48
108 85 48
112 89 48
111 87 52
107 84 49
117 94 47
114 91 48
113 89 51
111 89 47
111 88 48
112 89 48
112 90 45
106 85 46
112 88 52
117 93 51
113 90 49
112 88 51
116 94 45
116 93 50
117 92 52
116 92 52
115 92 48
113 91 48
117 94 48
117 93 51
114 91 49
118 94 52
111 87 52
114 91 49
119 96 49
118 94 52
119 95 50
119 95 50
117 94 48
115 92 50
116 93 48
118 95 47
120 97 49
114 91 49
113 89 51
118 93 52
118 93 52
119 96 48
118 93 51
114 89 53
113 90 50
116 91 54
112 88 52
120 95 52
113 88 54
118 94 50
116 92 50
118 93 52
119 94 53
117 93 53
117 94 50
122 98 50
115 90 52
122 97 52
114 90 53
121 96 52
121 96 54
123 98 50
121 97 50
120 94 55
120 95 54
121 96 52
119 95 50
119 93 54
121 97 52
116 92 51
120 95 54
119 94 54
114 89 56
118 93 52
123 98 53
116 91 54
123 98 52
120 95 54
119 95 50
118 94 51
117 92 54
118 93 54
116 91 56
119 94 54
123 98 52
120 96 51
120 95 54
121 97 50
122 96 54
118 94 51
121 96 52
121 95 54
119 94 53
120 95 53
119 94 52
122 97 53
121 96 53
120 95 52
119 94 53
117 92 56
118 93 54
118 94 51
122 98 50
117 91 56
121 96 54
117 93 53
118 94 52
121 98 48
117 92 53
120 95 53
117 93 51
120 95 54
120 95 53
122 97 53
115 92 48
118 92 55
124 100 50
121 97 50
121 96 53
119 95 52
122 98 50
118 93 55
120 96 51
120 95 53
119 95 51
112 89 49
122 97 54
116 91 53
118 93 53
117 93 49
120 95 54
119 95 50
115 92 49
118 93 52
112 87 53
116 92 50
111 88 51
116 92 52
116 93 50
116 91 53
120 97 49
114 91 50
116 92 51
115 91 50
114 92 48
115 90 53
114 89 54
112 89 49
117 93 48
113 89 53
116 92 49
114 89 53
118 94 50
114 90 50
112 89 48
120 96 51
116 92 52
119 95 51
113 88 52
118 95 49
119 94 52
108 85 50
113 89 51
115 92 49
113 89 50
111 88 50
115 91 50
110 87 49
117 94 49
116 93 50
112 88 51
117 94 48
108 84 52
111 88 47
112 89 48
110 86 51
116 93 47
110 87 49
109 86 51
108 85 47
109 86 52
113 89 50
111 88 49
102 81 47
110 87 48
101 79 49
103 81 48
113 89 50
105 84 43
112 89 47
106 83 49
106 83 49
107 86 43
107 85 47
102 81 45
111 88 47
106 84 48
102 82 42
102 80 47
96 75 45
108 85 51
102 80 46
105 83 48
100 78 48
101 81 43
102 81 45
100 78 47
100 79 45
106 83 50
99 78 43
104 83 46
106 83 50
99 79 42
101 80 46
100 79 46
95 75 42
99 78 46
96 75 45
87 68 41
95 75 42
93 73 45
93 73 43
96 76 43
87 68 40
85 67 39
94 73 44
89 70 42
92 71 45
83 64 40
84 65 42
86 66 42
83 65 38
77 59 38
84 65 44
80 61 42
73 56 38
70 54 37
84 66 38
75 57 39
74 56 40
78 59 40
73 56 39
68 51 36
75 57 38
65 50 32
76 58 41
66 51 32
62 46 37
63 47 38
62 47 34
65 50 34
62 47 34
64 49 33
60 45 32
65 49 37
64 48 36
59 43 36
57 43 33
57 43 32
62 46 36
61 46 33
61 45 36
56 42 32
66 48 39
49 36 29
50 37 29
51 37 32
41 30 24
54 40 32
46 34 26
44 32 28
40 29 25
44 32 28
39 29 24
41 30 25
47 34 30
49 36 29
40 29 26
51 37 31
43 31 29
43 31 27
38 27 24
34 24 24
46 33 30
37 26 24
34 25 22
37 27 23
41 29 27
43 31 27
40 29 25
26 19 16
37 27 25
40 29 25
40 29 25
39 28 26
41 30 27
42 30 27
35 26 23
37 27 24
38 27 24
45 32 31
37 27 23
42 30 27
38 27 26
49 35 32
46 33 28
45 33 27
45 33 28
50 36 32
44 32 27
44 32 28
47 34 30
51 38 31
46 34 28
47 35 26
49 36 30
49 37 29
57 42 36
55 40 34
58 43 32
57 42 33
55 40 34
66 49 38
58 43 34
64 48 37
55 41 31
56 42 30
65 48 37
63 47 34
59 45 32
79 60 40
64 48 35
70 54 36
73 56 39
67 51 37
70 52 38
73 56 38
76 59 38
73 55 39
78 60 40
77 59 40
70 53 37
70 54 34
82 62 44
75 57 40
80 61 41
82 63 42
75 57 41
90 71 41
86 67 43
95 75 42
87 67 43
92 73 40
86 66 43
81 62 42
93 73 43
83 63 43
89 70 40
92 72 41
86 66 43
83 65 39
105 83 47
88 68 43
91 72 42
91 71 43
93 72 44
96 75 46
97 75 46
93 73 43
103 82 45
101 79 46
97 75 49
100 78 47
103 82 44
95 76 41
102 81 44
95 74 45
102 81 43
105 83 47
104 82 46
98 77 44
98 76 47
105 84 45
104 83 45
106 83 50
98 77 45
105 82 48
109 87 46
98 77 46
104 82 46
104 81 49
108 86 44
108 86 46
108 85 49
109 87 47
116 92 51
109 84 53
109 87 46
107 84 50
108 85 49
111 89 47
113 89 51
108 85 49
111 89 45
109 86 50
111 88 49
110 86 49
116 92 50
108 85 48
111 88 49
108 85 49
116 92 50
114 91 48
116 92 50
115 90 53
116 93 48
116 94 47
112 89 49
118 94 48
117 92 53
112 89 49
116 93 49
120 96 50
111 87 51
114 89 56
120 97 48
114 88 55
115 91 51
121 96 53
116 92 52
112 89 50
114 89 52
118 95 48
115 91 51
111 88 49
118 94 51
114 91 48
116 92 51
112 90 47
111 87 52
120 96 51
118 94 50
114 91 48
119 94 52
116 93 48
118 93 53
116 92 53
118 94 50
115 90 54
116 91 54
119 95 51
118 96 47
121 96 51
119 95 48
120 96 53
120 94 54
117 93 51
121 97 48
117 94 49
116 91 53
122 96 54
115 91 50
120 95 53
117 94 50
120 95 53
116 90 54
123 97 54
116 91 52
119 95 52
121 95 54
121 96 52
122 97 51
114 90 53
115 91 51
116 91 53
116 91 55
117 93 51
122 98 51
119 95 51
118 93 53
123 98 53
118 93 54
122 96 53
114 90 51
118 93 55
114 89 54
119 93 55
120 94 56
121 96 52
121 96 54
123 99 51
119 95 50
117 92 55
117 93 52
121 97 51
119 95 49
122 96 54
121 97 51
120 96 51
120 94 55
121 96 52
118 94 51
120 95 52
120 94 55
120 95 53
115 90 56
122 97 52
123 100 49
121 96 53
119 94 54
118 93 54
116 90 56
120 94 56
121 96 54
117 93 51
121 98 48
122 98 50
121 97 52
119 94 52
117 92 55
117 92 54
118 92 56
118 92 54
121 95 55
119 94 53
114 90 51
121 96 52
119 94 54
115 92 48
121 96 53
116 91 54
119 94 52
115 90 55
118 94 50
108 84 53
116 92 51
112 89 51
118 93 53
119 94 53
117 93 52
121 97 50
120 95 52
121 97 50
119 96 47
110 85 56
117 93 52
117 92 53
119 95 51
119 96 48
113 90 49
117 93 49
119 96 49
117 93 51
113 89 51
117 94 49
115 90 52
117 92 53
113 90 49
112 88 49
110 86 53
114 89 54
115 92 48
118 94 52
111 88 49
112 88 50
112 89 49
112 89 49
115 90 53
107 84 47
106 83 48
117 93 51
113 89 51
110 86 49
111 88 49
111 88 48
111 88 47
114 91 48
109 86 49
110 87 49
114 90 50
109 86 50
117 94 49
109 86 48
108 85 49
109 85 51
107 84 49
103 82 45
114 90 49
109 87 46
108 85 50
108 85 49
115 91 50
111 87 51
113 91 46
102 81 47
103 81 47
100 79 45
102 81 43
107 86 45
106 84 46
98 77 45
108 87 45
99 78 44
108 86 46
103 81 47
95 75 42
104 82 45
94 74 43
100 79 46
90 70 44
101 80 45
100 79 46
95 74 44
100 78 47
101 79 48
98 78 44
92 72 43
87 68 43
92 73 40
103 80 51
96 75 45
95 74 44
86 66 44
86 66 43
84 65 42
90 69 45
80 62 39
88 67 45
93 73 44
83 65 40
96 74 47
88 67 45
83 64 41
86 67 42
76 58 40
89 69 44
83 64 41
82 63 41
89 69 44
66 51 33
71 55 36
71 53 39
78 60 38
69 53 34
80 60 42
78 60 41
68 53 34
74 56 38
74 56 39
66 50 36
67 51 36
73 56 37
62 47 35
65 49 35
62 47 33
62 47 33
58 44 31
61 46 34
62 46 36
63 47 37
64 47 37
55 41 32
58 43 35
55 41 31
43 32 25
61 45 37
52 39 31
44 32 27
47 34 30
50 37 31
52 37 33
47 34 30
53 38 32
44 31 28
51 37 32
53 39 32
50 36 30
54 39 34
53 38 33
44 32 28
45 32 28
49 35 32
38 27 26
38 28 24
47 34 29
30 22 19
47 34 29
39 28 26
46 33 30
43 31 28
35 25 23
35 25 23
45 32 31
39 28 24
41 30 25
38 27 25
43 31 27
37 27 23
50 37 29
39 28 25
40 29 25
51 37 31
46 33 30
45 33 29
38 28 24
44 32 28
43 31 26
40 29 25
50 37 31
47 34 29
43 31 26
56 41 33
53 39 31
45 34 27
49 36 29
56 41 34
44 33 24
52 39 30
50 37 29
53 39 30
58 43 33
56 42 32
71 53 41
59 43 35
57 42 33
49 36 29
65 48 37
77 58 42
75 57 41
73 56 39
79 60 44
71 53 42
62 47 35
74 56 40
67 51 38
71 54 38
78 59 44
69 52 38
80 60 43
76 59 39
73 56 36
79 60 42
80 62 40
81 62 42
83 63 44
80 62 39
91 71 43
71 53 39
80 61 42
83 64 42
88 67 44
79 59 43
84 64 44
87 69 40
92 72 43
89 69 44
94 73 46
90 70 42
95 73 46
94 73 44
97 76 44
86 65 45
90 71 43
95 74 45
106 84 47
96 75 44
91 71 44
94 73 44
97 77 42
102 80 47
102 81 45
94 72 47
91 71 45
100 78 49
100 80 43
107 85 47
104 82 46
100 79 45
93 73 45
108 86 47
102 80 47
106 85 45
105 83 47
111 88 49
108 85 51
106 83 50
107 84 49
109 86 47
112 89 48
110 87 49
108 85 49
104 83 46
106 84 47
108 84 52
109 87 47
104 81 51
110 87 50
105 82 50
107 85 47
110 85 54
108 85 49
110 87 49
114 90 52
109 86 48
113 89 51
106 84 47
110 87 51
114 93 45
112 88 49
111 88 48
115 92 50
118 94 51
117 94 50
113 89 50
116 93 49
111 89 46
112 89 48
116 94 47
115 92 48
117 92 54
110 86 52
114 91 47
114 92 48
114 90 50
117 93 53
118 94 52
112 88 51
113 90 49
117 93 52
114 90 51
114 90 53
120 96 50
115 91 50
115 92 48
118 93 52
112 88 52
117 93 49
118 94 50
113 88 52
115 92 50
114 90 50
119 94 54
116 91 55
120 95 51
114 89 54
121 98 48
115 91 53
115 91 52
121 96 52
116 91 56
118 94 51
117 93 51
116 91 53
119 94 54
117 92 54
116 92 51
120 97 49
121 95 55
118 94 52
123 98 52
117 93 52
118 93 53
122 98 51
121 97 51
118 94 52
124 101 49
119 94 53
120 95 51
117 92 54
121 96 52
120 94 55
120 95 53
119 95 51
121 97 49
116 92 52
116 91 52
119 95 50
117 93 52
119 94 54
118 93 53
123 99 50
120 96 51
119 94 52
120 94 55
120 96 50
119 94 54
123 99 51
119 94 52
117 93 52
120 95 54
120 95 54
119 94 53
122 97 52
123 99 50
119 95 52
120 95 55
118 93 53
121 97 52
118 94 50
120 94 55
122 97 53
119 95 52
120 95 53
120 94 56
121 97 51
119 95 51
117 93 53
119 94 53
119 93 55
118 93 56
120 94 56
120 96 51
116 92 51
118 94 50
120 95 53
117 93 52
122 98 50
121 96 53
115 92 48
118 92 54
113 89 53
121 96 54
118 93 53
121 97 51
120 96 50
120 95 51
116 92 52
115 92 50
115 90 52
120 96 51
120 95 53
116 91 54
116 93 49
114 90 53
114 91 50
115 91 52
119 95 50
121 97 50
119 96 50
119 93 54
117 94 48
113 90 50
115 90 53
109 85 50
115 92 49
118 95 50
115 89 55
115 90 54
116 92 49
117 94 48
114 90 50
117 93 50
118 94 50
112 89 50
116 91 52
117 93 50
114 90 51
114 91 48
112 87 53
113 89 51
114 90 51
118 94 50
116 93 49
116 95 42
114 91 48
109 87 47
108 85 48
115 92 48
115 92 48
111 89 46
114 91 48
102 81 44
115 91 50
108 86 44
112 91 45
113 89 52
109 87 47
107 83 52
112 88 52
111 89 48
113 91 47
112 90 47
110 87 48
105 83 46
114 90 51
104 80 50
101 79 46
107 85 48
108 87 44
105 82 49
104 82 47
109 87 46
109 87 49
96 74 47
104 83 45
109 86 48
103 81 46
101 80 44
101 79 48
101 80 44
110 87 49
96 75 45
103 81 46
113 90 51
100 77 48
102 80 46
109 86 47
95 73 46
102 79 48
95 74 47
98 77 47
101 78 49
103 81 47
99 77 50
101 79 47
93 73 44
95 75 43
99 78 46
90 70 44
97 76 44
97 77 42
87 68 41
98 75 50
91 72 41
96 76 43
99 77 47
86 67 40
86 67 42
96 75 47
76 58 41
87 67 44
88 69 42
80 61 43
82 63 40
80 61 43
86 67 40
81 62 41
85 65 44
74 57 39
76 58 41
79 60 42
85 65 44
79 61 41
65 49 35
73 55 40
69 54 34
67 50 37
71 54 38
76 58 41
67 50 39
65 49 36
67 51 38
66 50 35
64 48 36
66 48 40
62 47 33
63 46 38
62 46 35
53 40 29
66 50 37
63 47 36
58 43 34
54 41 29
51 38 30
56 42 33
49 36 29
52 39 29
53 38 34
49 36 30
51 37 30
43 32 25
47 35 28
52 38 32
45 33 28
48 36 28
50 37 30
51 37 32
45 33 27
55 41 34
46 33 27
42 31 26
46 33 30
42 31 25
47 34 32
39 29 23
43 31 27
47 34 29
48 35 31
52 38 33
35 25 22
49 35 31
42 30 26
39 28 25
43 31 28
48 36 28
39 29 24
44 32 28
47 34 30
40 29 25
50 36 32
43 31 28
39 29 23
45 32 28
43 32 26
47 34 30
48 35 30
45 33 29
42 31 26
48 35 28
51 38 31
49 36 29
45 33 27
54 39 33
55 40 35
40 30 25
57 42 34
49 35 30
51 37 30
56 42 32
60 44 36
55 41 30
59 43 35
61 45 35
60 45 34
61 45 34
64 47 36
59 45 31
61 47 32
67 52 34
67 51 34
72 54 39
73 55 39
74 57 37
68 52 36
68 51 38
78 59 41
86 66 42
74 57 37
67 51 35
70 54 35
80 61 43
82 62 42
77 59 41
78 60 38
76 60 36
85 66 41
82 63 42
82 63 42
76 59 37
79 62 36
80 62 41
80 61 42
89 69 44
85 67 40
85 67 40
86 66 43
86 66 43
84 66 39
99 78 44
86 67 39
82 63 41
96 76 43
89 69 43
100 78 47
100 80 43
95 74 45
101 79 46
98 78 43
96 75 45
105 84 44
99 78 46
105 84 43
100 78 46
98 76 46
100 78 46
101 80 47
93 73 42
101 79 48
103 81 45
95 74 44
113 89 50
110 88 46
104 83 46
103 81 46
106 83 49
104 82 46
101 79 48
109 86 48
103 82 44
118 95 46
105 81 51
103 81 47
107 83 50
112 88 50
106 84 45
109 87 47
105 82 48
108 86 48
103 81 48
112 88 50
107 86 46
107 83 51
115 92 49
111 88 48
114 90 51
110 87 49
113 91 47
116 92 51
109 86 49
107 85 48
107 85 47
111 88 48
114 90 51
115 92 48
114 91 48
113 89 51
113 91 46
112 88 52
111 87 51
113 90 48
114 91 49
116 93 48
108 86 47
115 92 48
116 91 55
114 89 52
113 89 52
113 90 49
115 91 49
114 89 52
114 91 48
113 88 53
117 92 53
113 89 51
117 93 51
115 91 49
117 93 52
118 94 50
118 94 51
120 96 51
120 95 54
116 93 50
114 90 52
112 89 47
117 93 51
116 92 51
119 95 50
120 96 52
120 96 52
120 95 53
119 95 49
110 87 49
116 93 47
117 93 51
120 94 55
123 99 50
118 93 54
123 98 52
115 91 50
121 97 50
119 94 55
118 93 52
121 96 53
119 95 50
118 94 53
118 93 53
117 93 52
119 95 49
121 96 53
119 94 53
119 95 49
121 95 55
120 96 51
118 95 48
121 96 52
119 96 50
118 94 49
117 92 53
116 92 51
121 96 54
118 92 55
122 99 49
117 91 55
117 92 54
116 90 57
119 92 57
123 97 53
117 93 51
120 96 50
124 99 51
121 97 52
118 93 53
121 96 53
120 96 51
121 97 52
118 94 52
122 98 51
119 93 55
115 91 51
120 96 52
115 90 52
119 94 53
122 98 50
121 98 48
121 97 51
122 97 53
119 95 51
118 93 53
122 97 51
120 95 53
122 99 48
115 90 53
120 94 55
118 94 50
118 93 54
121 97 52
121 97 52
120 95 53
119 93 56
120 94 54
120 95 53
120 96 52
117 91 56
113 88 55
116 92 50
116 91 53
112 90 48
115 91 51
118 93 53
116 92 51
117 92 52
115 91 50
113 88 53
122 98 51
119 94 53
115 91 51
113 89 53
114 90 53
119 95 51
117 93 51
120 97 49
116 92 51
117 94 47
112 88 50
117 93 50
118 94 53
114 91 50
111 86 53
115 91 52
115 91 50
116 91 53
116 92 51
118 95 47
110 87 51
113 90 50
115 91 50
115 90 53
113 90 47
116 93 49
111 88 48
114 90 52
114 92 48
116 92 52
113 91 47
113 88 55
113 91 45
112 89 47
117 92 52
115 91 50
113 87 57
105 83 49
110 87 48
112 88 50
112 88 52
110 87 48
109 85 51
108 86 47
112 89 48
107 85 46
111 88 49
110 86 51
108 86 46
108 86 47
106 84 48
108 86 46
111 88 49
112 89 49
103 82 45
107 83 51
100 78 47
111 89 47
107 85 48
111 88 47
104 81 47
107 83 50
103 83 41
100 78 48
102 81 44
104 82 46
100 78 48
105 81 51
105 82 49
104 83 46
101 79 48
103 81 47
98 77 46
102 81 44
101 80 44
100 77 49
100 78 49
97 76 44
96 76 42
98 76 47
94 74 42
98 78 44
97 77 41
97 75 48
95 75 43
103 81 45
91 71 43
95 75 44
88 68 44
93 72 45
84 65 40
98 76 48
95 75 43
89 70 39
82 64 39
89 70 42
88 69 40
85 66 42
83 65 40
80 62 38
87 67 43
96 76 43
90 70 45
83 64 41
81 62 43
80 62 38
65 49 35
81 63 41
74 57 37
80 61 43
75 58 38
70 54 36
82 63 41
69 51 39
69 53 37
76 58 37
66 50 35
65 48 37
70 52 40
70 54 35
62 47 33
63 47 34
65 49 37
67 50 38
73 55 38
65 48 37
61 46 33
56 42 33
59 44 34
66 49 37
59 45 33
62 46 36
58 44 33
52 39 29
55 41 32
61 45 35
49 36 30
58 42 36
48 35 29
55 40 36
53 39 32
48 36 27
53 39 32
51 37 30
45 32 28
49 36 31
44 33 26
48 35 29
50 37 29
45 33 29
43 31 28
39 29 24
49 36 29
43 31 27
44 32 27
45 33 28
43 31 27
44 33 26
46 34 28
42 31 26
47 34 29
47 34 28
46 34 27
42 30 26
46 33 28
47 34 29
47 35 28
44 33 26
49 36 31
43 31 26
49 36 31
44 33 26
42 30 26
47 35 28
51 37 31
45 33 27
54 40 33
48 35 30
55 41 31
48 35 29
53 39 31
55 41 32
61 44 37
59 44 35
46 34 27
65 49 37
52 38 32
56 42 33
66 49 37
62 47 34
71 54 39
62 47 34
73 56 37
69 52 38
68 52 37
69 53 37
70 53 40
64 49 35
65 49 34
75 58 38
72 54 40
77 58 43
76 57 40
72 55 38
79 59 43
78 59 42
76 57 42
68 52 36
81 62 43
75 58 37
78 60 42
80 62 40
89 68 46
75 57 38
82 64 39
90 71 41
82 64 38
81 63 39
81 63 40
83 64 41
96 74 46
96 76 43
92 70 47
80 62 40
91 70 44
94 73 46
88 68 42
92 72 44
99 77 48
80 62 39
87 68 41
95 72 50
98 77 46
97 74 51
95 74 45
97 76 45
99 79 43
91 69 46
104 82 47
100 80 43
101 80 44
99 77 47
97 75 47
95 75 43
107 85 46
94 75 41
102 79 49
101 80 44
104 82 46
94 74 42
102 82 42
104 82 48
111 87 50
101 80 45
110 88 46
104 81 49
104 82 47
109 87 45
106 83 49
109 86 50
104 82 47
102 80 46
114 91 48
107 84 50
113 91 47
110 87 49
110 87 49
108 86 47
112 91 45
111 89 45
114 91 50
111 89 47
107 83 51
115 91 50
111 88 49
112 90 46
114 90 51
113 89 51
111 88 48
114 90 50
113 89 52
113 90 50
110 87 49
112 88 49
112 89 49
115 90 55
115 93 47
111 87 49
116 93 50
112 87 55
113 89 51
116 94 46
115 91 51
113 90 49
118 94 51
110 87 50
113 88 53
117 94 49
114 90 52
119 95 51
114 91 50
116 92 52
116 91 52
120 96 51
120 96 50
116 92 50
115 90 54
119 96 49
115 92 49
118 93 53
115 90 54
116 92 51
115 92 51
118 94 49
116 92 51
118 94 52
118 93 52
114 91 49
115 91 53
117 92 53
118 94 51
117 93 51
117 93 53
122 98 50
115 90 54
119 95 52
119 94 56
122 97 53
116 92 52
114 89 54
121 97 50
119 95 53
121 97 50
119 94 51
118 94 51
120 96 50
121 95 55
121 97 52
120 96 51
117 92 52
119 95 50
116 92 52
119 95 52
121 97 50
120 94 55
120 97 48
122 98 50
121 97 51
122 96 53
115 91 50
119 95 50
116 92 50
119 94 54
116 91 54
118 94 51
119 94 54
123 100 47
121 97 51
119 94 54
120 95 53
117 93 51
120 96 52
123 98 52
120 96 48
119 95 51
119 94 54
120 96 51
116 91 54
122 98 51
120 95 53
119 94 53
117 91 55
120 96 51
120 95 54
119 94 53
118 94 52
124 100 50
117 93 52
119 94 54
118 93 53
116 93 50
117 92 54
120 95 53
119 96 48
118 94 52
117 91 56
112 89 51
115 90 51
117 93 52
114 90 50
119 95 52
115 90 53
119 95 49
119 94 53
120 96 51
116 92 51
118 95 49
118 93 53
117 92 54
116 93 47
116 92 52
115 90 53
119 96 50
116 92 50
120 97 49
115 90 52
120 95 52
118 95 48
113 90 49
121 96 53
116 92 50
114 88 55
112 89 50
112 88 51
118 93 53
113 90 50
118 93 52
116 92 49
115 91 53
111 87 51
118 94 50
113 89 52
116 93 48
114 89 54
108 84 52
118 94 51
116 93 47
115 91 50
115 91 52
116 92 50
113 88 53
106 83 50
116 92 48
114 90 53
114 92 45
108 86 47
120 97 47
110 87 49
110 86 50
113 89 51
113 88 52
107 83 52
116 92 50
108 86 48
108 86 46
114 89 53
108 85 49
108 85 50
113 89 52
109 87 47
112 90 47
108 86 46
111 88 48
100 78 48
110 89 45
109 86 50
110 87 49
97 76 45
105 84 44
105 83 47
105 82 49
109 86 48
94 73 45
106 84 47
103 82 44
106 83 48
104 81 49
95 74 45
103 82 44
103 80 50
105 83 47
100 79 45
105 84 45
95 74 46
103 81 46
102 81 44
108 86 47
91 71 44
100 79 45
90 69 46
95 75 43
92 72 43
103 81 47
87 68 42
99 77 50
96 77 41
86 67 41
95 75 44
87 68 43
87 66 45
86 66 43
95 74 45
89 69 44
91 72 42
90 70 43
85 65 44
87 68 41
86 67 41
81 62 40
83 64 40
88 68 45
85 65 42
82 63 40
94 73 46
88 68 43
85 65 44
80 62 40
72 55 37
77 59 41
79 59 43
76 58 40
73 56 38
69 53 36
70 54 35
70 53 39
76 57 41
82 61 46
71 54 37
63 47 34
72 55 37
64 48 37
64 48 35
60 45 34
65 49 35
67 50 38
62 47 34
63 47 37
60 45 34
57 43 33
58 43 32
55 42 30
62 46 38
66 49 37
61 45 36
63 47 36
61 45 37
51 38 29
61 44 37
55 41 32
57 42 36
53 38 32
46 35 27
60 45 34
56 41 34
51 37 31
53 39 32
50 36 31
53 39 32
56 42 33
47 34 29
46 33 29
46 33 28
49 36 30
43 32 27
40 29 25
47 34 29
50 37 30
57 42 35
40 30 24
52 37 34
43 31 26
47 35 28
53 38 34
48 35 30
52 38 32
54 40 32
49 36 30
56 42 33
46 34 27
48 36 29
45 33 29
54 39 32
52 38 31
42 30 26
53 40 30
61 45 36
51 37 31
59 44 35
56 41 33
59 44 34
50 38 27
53 39 33
59 44 35
59 44 33
63 48 34
62 45 37
58 44 31
69 53 36
59 45 33
62 47 34
70 53 39
66 49 36
64 48 37
62 46 37
66 50 37
74 56 39
74 56 40
71 54 38
75 57 40
86 66 44
67 50 37
68 52 36
74 58 36
80 61 41
78 59 40
80 62 37
77 59 41
82 64 39
71 54 36
78 59 42
79 60 42
80 62 39
84 66 39
85 66 42
89 69 44
89 69 43
93 73 46
92 71 46
80 61 42
78 59 42
84 66 39
84 64 44
87 67 45
90 70 43
93 72 46
93 72 44
96 75 45
83 64 41
96 76 41
84 66 40
92 73 41
94 74 43
94 73 46
101 79 47
100 79 47
96 76 43
96 76 43
103 80 51
97 76 45
97 75 46
107 86 45
100 78 45
95 74 46
101 78 50
103 81 48
93 73 44
104 82 47
104 83 45
100 78 48
103 82 44
103 81 45
108 84 50
106 83 48
107 86 45
103 81 48
109 87 47
112 88 51
109 87 46
103 81 48
100 78 48
114 91 48
106 83 49
107 84 50
110 85 54
108 85 49
103 81 47
114 91 49
108 84 52
111 89 48
113 89 53
109 86 51
114 90 51
113 89 52
109 88 44
105 83 47
105 83 47
106 83 51
110 88 47
114 91 50
108 86 46
110 87 48
115 92 49
112 88 51
115 92 48
113 89 53
118 93 53
114 91 48
117 94 48
117 94 49
114 91 48
118 94 50
112 89 50
113 89 49
109 87 48
113 91 47
113 90 48
112 87 53
117 93 50
111 87 50
116 91 52
116 91 53
115 91 50
120 95 52
118 93 53
116 91 52
113 89 52
119 95 51
111 88 51
117 92 53
117 94 49
113 89 52
117 93 51
113 90 49
114 89 55
113 89 49
112 88 53
116 91 52
117 93 51
112 88 51
118 93 52
119 94 53
122 97 53
118 95 50
120 95 52
122 97 51
116 93 49
121 97 51
120 96 51
116 90 57
120 96 51
119 95 50
119 93 55
120 95 54
119 95 49
115 92 50
120 96 50
121 97 50
121 96 53
120 96 51
117 92 54
121 97 52
119 94 53
118 93 53
119 94 51
122 97 52
119 95 51
120 95 54
117 92 54
120 96 50
116 92 52
122 97 53
121 96 51
119 95 51
120 95 54
120 95 52
119 96 49
116 91 54
122 96 55
119 95 51
115 90 52
121 96 54
121 96 53
118 93 55
122 98 50
118 93 54
118 93 53
117 93 53
121 96 53
122 97 53
117 92 53
122 97 52
116 92 51
119 95 50
120 94 55
118 94 53
116 91 55
117 93 51
111 87 52
117 93 52
119 95 51
116 91 53
120 95 53
117 95 47
117 93 52
117 93 51
116 92 51
118 94 51
116 92 52
119 94 53
115 91 52
121 97 48
118 94 51
117 92 54
115 91 52
118 94 51
118 94 49
113 89 52
119 95 50
120 96 51
119 96 49
119 97 46
118 94 51
118 94 51
121 97 50
119 93 54
114 90 50
113 90 49
118 94 50
114 91 50
113 89 50
115 92 48
113 90 51
116 91 55
116 90 55
119 95 50
118 94 50
116 93 47
113 90 49
116 92 52
111 88 49
111 87 51
116 91 53
117 93 51
116 92 51
115 91 50
114 91 49
114 91 50
111 89 48
114 92 47
115 92 49
111 89 47
117 93 51
115 93 47
114 90 52
112 87 54
109 87 47
115 92 48
114 91 49
111 89 44
120 96 50
110 87 47
114 91 47
106 82 51
109 87 46
106 83 49
112 89 50
115 92 49
110 87 50
108 86 46
110 87 51
111 88 47
110 87 50
107 84 50
114 90 49
112 90 46
109 86 48
110 87 51
105 83 44
114 90 51
95 75 43
105 81 52
106 84 49
106 84 47
100 78 47
103 82 45
108 85 49
104 82 47
100 78 47
106 83 51
105 83 46
99 78 44
100 78 46
98 77 45
98 76 48
100 79 45
96 74 48
104 82 45
97 76 44
99 78 46
97 75 47
99 78 45
89 70 42
94 73 46
96 75 44
97 77 45
93 72 47
91 71 44
92 72 43
95 74 45
93 73 45
93 74 41
96 75 46
89 69 44
87 68 41
85 66 40
85 64 44
77 60 39
86 67 41
81 63 39
77 60 38
77 59 41
86 66 43
78 59 42
87 67 43
88 69 41
82 63 43
74 57 39
79 61 41
79 61 40
72 56 34
86 66 44
81 63 39
76 58 40
78 60 40
76 59 39
73 55 41
67 51 36
74 56 39
62 46 35
69 52 39
71 54 37
71 53 39
65 49 36
63 48 34
70 53 37
64 49 34
62 47 35
58 43 32
66 49 36
57 42 32
68 52 35
61 46 34
61 45 35
64 49 35
52 39 31
58 44 33
51 38 29
54 39 32
47 35 26
57 42 33
54 40 31
49 36 31
60 45 33
58 43 35
50 37 29
51 38 31
47 35 27
46 34 28
55 40 34
55 40 33
47 34 29
51 37 31
55 41 32
51 37 32
50 36 31
44 32 28
52 38 31
49 36 29
51 38 29
52 37 32
58 43 35
57 42 34
49 36 29
53 38 34
53 38 32
54 39 32
45 32 28
54 39 32
47 35 28
54 41 31
54 40 33
41 31 24
61 45 36
48 36 28
46 34 27
55 41 31
65 49 38
56 41 33
51 38 30
59 44 35
56 41 34
66 49 37
54 40 31
71 53 39
62 48 33
63 48 33
64 49 34
64 49 34
68 52 37
55 42 29
61 45 35
73 56 38
73 56 38
69 53 37
75 56 43
69 52 38
72 54 39
74 57 39
67 51 35
79 61 41
69 53 35
75 57 38
74 56 39
78 60 39
73 55 41
70 55 34
80 62 39
81 62 41
71 54 38
81 63 40
88 68 45
82 63 40
82 62 43
85 66 41
95 74 47
80 62 37
84 65 41
83 64 42
84 65 42
78 59 43
84 65 41
82 62 43
92 71 45
93 73 43
91 70 44
85 66 41
94 74 44
100 79 43
91 71 44
92 71 46
94 74 43
94 74 42
89 70 40
95 75 44
97 76 45
91 70 47
103 81 47
96 75 45
90 70 45
92 72 42
99 79 43
101 80 46
99 78 47
102 79 49
106 84 46
102 80 47
97 77 43
98 78 44
99 78 43
95 76 42
106 83 50
98 76 49
107 84 48
103 81 46
106 84 47
101 79 47
109 85 51
104 81 48
107 84 49
106 83 50
104 82 48
109 85 49
111 88 50
103 81 47
108 86 46
109 87 48
110 86 52
104 82 47
111 88 51
115 92 48
109 87 48
112 88 49
102 80 50
114 91 48
114 90 51
113 90 48
113 88 55
109 87 48
114 91 48
112 88 52
109 86 48
111 88 49
111 87 52
111 88 51
111 88 49
114 92 47
114 90 49
119 96 48
114 91 50
115 92 50
116 92 52
107 84 49
112 88 53
113 90 49
114 91 46
119 94 53
118 94 50
110 85 53
116 93 49
113 90 50
111 88 50
116 92 50
118 95 49
114 91 50
116 93 50
118 96 46
116 93 49
115 92 48
119 95 49
109 88 46
118 95 49
118 94 52
118 95 49
120 95 53
115 91 53
119 94 53
115 89 57
122 97 51
119 95 50
117 94 50
122 99 48
117 90 58
117 92 51
120 95 53
117 92 55
118 94 50
117 92 53
118 94 51
114 89 52
120 96 50
116 91 53
118 94 50
120 96 51
118 93 53
121 96 53
116 92 51
119 95 50
118 94 52
118 93 55
118 94 50
119 95 52
119 94 53
119 95 50
119 94 51
122 97 51
119 95 51
114 90 51
117 93 50
116 91 54
122 96 53
119 93 56
119 94 52
116 90 56
118 92 55
118 93 54
117 92 52
117 93 51
122 98 50
119 94 52
121 96 51
122 97 52
119 94 53
118 91 58
113 88 53
119 94 52
117 94 49
121 96 51
120 96 48
116 91 53
121 96 51
121 97 51
119 95 51
125 101 48
122 98 52
119 94 52
117 92 54
117 93 50
123 98 51
116 93 50
116 92 51
120 94 55
116 92 50
117 91 57
119 95 52
118 92 56
120 95 55
115 92 48
118 95 49
118 93 54
117 93 49
113 89 51
120 95 52
122 98 50
116 93 47
119 94 52
119 94 54
115 91 53
121 97 48
117 93 50
118 95 48
112 88 52
116 91 52
117 93 51
117 93 51
115 91 50
112 88 50
119 95 49
121 97 50
116 91 54
118 93 52
114 90 53
115 92 48
114 90 50
123 100 47
118 94 52
113 89 49
111 87 51
117 93 49
117 92 51
116 91 53
114 90 50
111 88 48
116 91 53
112 88 49
111 88 48
124 99 52
113 89 51
117 94 47
115 91 49
113 89 50
111 87 52
109 86 49
116 91 54
118 94 51
110 87 49
109 86 50
112 90 47
106 84 46
111 88 49
109 87 48
104 82 49
107 85 48
104 83 44
112 90 47
110 86 51
109 86 50
104 82 48
110 87 50
109 86 48
115 90 52
113 91 45
109 87 47
106 84 45
105 82 48
108 84 51
110 87 47
110 87 49
106 84 46
103 82 44
106 84 47
104 82 46
104 82 48
101 79 48
108 85 49
99 78 44
105 83 47
102 80 47
103 82 43
105 84 45
103 82 45
100 79 46
105 83 47
106 83 50
98 78 44
100 78 48
93 74 41
101 79 48
96 74 48
95 75 42
92 72 44
104 82 47
94 73 44
97 76 46
95 74 47
93 73 42
100 78 48
89 68 46
87 69 40
94 74 45
99 78 45
91 71 42
77 59 39
78 60 39
94 74 43
86 67 41
94 73 46
104 80 51
86 68 39
87 67 44
92 71 47
92 71 44
83 64 41
78 61 38
81 63 39
76 59 37
79 60 40
90 69 45
81 63 39
76 58 41
77 60 37
71 54 37
74 56 40
78 60 40
82 63 43
76 58 39
81 63 41
62 47 33
76 57 42
75 58 39
65 50 33
77 58 43
75 57 39
68 51 37
61 47 32
64 49 35
65 50 34
65 49 37
60 44 35
59 45 33
71 53 39
56 42 32
58 44 33
71 53 38
56 42 30
59 44 33
73 54 41
57 42 34
62 46 37
56 41 33
62 46 36
57 43 31
55 41 32
57 43 31
55 40 32
61 45 37
51 37 32
47 35 29
55 41 31
63 46 39
57 42 34
53 39 32
47 35 28
55 41 32
52 39 31
48 35 29
54 40 31
46 33 28
52 38 32
48 35 30
51 38 30
46 34 27
53 39 31
49 36 28
53 39 32
53 39 32
60 43 38
47 35 28
61 45 36
50 37 31
55 41 31
57 42 34
58 42 34
54 41 30
51 38 29
56 41 34
55 41 32
51 37 31
66 50 37
60 46 32
59 44 35
56 42 32
62 46 36
60 45 35
59 44 36
61 46 34
63 47 36
69 51 39
74 56 39
64 48 34
51 38 28
68 52 34
77 58 42
74 56 41
65 50 34
72 54 40
72 55 37
74 56 40
70 53 39
73 55 39
70 52 41
66 50 35
68 53 33
78 60 38
78 59 42
69 54 32
83 65 40
84 65 39
80 63 38
69 53 35
84 65 41
81 63 38
83 65 40
79 60 40
81 62 40
86 67 43
93 73 44
88 69 41
85 66 42
89 70 42
87 68 41
92 72 42
92 71 45
90 70 44
94 73 45
92 72 44
87 68 40
92 71 44
79 61 39
103 80 47
83 65 38
95 74 45
93 71 48
95 74 43
100 78 47
103 82 45
98 76 46
97 77 43
93 73 41
92 74 40
98 75 50
97 75 49
101 79 47
94 73 46
99 79 43
100 79 45
103 82 45
104 81 48
100 80 42
106 84 47
103 82 46
101 80 44
106 83 48
109 87 45
108 87 44
105 83 47
102 81 45
109 85 51
108 84 50
108 86 46
105 83 48
103 81 47
107 85 46
103 80 49
106 83 50
103 80 50
110 89 45
112 88 52
110 87 49
105 82 50
111 89 46
109 86 49
110 87 49
105 83 49
111 87 51
103 80 48
112 89 50
119 97 46
111 87 53
104 83 46
112 88 50
109 86 48
113 89 52
103 81 48
115 91 50
109 86 49
116 92 50
109 86 51
113 90 48
111 88 50
105 84 45
114 91 48
106 84 45
114 91 49
120 96 50
113 90 50
113 89 51
115 91 52
122 98 48
111 87 50
119 95 51
118 94 50
113 88 53
113 89 52
113 91 46
113 90 48
115 92 49
117 92 52
114 90 52
112 88 51
113 89 50
115 91 50
116 91 53
120 97 48
117 93 51
114 90 51
114 91 50
115 92 49
112 88 53
116 92 51
121 97 51
117 92 52
118 94 52
114 89 53
117 91 55
117 93 53
119 93 54
116 93 50
118 94 53
117 92 54
116 90 55
119 94 54
121 96 51
119 94 53
117 93 51
123 99 50
119 95 50
118 94 51
122 96 54
124 99 52
118 94 51
116 92 49
121 97 51
120 96 50
118 93 54
120 95 53
116 92 52
118 93 56
118 94 52
119 94 53
121 96 52
116 91 54
118 93 52
122 98 50
118 94 51
118 92 56
114 90 50
117 91 57
117 93 51
120 95 54
119 93 56
120 95 53
118 94 52
123 98 53
119 94 53
114 89 54
119 96 48
121 97 49
117 93 50
116 91 52
119 95 51
118 94 52
114 89 55
117 93 51
119 96 50
118 93 52
117 92 54
120 95 53
121 96 52
117 94 49
119 93 57
118 94 51
116 91 53
121 97 50
119 95 52
115 90 53
118 93 52
114 90 51
116 91 53
120 96 51
116 92 50
114 89 54
118 93 53
117 93 50
114 90 51
119 94 53
116 92 50
116 92 51
120 95 52
120 95 52
112 88 51
118 95 46
121 98 49
119 95 49
116 92 51
114 90 52
118 93 52
118 93 53
117 92 53
120 96 48
116 92 51
119 95 50
114 90 52
117 93 49
113 89 51
115 92 48
116 91 54
112 87 53
116 93 48
113 89 50
110 86 53
118 94 51
116 92 53
111 87 53
118 94 50
112 87 53
109 86 51
107 84 49
112 88 51
111 87 50
111 88 49
111 87 50
112 88 50
111 87 50
113 90 49
113 90 47
107 83 52
110 86 52
110 86 50
114 90 51
110 86 52
112 89 47
104 83 46
116 92 50
110 87 49
103 82 46
112 89 48
116 92 51
108 85 51
113 89 52
107 85 46
108 86 44
107 86 45
106 84 45
104 82 47
108 86 45
109 87 45
109 86 48
100 78 45
104 83 46
104 83 44
105 83 47
104 81 48
100 79 46
100 79 46
105 82 48
104 82 48
103 81 48
94 73 44
101 80 47
106 84 47
97 77 43
95 74 46
106 82 52
98 77 44
100 78 47
101 80 46
96 74 47
107 84 49
95 74 46
100 78 47
88 69 43
98 76 47
91 71 44
97 77 43
94 74 43
95 74 45
89 71 39
93 72 44
85 66 43
97 76 47
87 69 40
88 68 43
82 64 38
90 70 44
94 74 44
93 72 46
92 71 46
91 70 44
81 64 37
87 68 42
81 63 38
83 64 42
82 63 42
80 62 40
82 63 42
83 66 38
85 66 43
86 67 41
77 59 40
75 57 39
84 64 42
78 59 41
85 65 44
81 63 40
76 57 42
74 57 38
73 56 39
71 53 39
75 57 38
74 56 40
76 57 43
75 57 41
75 57 39
66 50 36
65 49 36
73 57 36
63 48 34
70 53 39
64 48 36
71 54 38
57 43 32
63 47 36
59 44 32
62 47 34
57 42 34
61 46 33
60 45 36
60 44 35
59 44 33
58 44 33
49 37 27
59 44 34
57 42 34
63 47 35
61 45 36
59 44 34
52 39 29
54 40 34
56 40 35
42 31 26
49 36 28
65 48 39
55 41 32
52 39 31
57 42 33
56 42 33
50 36 31
51 38 31
60 45 33
56 42 33
46 34 27
56 42 31
52 38 32
59 44 35
58 43 34
54 40 31
49 36 29
58 43 33
56 41 34
55 41 34
60 44 35
52 39 30
52 39 30
55 42 30
57 42 35
60 45 34
57 43 32
66 49 39
58 44 31
57 43 32
57 43 31
63 47 36
59 43 36
65 50 34
58 44 33
71 54 38
74 56 39
60 45 34
67 50 39
68 51 37
63 47 37
64 48 35
69 52 38
62 47 33
72 55 37
78 60 40
76 58 40
64 49 34
66 50 36
65 50 33
78 59 42
80 61 40
75 58 38
81 62 41
79 59 45
80 62 39
72 55 36
81 62 41
87 68 41
91 72 41
76 58 39
79 60 40
80 62 39
94 73 47
83 64 43
86 67 43
88 67 46
89 69 45
88 69 42
82 63 40
81 62 42
90 69 44
94 73 44
83 64 41
88 69 42
82 63 40
94 73 47
96 74 47
90 71 42
91 72 40
96 76 43
97 75 48
96 75 47
89 69 43
100 80 41
96 76 42
91 69 49
96 75 46
99 77 48
97 77 42
101 79 47
101 79 47
94 73 45
101 80 45
107 84 48
105 84 47
103 81 48
107 86 43
103 80 50
103 80 50
99 77 48
110 88 45
102 81 44
104 82 47
104 83 45
106 84 47
103 81 47
111 87 50
100 79 45
95 74 46
103 81 47
108 85 49
103 80 48
109 86 49
110 87 48
116 92 50
107 83 53
109 88 45
105 83 48
106 84 47
108 86 47
111 87 51
116 93 50
108 86 47
108 86 45
112 90 45
112 89 48
112 88 49
107 85 46
113 90 51
109 85 51
111 89 45
111 88 48
118 94 49
114 90 53
113 89 51
109 86 49
111 90 45
112 88 51
108 85 52
115 92 49
112 89 49
113 89 52
117 94 49
116 94 47
114 90 51
117 93 51
116 92 52
118 94 52
119 95 50
113 89 52
106 84 48
109 87 48
114 91 50
115 91 52
115 92 49
113 90 49
117 93 49
116 92 52
114 90 52
111 87 51
114 88 56
113 89 50
121 96 53
116 92 51
116 92 52
112 87 53
115 92 49
118 94 52
114 90 51
116 91 55
121 96 52
118 94 52
116 91 54
117 94 46
120 95 52
116 91 52
119 97 47
115 91 52
120 95 52
116 91 53
119 95 50
118 94 49
122 97 52
116 92 52
119 96 49
115 91 51
117 93 51
116 93 50
119 95 51
118 93 54
115 92 48
121 97 52
119 94 54
120 95 54
121 96 54
121 96 51
120 96 51
118 93 53
114 91 49
119 95 51
120 95 53
119 93 56
116 92 52
120 96 51
118 93 54
120 97 49
119 94 52
119 95 52
119 94 52
119 95 52
115 90 56
119 93 54
122 97 53
119 94 53
122 98 49
117 92 53
120 95 53
113 89 51
119 94 54
115 90 52
118 93 52
117 92 53
121 97 48
121 97 48
117 92 52
116 91 52
116 92 53
118 93 52
116 92 51
117 92 52
115 92 50
122 98 50
121 96 52
123 100 47
119 95 51
116 92 51
116 92 51
118 94 51
119 94 53
117 92 52
118 93 53
119 94 53
115 91 50
119 96 50
118 94 51
115 91 51
116 92 50
120 97 48
114 90 51
117 93 51
114 90 53
115 91 50
117 91 54
114 89 54
117 93 52
118 95 48
112 88 51
114 92 47
114 90 52
113 90 50
115 92 50
111 88 49
116 91 52
117 93 50
113 90 48
111 88 48
111 87 52
117 94 49
111 87 50
120 96 48
115 92 48
117 92 54
113 90 48
114 90 50
114 90 52
114 91 49
111 87 51
107 84 49
112 89 51
107 85 47
110 88 48
108 85 48
112 89 50
112 89 48
111 89 47
109 87 44
116 92 50
114 89 54
108 85 50
115 91 50
113 90 48
114 91 50
107 84 47
108 84 52
109 87 47
101 79 49
106 83 50
113 89 51
100 78 48
115 92 47
115 92 49
102 80 47
105 82 49
103 81 46
106 85 44
103 80 48
106 84 46
108 87 45
103 82 44
108 86 46
106 84 45
106 82 51
102 80 45
106 83 48
107 84 48
104 82 47
98 77 46
106 85 45
102 81 46
101 80 46
101 80 45
96 75 46
101 80 45
97 77 42
96 75 47
93 73 44
98 77 45
100 77 49
93 73 43
105 82 48
100 79 44
96 76 45
90 71 41
94 74 43
93 73 43
89 70 42
95 75 45
90 70 44
94 72 49
93 72 45
84 64 43
86 66 42
87 67 44
87 68 40
85 66 42
90 70 45
87 66 44
86 66 45
81 62 40
91 71 43
78 61 38
88 69 41
89 69 43
77 58 41
80 63 38
84 66 41
74 56 38
80 62 38
71 54 37
79 62 38
75 58 38
77 59 40
87 69 38
68 52 35
70 53 39
69 53 36
73 56 36
67 50 38
73 55 39
81 62 41
77 59 39
76 58 41
65 49 35
71 55 35
60 45 34
67 51 35
68 52 34
67 50 36
73 56 39
63 49 31
66 49 40
67 50 39
60 45 34
56 43 29
59 44 32
64 48 36
65 49 34
65 49 35
59 44 34
60 44 37
63 46 37
67 50 37
50 36 32
62 47 35
52 38 30
58 44 32
51 38 28
58 43 34
55 41 33
57 42 33
53 40 30
61 45 34
62 46 36
59 44 35
49 37 28
56 42 32
54 40 33
56 42 31
50 37 29
56 42 32
52 39 31
54 40 32
52 38 31
49 37 29
53 40 30
48 36 27
56 42 33
60 45 34
52 38 32
64 47 38
69 52 38
50 37 28
67 51 38
58 44 33
62 46 37
54 41 31
57 43 32
67 50 38
51 38 30
60 45 33
66 49 39
62 47 33
55 41 33
65 48 38
70 53 38
61 46 35
64 47 36
65 49 35
79 61 41
64 48 36
65 50 33
72 55 36
68 52 37
65 49 35
70 54 35
68 51 38
67 50 38
73 56 39
70 53 39
76 59 39
74 56 39
75 59 36
77 58 41
77 59 41
76 57 40
78 60 40
77 59 41
80 62 40
88 69 43
77 59 40
85 66 42
80 62 41
78 60 39
87 67 45
87 68 40
92 73 42
72 55 36
86 68 40
83 64 42
97 75 47
83 64 40
83 64 42
98 76 48
96 75 43
99 78 46
92 73 40
90 70 43
92 72 43
89 70 42
102 79 50
95 74 45
93 72 46
91 73 39
92 72 43
95 76 42
99 77 49
97 76 46
91 69 47
93 73 44
91 72 40
98 77 45
100 79 45
102 80 47
101 79 47
100 79 46
98 78 44
103 81 47
96 74 47
106 84 47
99 77 48
98 78 44
102 81 43
101 80 45
106 83 48
102 81 47
99 78 44
112 88 51
100 79 44
104 83 46
110 85 54
103 82 45
106 83 48
103 82 46
106 83 49
109 86 48
104 82 49
108 86 49
112 89 50
117 93 50
110 87 50
112 87 54
110 88 46
107 84 49
111 88 48
108 86 47
116 93 49
112 88 51
114 90 52
113 90 48
115 91 50
111 89 48
112 89 48
116 90 55
116 94 46
115 92 48
114 90 53
112 89 50
115 92 48
114 90 51
113 89 50
110 87 49
115 92 49
109 85 51
119 95 51
118 95 48
114 90 51
112 88 50
118 94 51
115 92 49
115 91 51
118 93 52
116 93 47
113 90 49
114 92 47
113 90 50
113 89 50
110 88 47
115 91 51
118 93 53
117 94 48
115 91 51
121 97 50
116 92 50
121 96 52
121 97 50
119 94 54
115 92 51
121 96 52
117 92 53
119 96 50
116 91 54
117 93 50
118 92 54
120 97 48
116 91 53
118 93 52
119 95 50
121 97 51
116 91 53
115 90 52
120 96 51
117 92 52
117 92 54
118 94 51
118 92 55
119 95 50
120 97 48
118 93 53
119 94 52
124 99 50
118 94 52
121 97 52
120 97 48
118 93 52
116 92 49
120 96 50
121 96 52
119 95 52
123 99 49
119 95 53
120 95 54
118 94 51
121 96 52
123 98 51
119 95 49
118 93 53
121 96 53
120 95 53
122 98 51
122 98 51
119 94 52
120 95 53
121 98 48
118 93 52
123 99 52
121 97 50
117 93 49
118 93 54
119 94 54
118 93 53
114 90 51
123 98 51
116 92 52
121 96 54
119 93 54
121 97 52
119 94 53
119 94 53
118 94 51
116 92 51
119 94 52
119 95 49
117 93 52
120 96 50
119 94 51
119 95 50
117 93 51
118 94 48
120 95 52
118 93 51
117 93 51
118 94 51
119 95 50
115 92 50
113 89 53
121 97 53
120 97 48
117 92 55
117 92 55
118 93 54
120 95 53
112 88 52
112 89 49
109 86 49
117 94 49
117 92 52
115 90 54
111 88 50
112 88 49
118 93 53
107 85 47
118 93 53
113 89 53
113 89 52
114 91 50
111 88 49
111 86 54
116 92 51
118 94 50
114 91 50
116 92 51
110 86 50
116 92 50
110 87 51
110 88 46
116 94 47
113 90 48
112 89 50
113 90 47
110 87 47
113 89 51
116 92 52
111 88 48
113 90 50
111 87 50
103 81 48
109 86 48
104 83 44
109 86 48
106 83 48
115 91 50
106 85 45
109 86 48
106 84 48
106 85 45
105 83 48
115 91 51
111 88 48
101 80 45
109 86 48
100 77 49
104 82 47
109 87 47
104 83 45
103 81 48
106 84 46
106 83 50
105 82 48
105 82 49
104 82 47
102 81 46
108 85 50
100 78 48
112 88 49
97 77 44
100 79 44
99 78 44
100 79 45
106 84 45
101 80 44
96 75 44
99 77 47
106 82 52
98 77 45
101 81 43
103 81 46
90 70 44
97 76 46
101 80 45
98 77 46
95 73 49
91 71 42
89 69 44
88 69 40
89 70 42
95 75 43
92 71 45
92 72 43
91 72 41
93 73 43
94 73 44
89 69 44
91 71 43
88 69 41
90 70 44
90 70 43
87 68 42
85 65 45
92 72 45
84 65 39
82 63 42
79 62 37
86 67 40
82 62 45
80 63 37
80 62 40
72 54 39
88 68 43
78 61 37
66 50 35
68 51 37
81 62 40
81 62 42
75 58 37
76 58 41
77 59 41
74 56 41
81 62 41
82 63 43
77 58 40
67 50 38
66 50 37
72 54 39
69 53 35
67 51 35
70 53 38
75 56 41
72 53 41
67 51 36
72 55 37
66 49 39
67 51 36
56 42 32
62 46 36
65 48 37
63 47 36
61 46 35
55 42 29
68 51 39
71 54 40
60 45 33
62 46 37
64 47 39
61 45 37
60 45 35
58 44 31
57 43 32
53 40 30
63 47 35
57 42 34
61 46 33
59 44 34
51 38 30
58 44 32
49 37 27
54 40 32
65 49 37
58 44 32
53 40 30
55 41 32
53 40 29
56 41 34
59 43 35
51 38 29
54 41 30
51 38 28
57 43 32
62 47 33
56 42 31
66 50 36
61 46 33
55 42 30
51 38 28
65 49 36
55 41 31
63 47 34
62 47 34
68 51 38
61 47 32
61 46 32
65 49 37
58 43 35
67 50 38
73 54 42
64 48 34
65 49 35
66 50 36
71 54 37
71 55 37
77 58 42
66 50 36
68 50 40
70 53 36
69 52 36
70 53 37
75 57 39
62 47 35
80 60 45
81 63 40
78 61 39
83 65 41
82 62 45
76 60 36
74 56 41
86 66 45
76 59 37
78 61 38
76 59 39
74 56 39
86 67 42
95 72 51
86 66 43
86 67 41
83 63 43
85 66 43
87 68 42
80 61 41
97 76 46
85 66 41
94 72 46
90 70 44
95 75 42
100 80 43
96 75 45
83 63 42
98 76 48
88 67 46
89 69 44
102 81 45
99 78 45
87 69 40
96 75 45
95 75 43
100 78 46
102 80 47
95 73 48
93 73 43
98 76 49
99 77 49
98 76 48
102 80 48
105 82 49
98 76 46
94 75 40
101 79 48
107 85 47
104 82 45
104 82 49
104 81 50
98 76 48
96 75 43
96 74 46
102 79 49
105 83 48
105 83 49
113 90 47
102 81 44
105 83 47
105 84 45
104 83 44
100 79 46
105 83 47
111 88 48
103 81 46
108 86 47
103 81 47
108 87 44
104 82 47
110 86 52
114 91 49
111 88 50
114 90 50
109 85 52
115 93 47
110 87 51
113 89 50
105 83 46
110 88 47
110 88 46
109 87 49
106 84 47
118 95 48
111 88 50
114 91 47
109 87 46
110 87 48
107 84 51
111 89 48
106 83 49
111 88 48
110 87 49
107 84 51
117 93 50
114 90 51
114 91 49
115 90 54
114 90 51
114 90 51
118 95 49
116 92 50
114 89 53
113 90 49
117 93 52
115 92 50
118 95 49
115 91 49
115 91 51
116 93 50
115 91 51
115 91 51
115 90 52
118 94 52
114 91 47
115 91 50
117 93 52
111 88 50
114 91 48
116 91 52
117 93 51
112 90 48
121 98 49
115 91 51
121 97 48
115 89 56
116 91 53
117 93 51
119 95 51
117 93 51
121 98 48
117 94 50
118 94 49
118 93 52
122 98 50
116 92 52
120 96 51
116 92 51
114 91 50
121 96 52
118 94 51
120 95 52
119 94 51
121 97 52
118 94 52
118 94 50
115 91 51
120 94 54
119 94 54
116 92 49
119 95 50
121 97 49
123 100 48
119 94 53
122 96 55
119 94 53
119 95 52
117 92 54
119 93 55
120 96 51
118 94 51
120 95 53
120 95 53
114 89 53
114 91 49
121 97 51
118 93 53
119 95 53
119 94 53
118 93 52
117 94 50
112 86 57
118 93 52
120 97 48
120 96 50
117 93 51
114 90 53
121 97 50
117 91 56
118 94 51
118 94 51
118 95 47
115 91 52
117 91 55
119 95 49
112 89 50
119 95 52
118 94 50
119 94 52
116 92 51
113 88 55
119 95 50
119 95 50
115 91 50
114 90 51
115 90 53
117 94 50
110 86 52
119 95 51
115 91 51
120 96 52
115 93 45
110 86 52
116 92 51
112 89 50
116 92 52
116 92 53
109 85 51
116 93 50
118 94 51
113 90 49
120 95 52
114 90 52
111 89 47
115 90 52
115 90 52
115 93 46
116 94 47
112 90 47
115 91 49
117 93 51
112 89 50
115 91 51
108 87 45
113 90 49
110 87 50
114 90 50
116 92 52
110 86 51
113 88 53
115 92 48
111 89 48
110 87 49
115 93 46
108 87 45
117 93 53
111 87 51
105 83 48
114 90 49
116 92 49
114 89 53
110 87 50
105 83 49
105 83 49
112 88 50
104 82 46
109 87 47
103 81 49
104 81 50
104 82 47
104 82 48
106 84 47
106 84 45
114 93 44
107 84 50
109 86 48
114 91 50
110 88 46
112 89 49
104 83 44
99 78 42
99 77 47
103 81 47
105 85 41
100 79 45
101 81 44
103 82 46
94 74 43
103 82 45
100 79 43
98 77 44
95 74 44
95 75 43
96 76 43
99 78 45
97 75 46
99 77 46
106 84 44
98 77 47
92 72 42
102 80 47
97 75 49
90 70 41
92 71 45
86 68 39
97 76 45
86 67 42
97 77 43
91 72 39
93 73 44
85 66 41
92 73 40
93 74 41
98 77 47
98 78 44
92 71 47
90 70 41
92 71 46
85 66 42
84 65 42
88 68 44
90 71 42
92 72 44
83 64 43
79 61 39
81 61 43
76 59 37
78 60 41
75 58 37
89 70 42
85 66 43
78 60 39
81 62 41
81 63 39
67 51 34
69 53 36
86 66 44
73 56 38
82 63 42
82 63 41
75 58 38
72 55 37
65 50 34
75 58 38
69 53 35
76 58 41
68 51 38
70 53 37
71 54 39
71 54 37
71 54 39
67 50 37
63 49 31
67 52 33
64 48 36
60 45 31
62 47 33
66 49 38
71 55 37
61 45 36
66 49 38
62 47 35
65 49 36
64 48 36
57 42 32
56 43 29
59 44 33
64 48 37
53 39 31
64 47 38
54 41 28
63 47 36
60 45 35
67 49 39
59 44 34
54 40 32
59 44 35
60 45 32
64 48 38
63 46 38
49 36 29
58 44 32
59 43 35
65 48 40
63 47 36
54 40 30
58 42 35
71 53 39
67 50 37
63 47 36
56 42 33
62 47 34
50 38 27
68 50 39
55 40 33
59 45 31
64 49 33
61 45 34
62 46 34
61 46 33
67 51 37
64 49 34
60 46 32
59 44 33
61 47 33
80 61 42
69 52 39
65 49 34
62 46 35
68 52 37
74 56 39
70 53 36
77 58 42
75 56 41
75 58 38
70 54 36
72 55 37
69 52 37
77 59 40
80 61 42
76 58 41
71 54 37
74 57 36
75 57 38
74 56 39
78 60 40
81 61 44
81 63 40
76 58 41
81 62 40
84 64 43
83 65 40
86 67 41
78 59 40
82 63 43
83 64 43
93 72 46
86 66 42
83 64 39
93 73 42
83 64 42
89 69 44
92 72 43
90 70 42
91 71 45
96 73 49
93 73 42
92 72 45
87 68 42
93 73 43
92 71 45
94 73 46
92 72 44
101 79 46
100 80 43
96 75 47
94 74 43
97 77 44
100 78 48
97 76 45
93 75 39
94 74 43
94 73 47
98 77 45
95 75 44
105 83 48
100 79 45
96 75 45
104 82 48
96 76 44
102 80 48
94 72 47
98 77 45
100 79 43
106 84 44
108 85 49
105 84 44
98 76 48
105 84 44
105 82 48
104 81 50
104 81 50
103 81 47
107 85 45
111 89 46
104 82 47
109 87 48
111 87 52
108 86 48
103 79 51
110 88 46
113 90 49
107 84 49
115 92 49
114 92 45
109 87 46
106 82 50
107 85 47
108 86 47
113 89 50
117 93 48
104 80 51
108 86 46
110 87 50
108 84 51
108 85 50
107 85 47
114 90 51
113 90 49
117 93 51
119 96 49
111 88 48
112 89 48
114 92 46
113 88 53
115 92 48
113 89 51
116 93 48
117 92 52
111 87 50
114 91 47
114 90 51
112 89 48
114 89 52
107 84 50
116 92 50
115 89 57
119 95 50
115 91 50
117 93 53
112 89 48
118 93 53
116 93 49
116 91 54
110 88 47
120 95 51
116 92 51
117 92 54
113 89 50
114 90 50
116 91 55
119 95 51
114 90 51
118 95 50
118 94 50
117 94 48
116 92 49
118 93 53
120 95 53
122 99 47
114 89 53
114 89 52
120 97 50
122 97 51
118 94 51
117 93 50
117 92 55
117 92 53
121 98 47
118 93 53
119 94 53
115 90 54
121 97 52
119 94 52
116 91 52
124 100 50
124 100 50
118 93 54
118 94 51
122 99 47
118 94 51
121 96 52
119 94 53
119 95 51
119 94 54
119 94 54
117 93 52
119 94 53
122 98 51
118 93 53
118 94 52
118 93 53
118 95 47
119 94 53
119 96 50
117 94 48
118 93 52
121 97 51
115 90 56
120 94 54
119 93 55
121 96 54
122 98 50
118 95 49
122 98 51
116 91 54
119 94 52
117 92 52
120 96 49
120 95 53
116 91 54
115 92 50
111 87 51
109 86 50
110 86 53
119 95 52
118 93 51
120 96 52
119 95 51
117 93 51
119 94 53
118 94 51
114 89 52
117 93 52
116 92 50
114 89 53
117 92 53
114 90 51
118 93 53
117 94 47
116 93 49
117 92 53
117 93 52
116 91 53
117 93 50
115 91 51
116 93 49
116 92 50
114 89 52
117 93 51
118 93 52
117 93 50
115 91 49
116 94 45
116 93 49
113 89 51
112 88 53
104 82 49
117 93 51
113 89 50
113 89 49
111 87 50
118 95 48
112 87 53
107 84 50
119 95 50
110 88 45
114 90 52
113 89 52
113 90 48
121 97 50
105 82 48
117 92 52
116 92 52
110 88 46
110 88 45
106 83 48
116 92 50
109 85 51
111 88 51
115 91 50
109 87 46
110 88 47
108 86 48
114 90 52
113 90 49
102 81 46
106 84 47
103 82 47
107 83 51
114 90 50
103 80 49
109 84 54
108 86 45
102 81 45
104 83 45
109 86 48
111 87 51
105 82 50
97 76 44
105 82 50
101 79 49
102 80 47
105 84 45
103 80 49
95 74 45
96 74 47
100 79 44
113 90 49
96 75 47
104 82 47
97 75 46
102 80 48
101 80 45
92 72 42
88 69 41
93 73 43
98 76 48
99 77 46
99 77 48
98 78 43
101 79 49
94 72 47
97 77 43
83 64 39
97 77 41
90 69 44
97 76 46
93 74 39
89 68 45
93 73 44
85 66 40
92 72 43
96 75 46
88 69 40
89 70 41
85 67 39
91 72 43
77 59 40
81 62 41
80 61 42
81 63 41
96 75 44
81 64 39
85 65 44
87 69 40
82 64 38
75 57 40
78 60 39
81 63 39
85 66 40
79 61 39
75 58 36
82 64 40
79 61 40
78 59 42
81 63 40
79 61 37
77 59 40
68 52 36
73 56 38
72 55 39
73 56 37
70 53 39
69 53 37
72 56 36
77 58 45
67 51 36
70 53 39
74 56 40
73 55 39
67 51 35
65 50 34
62 46 35
67 50 39
58 44 30
63 47 35
64 48 36
57 43 32
64 48 35
70 54 37
64 48 34
62 46 36
56 42 32
58 43 33
68 51 37
69 52 38
64 48 37
64 48 38
56 42 33
62 46 35
59 44 35
63 47 36
57 42 33
59 44 33
70 53 38
61 44 38
63 46 37
59 44 34
56 42 31
77 57 47
61 45 36
54 40 32
52 39 30
61 46 34
62 47 35
61 46 34
68 52 36
57 42 32
54 41 29
61 46 34
62 46 35
58 44 32
65 49 36
64 49 34
62 47 33
61 45 34
60 45 33
66 50 37
58 43 32
69 52 37
74 58 36
64 49 36
64 49 34
63 47 36
67 52 33
74 56 39
68 52 37
79 61 40
68 52 37
73 55 39
84 65 43
72 54 41
76 58 40
78 60 40
72 54 39
71 54 37
74 57 38
75 57 39
78 60 39
77 60 37
75 58 37
80 62 39
66 50 35
85 66 42
83 64 43
82 64 40
84 65 41
88 69 41
83 65 38
81 62 40
76 59 38
78 61 37
79 61 39
79 61 39
87 68 41
82 64 37
90 71 42
80 62 38
87 67 45
90 70 45
91 71 44
87 68 41
86 66 42
95 74 45
90 70 43
91 71 43
94 73 45
91 69 48
92 74 38
95 75 45
94 74 44
93 72 45
94 74 44
94 74 43
97 76 46
95 76 42
93 73 44
94 74 44
94 74 43
100 78 48
96 75 44
97 77 45
103 81 47
99 78 42
88 68 42
96 74 48
106 85 45
107 85 47
102 79 48
103 82 45
107 85 47
101 79 49
101 80 45
105 82 49
102 80 49
109 85 50
110 88 47
102 81 45
109 87 48
107 85 46
101 79 48
109 87 47
100 80 44
110 86 51
104 81 49
106 83 49
105 82 50
107 84 49
107 84 49
109 86 48
111 88 49
105 83 46
112 89 51
109 86 51
108 85 50
105 82 51
112 90 45
113 89 49
112 89 49
114 90 50
120 95 51
111 88 49
109 86 49
116 92 53
111 87 52
114 91 50
107 85 48
106 83 52
111 90 45
112 88 52
113 90 47
114 91 49
116 92 49
110 88 47
117 94 49
113 92 42
111 87 52
116 93 48
114 91 49
111 89 45
110 87 50
117 93 51
113 89 51
114 90 49
111 88 49
117 93 49
117 94 48
110 87 50
111 87 51
116 91 52
118 92 54
112 88 51
121 97 49
117 92 52
115 91 51
115 92 49
113 89 52
116 93 49
116 92 50
117 93 51
117 93 52
114 91 48
116 93 49
118 93 54
116 91 53
115 91 51
116 92 49
117 93 52
116 92 52
119 95 50
118 94 51
117 93 51
119 94 52
117 93 51
119 94 52
121 97 51
116 91 56
120 95 53
120 96 50
115 91 52
119 95 51
116 92 51
119 94 53
120 96 51
116 92 52
121 97 50
123 98 52
117 94 50
122 98 49
120 97 47
119 95 50
116 91 54
119 95 53
119 94 52
120 96 48
120 96 51
117 92 54
122 97 52
116 92 49
119 93 54
122 98 50
119 93 56
121 97 51
120 95 52
115 91 53
118 93 53
117 92 52
120 94 55
122 97 53
121 95 55
117 92 53
116 91 52
121 97 49
119 94 53
117 92 54
119 94 53
121 98 49
109 85 51
119 95 50
119 95 52
118 94 52
116 92 53
121 95 54
118 93 52
115 92 47
119 94 53
119 95 52
117 93 51
117 92 55
112 88 53
116 92 51
119 95 50
115 90 54
117 92 52
118 93 51
115 91 49
116 92 51
114 89 55
116 91 54
121 95 54
118 94 49
115 90 56
117 93 49
109 87 47
115 91 51
117 93 50
118 93 53
114 90 50
116 92 51
116 91 51
111 88 51
116 93 48
117 93 52
117 94 48
112 89 49
115 91 49
113 88 53
113 89 51
117 94 50
115 91 51
113 88 53
110 88 47
114 91 47
118 94 49
119 96 46
116 92 50
116 91 52
115 90 53
115 89 54
118 93 51
109 87 47
113 90 48
110 88 48
110 86 52
103 82 47
118 94 49
109 85 51
111 86 52
112 90 46
105 83 47
107 85 46
109 85 51
110 87 49
109 87 47
104 81 50
103 81 49
112 89 50
109 87 48
110 87 50
105 84 45
109 86 48
105 83 47
108 86 45
108 84 51
112 88 51
109 87 47
109 86 49
100 79 45
108 86 46
104 82 48
102 80 47
99 77 48
98 78 43
107 85 45
106 84 46
100 78 48
105 83 48
102 80 46
93 73 43
98 77 46
100 79 43
102 79 48
104 82 49
98 78 43
103 82 45
100 78 47
97 75 48
103 81 47
100 78 46
98 77 45
92 71 45
101 79 48
96 75 45
89 69 44
88 68 44
92 73 40
101 80 47
98 78 43
90 71 42
95 75 44
83 64 42
92 71 45
96 75 45
86 68 40
82 63 40
86 67 39
92 73 41
96 74 46
82 64 38
91 70 46
90 70 41
85 66 43
82 63 44
85 66 42
90 70 45
89 69 42
78 60 40
84 65 40
88 69 42
82 62 44
76 59 36
73 55 41
79 61 42
76 58 38
73 56 37
71 55 35
73 56 37
73 56 37
83 63 43
69 51 39
70 53 39
79 60 42
80 61 41
72 55 39
61 47 31
76 59 37
74 57 38
70 54 36
74 56 39
69 52 36
70 53 39
70 54 36
73 55 40
73 56 38
61 46 33
68 52 35
69 52 40
65 48 36
66 50 36
64 49 35
72 54 42
62 47 35
60 45 33
67 51 36
66 50 36
71 54 40
66 50 38
72 55 37
72 54 40
68 51 39
56 42 32
66 48 40
61 45 35
61 45 36
67 50 39
75 56 43
61 46 33
70 52 41
61 46 33
73 54 42
58 44 31
66 49 38
52 40 28
65 49 37
55 40 32
57 42 33
66 50 36
67 50 38
65 50 33
68 51 38
71 53 41
60 45 32
68 51 38
73 55 41
63 48 35
66 49 38
70 53 37
65 49 35
68 51 37
67 51 35
62 46 36
74 57 38
67 51 36
83 63 43
59 45 32
68 52 36
75 56 41
78 60 41
70 53 38
70 52 39
77 59 40
74 56 39
57 43 31
71 53 38
75 58 38
74 57 36
67 52 33
71 54 39
73 55 40
82 64 37
73 55 41
80 61 42
83 64 40
83 63 43
81 62 41
79 62 37
85 65 43
84 64 44
83 64 44
85 66 40
82 63 41
85 67 40
83 64 42
84 65 42
88 68 45
90 69 44
80 63 37
84 65 41
94 74 44
91 71 45
89 69 44
98 77 47
91 70 45
92 71 47
96 75 46
89 68 47
86 67 41
81 63 39
95 75 41
93 72 46
88 70 40
96 74 46
97 77 40
90 70 43
91 72 41
94 75 42
95 74 45
91 72 42
98 77 45
98 76 47
93 73 44
99 78 46
100 80 43
99 78 43
99 78 43
107 83 53
102 80 45
98 76 47
103 81 48
97 76 46
109 86 47
106 82 51
105 83 49
100 78 48
111 89 47
108 86 46
97 75 49
110 87 48
107 84 50
109 85 50
111 88 50
109 86 50
109 86 49
106 84 48
105 84 45
106 84 47
109 87 45
103 82 45
104 81 50
107 84 49
104 84 43
108 85 49
107 85 47
110 86 51
108 85 48
103 81 46
109 85 51
112 88 52
111 88 49
108 85 48
106 83 49
110 86 53
115 91 53
115 92 48
103 81 46
115 92 49
105 83 48
112 88 50
111 88 50
113 90 48
116 94 47
109 86 49
115 91 51
110 87 50
110 86 50
115 91 49
119 94 54
118 93 53
115 92 49
117 94 50
111 88 48
113 89 50
120 96 49
115 91 51
116 92 52
116 93 50
114 91 49
115 92 47
111 87 53
113 89 50
114 90 51
119 97 46
112 87 55
121 97 49
115 91 51
117 93 49
114 91 50
116 92 52
117 93 49
115 91 53
120 95 52
111 88 49
118 92 55
116 91 53
120 95 52
119 95 49
119 95 51
115 91 52
120 95 53
116 92 51
119 94 52
119 96 47
123 99 49
117 93 51
115 90 53
115 91 51
121 97 51
117 93 50
113 90 47
117 94 47
120 95 53
118 94 50
121 96 51
118 94 50
116 92 50
114 89 56
118 94 51
120 96 51
119 95 50
116 91 55
120 96 50
119 93 54
121 96 53
120 95 53
121 96 52
120 95 53
118 93 55
111 86 54
116 91 54
114 89 54
120 95 53
116 92 51
115 91 52
120 96 51
121 96 52
117 92 54
116 92 51
124 99 52
118 94 50
119 95 52
120 95 53
121 96 54
117 92 52
116 91 52
120 96 51
121 98 48
114 90 53
119 95 50
117 92 52
117 91 55
115 92 49
119 94 53
120 96 52
117 92 54
119 95 49
117 93 52
114 90 52
115 89 55
117 94 47
116 92 49
115 90 53
118 94 51
116 92 52
116 91 55
119 93 55
116 93 49
116 90 55
117 93 51
115 90 55
116 93 50
118 95 49
115 91 52
115 91 51
115 91 51
118 94 49
118 94 50
116 91 53
112 89 49
115 91 54
110 87 47
112 89 47
110 86 50
115 91 51
114 91 51
114 89 54
113 89 52
114 90 52
113 89 51
116 93 50
119 94 52
116 92 52
111 87 51
109 87 45
113 90 48
112 88 52
114 90 50
117 93 50
109 86 49
109 86 48
111 89 48
110 88 47
110 87 49
103 81 47
116 93 49
107 84 51
118 94 51
113 89 52
110 89 45
110 87 50
112 90 43
113 90 48
112 89 50
109 88 45
107 85 46
104 82 47
113 90 49
108 84 50
113 91 46
102 81 45
103 80 48
99 78 44
107 83 52
111 89 47
104 82 47
108 86 48
103 81 46
98 77 44
105 83 46
104 82 47
105 82 49
107 84 48
103 80 49
102 80 47
100 78 46
103 81 47
97 76 45
103 81 47
106 84 48
102 80 47
96 75 45
100 79 44
101 78 50
101 78 49
95 73 48
99 77 46
107 83 51
86 66 44
98 77 44
101 81 42
97 75 48
94 73 46
90 71 41
94 73 45
92 71 45
92 73 41
96 76 42
88 68 43
92 71 44
95 76 40
100 78 47
83 66 36
92 71 45
91 70 46
90 70 42
91 71 45
90 69 46
86 67 42
83 64 42
78 60 41
88 68 43
89 70 40
85 66 43
89 69 42
79 60 43
89 71 38
83 63 43
87 67 43
90 71 41
95 73 46
76 59 39
77 59 39
83 64 41
81 62 41
82 64 39
77 59 40
74 56 38
84 63 47
85 65 45
81 62 43
75 57 39
88 68 44
66 50 35
82 63 42
77 59 39
76 59 39
77 59 39
74 56 41
73 56 36
74 55 42
60 46 31
78 60 40
73 55 41
68 52 36
63 47 35
67 51 36
69 52 36
78 60 39
62 46 37
70 54 35
75 58 39
71 54 36
71 54 39
61 46 33
63 48 34
64 48 36
71 54 40
65 49 34
67 51 35
63 47 35
73 55 42
67 51 37
60 46 32
60 45 33
63 48 33
68 51 37
63 48 35
69 52 38
67 51 35
59 45 31
55 41 31
58 45 30
67 50 38
66 49 38
66 49 36
70 52 40
58 44 32
58 43 34
67 50 38
64 48 35
66 49 40
60 45 32
71 53 40
59 44 35
65 48 37
67 51 37
73 56 39
69 52 38
63 47 36
78 58 43
74 57 38
71 54 38
75 57 38
76 58 40
72 55 36
71 54 38
68 52 37
63 48 35
79 59 43
66 51 33
72 56 35
75 56 42
75 57 42
69 52 38
74 57 38
71 55 36
71 54 39
75 57 39
73 56 38
85 66 42
75 56 41
81 61 44
85 66 42
77 59 39
83 64 40
79 61 40
81 62 43
90 70 44
86 66 43
87 67 44
88 67 46
76 59 38
87 68 41
91 70 45
80 63 36
89 69 44
89 69 45
91 72 40
90 71 41
85 66 42
96 75 45
86 66 44
91 70 45
92 71 43
99 79 43
95 75 43
100 78 47
93 72 44
87 67 45
95 74 45
96 75 45
85 65 42
89 69 44
99 78 47
97 75 47
95 74 47
98 77 44
94 73 46
95 75 44
100 80 44
96 75 45
103 82 46
99 77 47
103 82 45
95 74 46
104 83 44
100 78 47
96 75 44
102 81 45
103 81 46
107 86 45
103 82 43
106 84 46
108 85 49
97 76 45
102 81 45
103 81 46
108 85 49
104 81 49
109 86 48
105 84 43
105 84 47
105 82 49
108 86 48
111 88 50
111 88 49
108 85 48
104 81 49
106 84 49
111 89 47
106 84 48
111 89 47
108 85 49
114 90 52
107 85 46
107 85 48
109 85 50
116 93 48
109 87 46
113 90 48
111 88 49
109 85 51
109 88 43
110 87 50
109 85 50
118 94 50
113 88 53
111 88 49
113 90 48
113 90 50
108 86 48
109 87 47
115 91 49
113 90 47
111 88 48
112 88 53
112 89 50
111 88 47
116 92 49
112 89 48
111 87 53
110 86 53
117 93 51
107 84 51
107 84 48
110 87 47
117 93 51
114 90 50
111 86 55
114 90 50
115 91 53
120 96 48
112 88 51
116 92 50
117 92 52
116 91 53
114 90 53
119 95 51
109 87 48
117 93 52
121 96 54
113 89 51
114 90 49
115 91 50
119 95 49
121 96 51
111 87 53
120 96 50
113 89 51
116 91 53
117 92 53
119 95 48
115 91 53
116 92 52
116 93 50
116 92 53
119 94 52
117 93 50
117 94 50
114 90 53
116 92 51
117 93 51
121 97 48
113 90 50
117 94 49
117 92 54
121 95 54
119 94 52
117 92 52
119 94 53
122 98 49
116 92 52
117 92 54
121 97 50
122 98 49
118 94 50
119 94 53
118 95 50
121 97 51
121 97 51
115 91 53
116 91 56
118 93 52
117 94 49
121 96 54
120 95 53
115 91 51
116 90 56
116 91 55
121 97 49
118 94 53
118 94 50
119 95 52
116 92 51
116 90 56
119 95 51
115 89 56
121 97 51
115 90 52
113 89 54
117 93 50
117 92 53
121 95 56
117 92 52
116 91 52
114 89 54
119 94 53
119 95 50
117 94 48
124 100 48
117 92 54
116 91 54
118 93 53
120 97 49
116 91 53
117 92 54
118 94 51
113 90 49
118 93 53
122 98 50
114 90 49
118 94 51
113 89 49
118 93 52
114 91 47
118 93 53
117 94 48
119 96 48
116 93 48
115 92 49
116 90 55
114 90 49
108 85 50
119 97 46
115 91 51
113 90 49
120 95 51
119 95 50
113 89 52
114 90 51
112 88 49
106 84 48
109 87 45
112 88 52
114 90 53
109 86 47
112 89 49
110 86 52
111 88 49
116 93 49
111 88 50
112 89 49
112 88 51
114 91 48
114 92 46
113 90 49
110 87 49
108 86 47
116 93 48
107 85 47
109 85 50
109 85 50
107 84 49
110 87 51
111 88 51
111 87 52
107 85 46
110 86 51
107 83 53
102 80 46
100 78 46
111 89 46
106 83 48
104 82 47
109 86 49
107 86 44
111 88 50
96 76 43
106 83 49
110 87 49
112 88 50
100 79 45
109 86 47
104 83 45
104 82 48
92 71 46
104 83 43
104 83 45
105 83 45
100 79 44
108 85 48
93 72 47
103 82 45
93 72 44
99 78 45
98 77 47
107 86 44
100 79 45
100 79 45
96 76 42
101 80 46
104 82 47
96 75 45
90 70 43
88 70 40
93 73 45
96 75 46
91 70 45
100 78 48
93 73 43
93 72 45
95 75 42
98 76 47
89 71 38
89 69 43
83 64 40
91 70 46
85 68 37
80 62 39
85 66 43
81 62 42
85 66 40
83 63 43
93 73 42
80 63 38
78 61 36
79 62 37
79 62 36
92 71 44
84 66 38
85 66 41
88 69 42
83 64 44
78 60 38
74 57 37
80 61 42
84 65 41
81 63 40
75 57 40
68 52 36
86 65 46
77 58 41
83 63 43
80 62 38
77 60 37
73 56 38
78 61 38
70 54 35
74 57 37
72 54 38
70 53 37
66 50 35
78 59 41
72 55 37
69 52 36
72 55 38
68 52 37
75 56 42
63 47 35
68 51 38
72 55 36
64 49 35
70 53 38
67 51 36
68 52 35
68 51 38
71 54 39
74 56 42
69 52 37
70 53 39
64 48 35
56 41 33
64 49 34
71 54 39
70 54 37
74 55 43
62 47 34
61 45 35
72 55 38
72 54 41
68 52 37
71 53 40
60 45 33
77 58 43
64 48 38
67 51 37
62 46 36
63 47 35
70 53 37
74 56 40
62 47 34
61 46 35
66 50 37
72 55 40
81 61 45
65 50 31
65 50 34
73 56 38
70 53 38
75 57 40
69 52 38
65 49 37
82 62 43
74 57 39
80 61 43
68 52 35
74 56 39
68 52 34
76 57 41
73 55 40
80 61 42
81 62 41
77 58 42
71 55 34
81 63 40
75 59 35
75 57 39
78 60 39
79 61 40
77 59 39
81 63 40
71 55 33
70 53 35
86 68 39
85 65 44
86 66 43
83 63 42
78 59 41
82 63 42
90 70 44
81 62 42
87 67 43
82 63 44
90 70 42
80 62 39
93 71 47
90 69 46
85 65 45
96 76 42
83 64 42
89 70 42
84 65 42
95 74 48
86 66 42
92 72 44
94 75 40
95 75 43
89 69 45
96 74 48
90 70 42
102 80 47
103 82 43
91 72 42
100 78 49
83 65 40
91 71 43
98 77 47
96 77 41
88 68 41
103 82 46
104 81 50
102 79 49
97 76 46
97 77 43
102 80 47
101 79 46
105 82 49
102 81 46
99 77 47
101 81 43
103 81 46
103 81 47
105 83 44
100 80 44
104 81 49
102 80 47
102 80 46
108 86 46
99 78 45
109 86 49
105 83 46
109 88 42
102 80 47
111 88 48
105 84 46
107 85 46
101 79 48
105 82 49
109 88 44
104 81 49
101 79 46
101 78 50
109 85 51
105 83 46
111 88 48
109 85 53
110 88 48
112 91 44
106 83 48
105 82 51
110 88 45
109 86 50
112 89 48
116 92 53
112 90 45
112 90 47
113 91 44
109 85 51
110 88 46
106 83 49
111 89 47
113 88 53
108 86 46
110 87 49
110 87 51
114 90 50
114 89 52
110 87 49
113 89 51
115 92 48
111 87 52
116 93 48
109 86 50
117 94 47
117 92 52
117 93 52
114 90 51
112 88 50
115 91 50
119 95 51
111 87 52
110 87 50
117 93 53
118 94 50
112 88 53
117 92 52
114 90 50
114 91 49
118 94 49
118 93 51
120 96 49
116 92 50
115 91 52
118 94 51
116 94 47
118 94 49
122 97 51
117 92 53
121 97 49
116 91 52
114 91 49
123 99 52
117 92 53
115 91 53
117 92 55
118 94 49
119 94 54
120 96 51
119 95 50
114 89 52
117 93 51
117 92 52
115 91 51
118 93 52
117 93 48
120 96 50
114 89 54
119 94 54
118 93 54
119 94 53
114 90 51
117 92 51
116 90 55
115 90 52
116 91 53
121 97 48
119 95 53
116 92 52
120 95 54
119 94 53
115 90 54
116 91 54
115 91 52
117 93 50
113 88 53
119 95 52
118 93 54
113 90 49
115 91 52
118 94 51
117 92 54
120 96 50
118 94 50
120 95 52
120 95 53
119 94 51
118 95 50
115 91 52
118 92 56
117 93 51
118 93 55
116 91 54
115 92 50
120 95 53
115 91 52
120 97 50
114 90 52
116 91 54
112 88 53
114 91 49
115 91 53
114 90 52
118 94 49
111 87 52
116 92 52
116 92 50
118 95 49
110 86 51
118 94 49
120 95 52
115 90 53
115 92 49
114 90 50
116 92 49
114 90 52
117 93 51
116 92 50
113 90 48
113 88 54
114 90 51
116 91 51
115 92 49
111 87 50
115 91 51
110 88 46
114 90 50
114 91 48
113 90 48
114 90 50
114 90 51
110 87 51
115 91 52
115 92 49
114 89 53
116 91 55
109 87 47
114 91 49
115 93 47
113 90 47
114 92 47
114 90 51
103 81 47
113 90 48
112 89 51
110 88 45
107 85 47
112 89 49
114 91 49
110 87 51
113 90 46
110 88 46
116 93 48
107 86 45
108 84 54
106 82 53
108 85 49
107 84 49
105 83 47
99 78 46
107 85 46
112 90 45
102 81 44
98 77 43
97 76 47
115 91 49
105 83 48
108 84 50
107 85 46
109 87 45
109 87 45
107 85 46
107 84 48
101 81 43
104 82 47
107 85 45
93 73 43
104 83 44
97 76 45
100 79 46
98 77 45
98 77 45
101 80 43
97 76 45
100 79 44
96 74 48
101 79 47
100 79 46
93 73 43
96 75 47
101 80 44
108 85 48
93 72 45
101 82 41
99 78 48
91 71 43
99 77 47
86 68 39
95 74 45
96 75 46
87 68 40
102 81 44
89 70 43
90 70 43
87 67 44
97 75 48
83 65 38
90 70 43
83 65 40
87 68 41
91 72 42
86 67 41
88 68 43
93 73 43
97 75 48
81 62 40
78 59 41
79 61 39
80 61 40
81 63 40
81 61 42
82 64 40
82 63 41
75 58 37
85 65 42
73 55 40
84 65 41
76 58 39
77 59 39
76 60 35
75 58 37
76 59 39
84 66 40
73 56 39
79 60 42
82 61 45
78 59 42
63 48 33
70 53 38
72 55 38
69 53 37
77 59 40
78 59 43
67 50 37
72 55 37
75 57 41
80 61 42
69 53 37
76 58 42
62 47 33
66 50 35
74 56 41
66 51 35
70 53 36
67 51 36
67 51 36
72 54 40
65 50 35
64 49 34
71 54 37
70 52 41
59 44 33
71 53 40
71 55 36
67 51 35
68 51 37
69 53 37
72 55 38
69 53 35
65 49 38
74 57 38
73 56 37
73 56 35
65 49 35
62 48 32
68 52 37
69 52 37
72 54 39
65 49 34
70 53 38
67 51 36
74 56 39
68 53 35
79 60 41
67 51 37
72 54 41
73 56 38
71 54 38
69 53 37
62 46 34
70 53 36
75 56 44
63 47 35
72 55 38
77 59 40
68 52 36
78 59 42
71 54 38
77 60 36
76 58 41
65 49 36
74 57 38
77 58 41
86 66 45
80 61 41
80 61 42
81 62 42
82 63 42
79 62 38
81 62 40
74 58 37
76 59 37
94 73 47
80 62 40
87 67 44
79 61 38
84 65 42
82 63 43
84 64 43
81 61 43
81 63 39
83 65 39
84 65 42
86 66 44
83 65 38
82 64 39
83 64 40
89 68 46
91 71 44
91 72 42
86 67 43
85 66 42
89 69 43
91 71 44
88 68 42
91 70 47
99 77 47
89 69 46
100 79 45
85 66 41
88 69 39
87 68 42
104 82 46
90 68 48
100 79 45
94 74 42
86 67 40
97 77 44
95 75 41
96 75 44
95 74 45
93 74 42
96 76 44
99 78 45
99 77 46
96 75 46
95 73 47
96 74 48
100 79 44
108 85 48
107 85 47
102 80 48
98 77 45
109 86 48
104 82 46
101 78 49
109 86 49
100 79 46
101 79 46
104 82 47
104 82 46
106 84 44
104 82 47
97 75 48
106 84 47
101 80 45
107 84 47
109 87 47
102 80 47
101 80 46
110 88 47
108 86 46
112 88 51
108 85 49
109 87 47
110 88 47
117 95 45
105 83 48
115 91 50
107 84 47
108 85 48
114 91 48
107 85 47
109 86 48
112 89 49
109 86 49
115 92 48
111 88 51
110 87 49
109 86 47
111 87 52
110 87 48
115 92 48
108 86 44
118 94 49
113 90 48
110 88 48
108 85 50
113 88 54
119 95 51
117 94 49
116 92 51
112 90 48
114 90 51
114 91 48
116 92 50
112 88 50
113 89 49
117 93 51
119 94 52
113 90 51
118 94 49
111 88 50
113 89 51
111 88 49
118 93 52
116 92 49
119 94 54
114 91 47
118 95 49
118 94 50
118 94 49
117 92 51
113 90 50
115 93 46
114 90 51
118 93 53
120 96 50
114 92 45
115 91 50
117 91 54
111 88 49
117 93 52
114 90 51
116 92 52
116 92 49
115 90 54
117 93 53
118 95 48
118 94 50
119 94 53
116 92 51
118 94 51
111 86 55
117 91 57
117 93 51
121 97 52
121 98 50
112 88 51
117 91 55
121 97 51
117 93 48
120 96 50
116 91 52
122 98 50
119 95 51
118 93 51
118 94 53
114 89 54
121 97 51
116 91 54
118 94 51
123 98 52
117 92 52
118 94 50
117 92 54
118 93 53
116 92 52
121 96 53
120 96 50
119 94 53
118 94 50
121 98 48
119 94 53
117 92 55
119 94 53
118 95 49
120 95 54
119 94 54
117 93 50
122 99 46
117 92 53
116 93 50
119 94 51
118 94 52
120 95 52
120 95 52
117 92 52
115 90 52
112 88 52
119 95 49
116 91 54
115 91 51
116 93 47
120 95 52
122 98 51
114 90 50
116 92 51
117 95 47
117 92 54
114 91 49
116 93 49
114 92 47
111 87 51
115 91 51
111 87 51
116 93 47
111 87 52
116 92 49
114 90 51
113 89 51
116 92 52
114 92 46
112 88 53
119 95 50
110 87 50
113 91 47
114 90 51
110 86 51
115 92 49
115 91 51
114 91 49
110 85 53
110 87 49
113 90 48
112 90 47
109 86 49
108 86 49
117 93 51
116 93 49
109 86 48
112 88 51
112 90 48
114 93 45
112 88 52
105 83 47
109 86 48
117 94 48
103 81 49
106 83 50
105 83 45
110 86 50
105 83 47
112 90 47
110 88 46
115 92 49
110 86 50
111 89 44
107 86 46
104 82 46
105 83 47
100 78 46
105 83 47
102 80 48
99 77 49
106 82 51
107 84 48
104 82 47
105 82 50
104 81 48
108 86 48
95 75 40
106 84 49
103 80 49
107 85 47
103 81 47
99 78 44
101 80 45
107 85 46
106 84 45
103 80 49
98 78 41
100 78 47
94 74 45
96 75 45
101 79 48
96 75 45
98 78 42
105 84 45
102 80 45
95 74 46
100 78 47
89 69 41
97 76 45
95 73 46
93 72 45
97 77 43
98 77 44
87 67 44
92 72 44
98 77 44
90 70 42
94 73 46
86 66 45
96 74 48
81 63 38
89 69 42
92 71 47
96 74 47
92 70 47
91 72 41
91 71 43
82 63 40
83 64 41
84 64 46
85 66 42
90 70 46
87 67 42
90 70 42
77 59 40
84 65 41
92 71 48
84 66 40
81 63 39
90 69 46
90 70 42
71 55 36
87 67 44
83 64 41
82 63 41
82 62 44
80 61 41
76 58 39
69 53 36
80 61 41
75 57 38
74 57 38
74 56 40
80 61 42
83 65 41
77 60 38
75 57 39
76 58 39
79 61 40
70 54 35
69 53 35
67 51 37
69 52 36
76 58 41
71 53 38
77 58 42
68 51 38
67 50 36
77 59 40
70 52 40
70 53 39
69 52 38
60 46 31
74 56 41
61 45 37
72 54 41
63 47 36
70 52 39
66 49 36
72 56 36
69 53 37
67 51 35
73 55 38
70 53 38
71 54 37
63 48 32
79 60 43
69 52 39
63 48 32
68 51 38
66 50 35
69 52 37
72 54 40
77 58 43
70 53 37
59 45 33
73 55 41
70 52 40
60 45 35
74 56 40
74 55 42
70 52 41
71 54 39
69 53 35
72 54 40
69 53 38
70 53 37
68 51 37
80 61 41
66 49 37
66 51 33
72 55 37
68 52 35
75 58 38
74 57 37
71 56 33
77 59 40
70 52 39
74 56 38
74 57 39
76 58 39
76 58 39
75 58 37
87 66 46
78 60 41
81 61 45
81 61 44
74 57 37
92 71 47
77 58 41
89 69 44
91 70 45
87 68 41
78 60 40
75 58 37
88 70 38
84 65 41
77 58 42
80 63 37
89 69 44
88 68 45
84 66 39
80 62 40
91 71 42
88 69 42
94 74 45
94 74 44
91 71 44
92 73 41
91 72 41
103 81 48
96 76 45
95 75 43
94 74 42
79 61 40
90 70 42
91 71 43
95 75 43
93 73 44
91 71 44
96 75 45
107 85 48
98 77 43
96 75 46
91 72 41
93 74 40
101 78 49
107 83 50
92 72 44
93 74 42
95 75 44
105 83 47
98 76 46
101 80 46
100 80 42
95 74 46
110 87 49
98 77 46
101 80 46
99 77 47
102 81 44
103 80 51
104 82 46
101 80 45
109 88 45
101 79 47
104 81 51
101 81 43
108 87 44
109 86 50
109 87 47
107 85 45
106 83 48
106 84 47
106 83 50
104 81 50
105 83 48
106 84 44
110 88 46
104 82 46
108 85 48
107 84 49
100 79 47
112 89 47
109 87 48
103 82 44
109 85 50
111 87 49
105 83 48
105 82 50
115 89 54
111 87 51
112 89 49
114 92 47
111 88 50
118 95 49
108 84 51
112 89 49
113 89 52
111 88 48
113 88 52
113 90 48
113 88 54
114 91 49
113 91 46
110 87 50
108 85 48
111 86 52
104 82 46
108 85 51
112 88 50
116 92 50
107 84 48
117 94 50
110 87 49
114 91 47
117 93 49
111 89 48
111 86 54
110 87 49
115 93 47
112 88 51
116 92 51
118 93 53
117 92 52
109 86 49
117 92 54
117 93 51
109 85 52
116 93 49
116 92 52
120 97 49
115 91 52
113 90 50
115 90 54
118 94 53
114 89 53
121 96 52
118 93 53
115 91 51
115 91 51
117 93 51
114 90 53
115 91 50
119 95 51
118 94 51
121 96 52
117 93 50
117 92 52
114 91 50
116 91 53
117 92 52
120 94 54
114 89 53
117 93 52
120 95 53
117 93 51
111 87 50
120 95 51
120 96 51
114 90 53
116 92 51
118 93 54
120 96 52
120 95 52
118 94 50
117 94 47
123 99 49
122 98 50
119 95 52
122 97 50
118 95 50
117 93 50
120 95 52
114 90 52
120 96 50
116 91 55
115 90 53
116 91 54
119 94 54
118 93 53
118 93 53
118 95 48
119 96 47
115 91 53
117 93 52
117 95 44
117 93 51
116 92 50
114 90 52
115 92 48
118 94 51
111 87 53
115 90 54
117 94 48
114 90 49
111 86 55
116 92 51
116 92 50
119 95 51
117 94 48
121 97 50
111 87 51
112 89 50
117 93 50
119 95 50
115 89 55
114 90 50
115 91 52
118 94 50
119 94 52
117 95 46
119 95 48
111 89 46
112 89 50
119 95 50
115 91 51
118 93 52
110 88 45
112 89 51
117 94 49
114 90 50
113 89 49
108 84 51
113 90 51
111 86 53
115 91 51
117 93 52
116 93 50
113 89 51
118 94 49
108 84 52
113 89 52
117 93 49
118 93 52
111 88 48
114 90 51
109 86 51
111 88 49
104 82 46
112 89 48
107 84 49
107 85 46
108 86 47
106 85 46
105 82 49
110 87 48
110 87 49
111 87 50
111 89 47
110 87 48
109 87 48
111 87 51
109 86 47
114 91 48
107 86 43
103 81 47
104 84 44
106 83 50
111 87 51
105 82 49
99 79 44
104 81 48
103 81 47
99 78 44
104 82 46
102 80 48
109 86 47
103 81 47
104 80 50
109 86 49
101 80 44
107 83 51
105 84 46
108 86 47
106 82 50
95 74 46
95 76 41
93 73 41
98 77 44
105 81 51
97 75 50
100 79 45
97 76 46
102 78 51
96 76 45
94 74 44
102 81 45
103 80 50
96 74 47
94 74 42
90 70 44
93 73 42
92 72 44
90 71 41
87 68 42
101 79 48
91 71 43
97 77 43
97 76 44
85 67 39
89 70 42
97 76 45
94 74 41
83 64 41
89 69 42
87 68 41
86 66 42
93 73 43
85 66 41
91 72 40
81 62 41
86 66 42
87 67 43
83 63 45
81 61 43
83 64 42
87 67 44
82 63 42
90 70 42
87 67 43
81 63 40
83 64 42
81 62 42
84 64 43
78 61 38
84 65 42
80 63 39
76 57 42
82 63 43
82 63 42
74 55 42
75 58 37
82 63 41
75 57 41
85 66 42
76 58 39
73 55 38
74 57 39
84 64 44
78 60 39
65 49 35
73 56 38
78 59 41
67 51 36
78 58 43
73 55 38
83 63 43
67 50 37
72 55 39
69 52 37
67 52 35
69 52 37
70 53 38
69 53 37
70 53 37
75 57 40
71 53 41
71 54 36
71 53 40
76 58 40
69 52 38
65 50 34
70 54 36
78 59 41
77 59 41
70 54 35
76 59 39
72 55 36
74 56 40
64 48 34
71 54 37
77 59 42
66 51 33
72 55 37
79 61 38
69 53 35
74 57 37
71 53 41
66 49 37
73 55 41
67 50 36
73 55 41
77 59 40
73 56 37
77 58 41
74 57 37
76 58 39
79 61 41
75 57 41
80 61 41
72 55 38
79 61 40
73 55 39
68 51 38
83 63 44
75 57 40
74 57 37
76 59 39
85 66 44
81 62 42
86 67 40
77 59 39
77 59 40
83 63 43
87 68 40
76 58 38
85 65 45
73 56 35
77 59 39
79 61 39
78 61 37
88 69 42
82 62 43
84 65 42
76 58 38
87 67 43
86 67 41
85 64 47
91 71 44
80 62 42
83 64 43
89 70 40
86 66 42
91 72 40
77 59 38
93 71 49
96 76 43
88 68 42
91 71 42
86 67 43
90 71 42
93 72 45
94 74 44
91 70 46
87 68 42
97 75 46
99 77 45
90 70 45
91 70 46
97 75 48
95 74 45
98 77 46
92 72 41
98 76 48
95 75 43
104 81 48
97 76 46
98 76 47
97 77 43
94 73 46
110 87 49
106 83 51
94 74 43
101 79 48
95 75 41
107 85 45
102 80 46
106 84 46
98 76 48
110 87 50
105 83 47
98 76 45
98 76 48
106 83 50
100 77 48
110 86 52
104 81 49
103 81 47
102 82 42
103 82 46
107 85 45
103 81 47
104 82 47
106 84 48
110 86 52
110 87 49
100 80 43
113 90 48
105 81 51
109 86 49
99 77 48
105 83 47
114 91 47
108 86 45
108 85 49
107 85 47
105 84 46
110 86 50
108 86 47
112 90 46
107 84 49
107 86 44
111 87 51
112 90 46
114 91 49
111 89 47
112 88 50
115 91 52
113 89 51
113 90 48
109 85 50
112 88 51
112 89 51
114 90 51
113 91 47
110 86 51
113 89 53
116 95 44
113 90 48
113 89 51
117 94 49
114 91 48
112 89 50
109 86 48
115 92 48
114 91 49
113 89 53
111 88 49
114 91 48
115 92 48
120 96 52
111 87 51
117 93 50
115 92 48
111 87 52
117 92 53
113 89 51
118 94 49
114 90 52
116 92 52
119 94 52
118 93 52
119 95 50
120 96 49
119 95 51
116 93 50
116 93 48
113 89 52
115 92 47
115 91 51
116 92 50
117 92 52
114 89 52
118 93 53
118 94 51
115 92 49
116 93 49
120 95 55
117 93 51
117 93 51
111 88 50
118 92 54
118 96 46
117 93 51
113 88 53
117 91 56
118 94 52
114 89 53
117 92 53
118 94 51
122 97 53
118 94 51
121 96 52
114 90 49
121 97 51
115 90 55
118 93 53
121 96 53
117 92 54
117 93 49
119 95 51
115 91 51
120 97 47
116 93 49
113 88 53
116 91 54
115 91 53
120 96 49
121 96 52
111 87 51
114 90 51
113 89 52
118 94 51
119 94 51
113 89 52
110 87 50
113 90 51
119 95 50
113 89 51
111 87 52
119 94 52
118 94 50
121 96 52
111 88 49
117 93 50
115 92 48
115 92 50
121 97 50
115 92 48
116 91 53
118 94 51
117 93 50
114 90 51
116 93 49
110 88 48
119 95 50
114 89 53
114 90 54
116 92 51
116 91 52
114 91 50
109 85 50
111 88 50
118 94 51
115 92 49
112 88 51
115 91 51
117 94 46
113 90 49
116 93 50
110 86 52
113 90 49
113 89 49
113 90 49
117 93 52
115 92 47
113 90 46
115 91 53
112 88 51
104 82 45
109 86 50
113 89 49
107 84 50
112 88 49
110 88 46
112 90 45
107 85 46
111 90 45
114 91 48
111 88 48
113 89 51
109 86 50
110 87 51
107 84 50
103 81 48
110 88 44
103 82 46
108 85 48
104 83 43
111 88 48
108 85 50
102 80 49
106 84 47
104 81 49
101 79 47
110 87 48
102 81 44
107 84 49
105 83 48
103 80 47
103 80 51
108 86 46
104 82 46
105 84 43
107 84 48
102 79 48
92 70 48
103 81 48
110 89 45
103 82 44
98 77 45
99 77 48
103 82 44
96 75 45
104 82 46
99 77 48
100 78 49
96 75 45
99 78 46
104 82 45
97 77 44
90 71 41
95 74 46
94 73 45
96 75 43
99 78 45
92 73 41
93 73 42
94 73 45
96 75 46
99 78 47
89 69 42
94 73 44
98 78 44
89 68 49
90 71 41
94 73 46
98 77 45
96 75 45
92 73 41
92 71 46
96 75 44
85 66 42
84 65 41
87 69 40
96 75 45
95 74 46
82 64 39
83 65 38
83 64 40
86 67 42
86 66 43
87 69 41
94 72 47
90 69 47
83 63 43
84 66 39
94 72 46
77 59 38
88 67 46
82 63 40
82 64 40
86 66 44
79 61 40
84 65 41
82 64 40
73 55 39
75 57 39
76 58 38
79 61 40
77 60 39
74 57 36
77 60 37
74 57 38
74 57 38
76 59 35
76 58 40
72 55 37
73 56 37
77 59 39
74 57 37
72 54 39
80 61 42
74 56 39
66 51 33
77 58 41
77 59 41
73 55 41
70 53 38
73 55 41
69 52 37
77 59 39
81 62 44
74 58 35
63 47 37
69 52 37
75 57 39
72 55 37
64 48 34
66 49 38
68 52 35
75 57 40
68 51 39
59 44 32
64 50 31
69 52 36
68 52 35
70 53 38
73 55 40
77 59 39
77 59 39
78 60 41
69 53 37
75 58 38
67 52 34
61 46 35
70 52 39
69 53 36
72 56 37
76 58 41
75 57 40
71 53 39
68 52 36
72 56 37
78 60 39
71 54 39
76 58 41
75 58 39
70 54 36
77 59 41
75 57 38
70 53 37
84 64 45
72 55 37
78 60 39
83 64 40
75 58 37
82 64 41
83 63 43
86 65 45
81 61 43
85 66 40
80 61 41
79 60 42
83 64 41
79 62 37
84 65 41
79 61 39
77 59 38
86 66 42
81 64 36
85 65 42
87 68 41
79 61 41
79 60 42
88 67 46
78 59 42
90 70 45
80 62 37
91 71 44
95 75 45
86 67 41
96 74 47
96 75 45
89 69 44
90 69 47
96 75 45
90 70 44
92 72 43
96 76 43
94 74 43
87 68 41
87 68 42
96 75 45
87 68 40
86 67 43
91 71 44
99 78 45
100 79 47
96 76 41
99 78 46
95 75 44
97 76 46
99 78 47
91 71 43
97 77 43
101 80 45
103 81 45
105 84 46
102 81 44
106 84 48
101 79 46
107 85 47
105 82 50
102 81 46
100 79 44
109 86 49
105 84 45
97 75 48
101 80 46
101 80 45
97 76 47
106 83 49
105 84 44
104 81 48
111 89 46
104 83 45
104 82 46
111 88 50
112 90 46
105 83 47
106 84 46
107 85 46
106 84 47
106 83 48
103 81 48
107 84 48
108 87 46
108 85 48
111 89 48
111 87 50
111 89 47
106 84 47
112 89 47
109 87 48
117 95 46
106 82 51
109 86 49
108 85 50
108 86 45
113 89 51
113 90 47
114 90 51
108 85 49
112 89 48
113 90 48
112 88 50
113 91 47
110 87 50
113 91 45
110 88 44
105 83 47
114 91 48
116 93 49
110 86 53
114 90 51
108 84 52
113 89 51
114 90 50
113 89 50
112 88 52
111 88 50
112 88 50
104 81 50
114 91 48
118 95 47
117 94 50
113 91 45
112 89 50
115 91 52
115 90 53
117 92 53
110 87 49
116 93 46
109 87 47
119 95 52
114 90 50
115 91 51
118 94 51
115 91 51
117 93 49
114 92 47
117 92 54
115 89 56
114 90 51
113 89 53
114 90 52
118 93 52
114 90 52
114 89 52
113 90 50
118 94 51
120 97 49
120 94 54
120 96 51
116 92 51
118 94 50
114 90 51
120 95 52
123 99 49
116 92 49
116 93 46
120 97 48
110 87 51
115 89 56
117 93 50
120 97 49
120 95 51
117 93 51
120 96 50
120 96 51
118 93 53
120 96 51
116 91 52
118 94 50
120 95 51
117 93 52
114 89 54
116 92 52
118 93 52
119 94 52
121 97 52
118 93 52
111 87 52
116 91 53
115 91 53
122 98 50
118 94 52
118 93 54
113 90 49
119 95 49
114 91 49
114 90 51
123 99 49
117 91 55
113 89 51
118 94 51
115 90 56
114 89 54
115 90 54
118 93 52
116 92 50
117 94 48
113 90 50
114 91 48
119 95 51
115 91 52
118 95 50
115 92 48
116 93 49
112 88 51
114 91 49
117 93 50
117 93 52
116 92 51
113 90 48
108 85 49
113 90 49
118 93 53
115 91 52
118 94 50
118 95 49
111 86 54
114 90 51
116 93 49
114 91 48
116 93 49
114 91 49
110 88 46
115 91 51
114 92 45
114 91 49
112 89 51
111 88 49
112 88 50
111 88 48
113 90 48
115 91 52
111 87 50
103 82 46
107 84 47
108 85 47
113 89 50
113 91 46
110 87 49
108 85 48
109 86 50
107 84 52
117 95 47
113 90 49
109 86 48
110 87 49
106 83 50
111 87 50
111 87 50
105 84 46
109 87 48
108 84 52
100 78 47
108 86 46
106 83 50
106 84 49
111 88 50
104 81 48
111 88 49
110 87 50
108 85 49
104 83 46
105 84 44
101 80 44
99 78 46
106 84 45
97 76 45
101 79 47
112 88 51
102 80 49
104 82 45
105 84 46
107 84 50
102 81 46
98 77 45
96 75 45
102 81 45
108 87 45
96 75 45
102 81 46
95 74 46
96 76 43
93 73 44
101 79 49
94 75 41
105 85 42
99 77 47
95 74 47
89 70 43
88 68 43
97 77 42
102 80 46
101 79 47
93 72 45
89 69 41
89 69 43
85 66 41
91 70 45
95 75 42
107 85 46
90 71 40
92 71 46
90 70 43
88 69 41
92 71 45
92 72 43
87 67 44
89 69 43
94 73 45
87 69 40
86 67 42
83 63 43
95 74 46
88 69 40
79 62 37
85 66 40
98 75 49
86 67 42
84 64 44
79 60 42
80 63 38
87 67 43
81 62 42
82 63 44
80 63 38
85 65 43
76 59 38
68 53 34
83 63 43
79 60 42
82 64 39
76 60 36
76 59 37
78 60 40
76 58 38
79 62 39
78 60 40
89 67 48
75 58 38
80 62 41
81 62 43
84 65 43
78 59 42
84 64 43
70 54 35
74 56 42
81 62 42
66 51 34
76 58 41
68 52 35
67 51 34
74 56 40
68 52 34
73 55 40
72 54 40
68 52 35
78 60 39
81 63 40
70 54 36
76 59 39
73 55 40
65 49 35
72 56 36
74 56 39
76 58 39
70 54 37
73 56 37
74 56 42
72 54 42
82 63 42
68 50 39
68 52 36
66 50 35
73 56 36
74 57 39
73 55 39
73 56 38
69 53 35
79 61 41
72 53 41
75 57 39
82 62 45
76 58 39
73 56 36
76 58 42
77 58 42
73 56 37
75 58 37
67 51 37
75 58 37
72 55 39
84 62 49
69 54 31
77 58 42
69 53 38
71 54 37
72 54 40
74 57 37
80 62 39
69 53 35
80 61 43
82 63 43
77 59 42
89 69 43
91 72 42
91 70 45
85 65 44
86 66 43
81 62 41
80 62 41
78 59 40
87 68 43
83 64 43
84 65 40
85 65 43
81 62 42
87 67 45
86 67 42
85 66 41
82 64 40
79 63 34
84 64 43
82 63 42
86 68 40
82 62 44
88 70 39
89 69 44
93 72 46
86 67 42
94 75 41
87 68 41
97 76 44
86 65 45
87 68 42
100 79 44
89 70 41
90 71 41
89 69 42
96 74 47
97 75 47
96 75 44
90 71 42
94 75 40
98 77 45
92 70 49
97 75 46
100 80 42
94 75 40
95 74 47
92 73 40
95 75 42
97 76 45
92 71 45
98 78 43
102 82 44
95 74 44
95 75 42
104 81 50
99 77 49
98 77 45
102 81 43
103 82 45
108 85 49
99 78 45
91 71 44
102 80 47
104 82 48
103 81 46
99 77 48
108 85 49
110 87 48
106 82 52
107 85 47
110 88 44
103 82 46
109 86 51
107 85 48
106 84 47
108 86 47
107 84 48
110 87 49
107 85 47
117 94 47
104 83 46
109 87 45
111 87 52
109 86 48
107 86 44
115 92 49
112 87 53
114 91 48
107 84 49
112 88 49
111 87 50
110 88 47
108 84 50
115 91 50
108 86 48
112 89 50
111 88 50
115 91 51
112 89 48
117 93 51
118 94 50
112 89 48
113 90 48
114 90 52
112 88 51
114 90 51
102 81 44
112 88 50
114 90 51
112 87 55
111 89 46
117 95 46
112 89 48
116 92 49
112 88 52
118 94 50
115 90 54
117 92 55
117 93 51
116 92 52
112 88 50
116 92 52
119 95 50
111 88 51
111 87 53
118 94 50
120 96 50
120 96 50
118 94 52
118 93 53
118 93 55
117 94 48
121 98 48
114 89 53
122 98 49
115 91 51
120 95 53
116 93 48
114 90 52
114 90 51
117 94 49
116 93 49
117 93 50
113 89 51
119 95 50
120 97 48
120 97 49
114 90 52
113 88 54
120 97 49
117 92 54
116 91 54
117 93 52
118 94 49
119 95 52
120 96 51
115 91 50
119 93 56
117 92 53
119 96 48
120 96 49
121 97 49
121 96 53
119 94 53
115 90 53
118 94 51
116 91 53
116 91 55
123 98 53
123 99 50
119 95 51
117 94 49
117 93 52
121 96 52
119 95 50
117 92 55
118 93 54
120 96 49
116 92 51
121 96 52
120 96 50
113 89 54
122 97 52
118 94 51
116 92 50
113 91 46
115 91 50
121 97 49
119 96 48
113 87 55
111 87 51
116 92 53
113 90 50
116 93 48
115 90 52
121 98 48
120 96 49
113 91 47
116 91 54
117 95 46
114 91 50
114 90 51
116 92 52
118 94 52
116 92 50
108 86 47
117 93 50
114 91 50
118 93 53
115 90 54
108 87 45
112 89 48
120 96 51
115 92 48
118 96 46
116 93 49
112 89 50
115 92 49
114 90 51
109 86 48
109 86 49
112 89 51
114 91 49
112 89 49
115 91 50
112 89 47
113 89 51
114 91 48
105 83 47
114 91 48
112 88 50
113 88 55
111 89 46
115 90 52
107 85 47
109 85 53
108 86 47
117 95 43
112 89 49
112 90 46
107 84 48
113 90 48
112 88 50
108 87 44
111 88 48
109 86 49
107 85 47
108 85 48
109 86 51
108 86 45
114 89 52
108 85 50
107 84 49
105 83 47
107 85 48
108 86 46
104 81 49
106 83 49
110 88 47
110 88 46
107 85 46
104 83 45
103 80 49
106 84 46
108 86 47
102 80 47
94 74 44
101 80 47
101 80 46
105 83 49
111 89 47
97 77 44
93 73 40
97 77 42
107 85 46
102 80 46
96 76 43
98 77 43
101 79 47
95 75 42
93 73 42
101 79 47
95 74 45
106 83 50
95 75 41
100 78 47
99 78 47
100 78 47
95 76 42
107 85 47
96 75 45
103 81 48
95 74 44
93 72 45
89 70 39
96 74 48
98 78 42
91 71 45
87 68 40
91 72 41
92 71 44
90 70 45
97 76 46
93 72 45
87 68 40
90 69 45
92 71 45
86 66 45
84 65 41
88 69 40
95 75 43
81 63 38
90 70 46
91 72 38
84 66 38
84 65 42
86 65 45
79 62 36
76 59 37
86 66 44
75 58 38
87 68 42
73 57 34
79 61 41
86 67 40
78 60 41
91 71 44
79 60 40
80 62 40
70 54 35
74 56 41
77 59 40
78 60 41
76 58 38
77 60 36
82 62 43
75 57 39
77 59 39
72 55 37
80 62 41
70 52 39
81 62 42
75 58 38
81 64 37
77 59 38
83 63 43
79 61 38
73 56 36
79 60 41
75 57 39
75 58 37
71 54 38
84 63 45
75 57 40
78 60 39
65 49 35
70 54 37
70 53 40
67 51 36
69 52 37
76 59 38
81 62 43
79 61 42
75 57 39
71 54 39
73 56 38
76 58 41
70 53 39
79 60 41
72 54 41
79 61 39
78 60 40
71 53 39
80 61 42
77 58 41
71 53 39
72 56 37
84 65 43
81 62 43
78 59 41
75 57 41
78 60 40
72 55 38
74 56 39
76 58 40
73 56 39
83 64 41
74 56 42
72 55 36
73 55 41
68 51 38
73 55 40
77 59 39
80 62 37
78 60 39
83 64 43
75 57 39
80 61 43
79 61 39
84 65 41
79 60 41
82 64 39
81 62 42
87 66 46
88 67 47
79 61 40
78 60 39
79 61 40
88 68 42
81 62 42
84 65 41
86 67 41
90 71 39
84 65 41
88 69 41
90 69 46
91 71 44
93 73 42
84 65 42
86 67 41
89 70 41
78 60 38
87 67 44
84 66 40
93 72 45
97 77 43
90 69 44
85 66 41
85 66 42
86 66 42
95 74 47
87 68 40
96 75 43
96 75 46
92 72 43
91 73 38
91 71 44
93 73 44
96 76 44
96 74 47
102 80 45
99 78 47
91 72 41
101 79 46
103 81 45
101 80 44
91 70 46
98 77 45
96 75 46
103 80 49
93 72 47
107 85 46
96 75 46
98 77 46
99 77 48
103 82 45
97 76 45
99 79 43
99 78 46
96 76 45
99 79 43
96 75 46
101 79 49
98 77 46
98 77 45
110 87 50
105 84 44
102 80 48
98 77 45
106 84 47
107 84 49
107 83 51
106 85 45
102 81 45
108 86 47
110 87 48
107 86 45
106 84 45
107 84 49
108 85 49
106 83 49
109 88 45
108 85 49
108 86 47
112 88 52
103 80 49
114 90 52
106 83 50
105 83 47
111 87 53
103 81 47
111 87 51
114 91 48
103 81 47
111 88 48
109 87 47
111 87 50
113 90 50
111 88 49
105 83 47
111 89 46
112 90 48
113 90 49
117 93 50
110 87 48
109 86 49
116 94 46
111 87 52
114 91 50
114 92 46
112 89 49
114 91 48
112 88 50
115 92 48
112 90 46
115 92 46
114 90 52
121 98 49
113 89 51
112 88 50
112 88 51
113 91 45
117 94 48
114 89 53
116 92 51
115 91 52
109 87 47
114 91 50
118 94 51
116 91 53
115 91 51
115 91 49
114 91 48
119 96 48
113 91 47
116 92 52
123 98 52
113 90 49
116 91 51
117 93 51
119 95 49
116 93 49
114 92 46
116 92 50
118 94 51
119 95 51
112 88 51
115 91 53
119 96 50
116 92 51
116 90 54
115 92 49
120 95 53
118 93 53
121 96 53
115 90 54
114 90 52
119 95 50
119 94 53
118 93 52
118 96 46
119 94 52
120 95 52
116 92 52
116 93 48
119 94 53
118 92 54
117 92 52
117 93 51
118 94 50
116 92 50
118 94 50
115 91 51
118 93 52
113 89 50
117 94 51
116 90 55
119 95 51
120 96 48
118 94 50
112 89 48
117 92 52
118 95 50
117 93 53
115 91 50
114 89 53
120 97 47
110 88 46
119 95 50
116 91 53
118 94 52
115 90 52
116 92 51
116 93 49
113 89 51
117 94 49
114 90 51
117 93 51
116 93 49
117 93 51
114 89 54
121 98 49
115 90 53
116 92 50
113 90 49
118 94 51
116 92 51
115 92 49
118 94 52
110 87 50
113 90 49
110 86 50
116 92 51
115 92 49
114 91 49
114 90 52
114 91 48
114 90 51
109 86 49
111 89 46
115 91 50
119 95 50
114 91 47
111 87 52
114 90 53
105 83 48
103 81 47
110 87 50
112 89 50
112 88 49
113 90 48
108 86 48
112 90 47
110 87 49
108 85 49
106 84 47
110 87 47
114 90 49
113 90 48
106 83 49
107 84 47
112 89 48
109 85 51
110 89 44
110 87 47
108 86 48
101 79 47
111 89 48
112 90 47
108 85 48
106 84 48
105 83 46
104 82 46
105 83 46
106 82 50
99 78 45
106 85 45
106 86 44
104 80 52
107 84 50
108 85 49
101 81 43
112 89 49
107 85 47
106 85 46
104 80 51
93 72 47
105 84 46
104 82 45
104 81 49
108 84 50
99 77 46
98 76 48
100 81 41
104 82 47
103 82 45
104 81 51
92 72 44
105 84 45
96 75 45
96 74 48
94 74 45
96 74 46
97 76 45
100 78 47
104 82 49
98 76 46
89 69 44
102 81 44
95 75 45
98 78 44
84 65 41
92 71 46
90 70 42
94 73 47
86 66 43
88 68 43
93 73 44
94 74 44
94 75 40
94 75 42
89 68 47
94 74 42
93 73 43
90 70 42
90 70 42
84 64 43
81 63 39
87 67 43
87 68 41
88 70 37
86 66 45
90 70 43
87 69 39
89 70 41
78 60 40
85 67 38
80 62 39
83 64 43
92 71 44
82 63 41
82 62 43
86 68 39
83 62 48
84 65 42
76 59 39
82 63 41
80 62 39
79 61 38
79 61 39
77 60 39
81 63 41
80 61 41
80 62 39
74 58 35
85 65 44
73 56 38
75 57 41
82 63 40
76 57 40
80 62 41
74 57 37
78 60 41
79 61 41
81 63 41
82 63 39
86 65 45
78 61 37
70 53 39
81 62 40
67 51 37
73 56 38
75 59 36
78 59 40
77 58 43
80 61 41
62 47 35
73 56 37
61 46 33
75 58 39
81 62 41
79 62 34
73 56 37
77 58 40
73 57 36
75 57 39
67 51 35
75 57 39
76 58 41
77 59 40
82 63 42
78 60 40
74 57 38
65 49 36
74 57 39
85 66 42
72 55 38
82 62 45
70 54 36
82 62 44
80 61 42
73 57 34
77 59 38
86 65 46
72 54 39
78 59 42
77 59 40
82 62 42
77 59 40
75 57 41
74 56 40
76 58 40
69 53 35
79 61 39
84 66 40
81 61 45
76 58 39
80 62 39
83 64 41
78 60 41
78 59 43
83 64 43
80 62 40
79 60 42
80 62 38
75 58 38
86 67 43
82 64 39
78 60 37
82 65 39
87 68 41
90 70 43
85 66 43
89 70 41
74 55 41
97 74 49
87 68 41
90 69 49
91 72 42
91 71 42
94 72 48
95 74 44
82 63 40
92 71 44
79 61 40
93 71 48
86 67 42
95 75 43
98 77 45
92 74 40
87 68 41
89 69 42
96 76 45
84 65 40
92 73 39
96 74 46
96 75 45
91 71 44
101 79 47
99 78 45
91 71 43
97 75 48
86 67 41
97 77 43
96 75 44
85 65 44
104 83 43
105 84 44
101 79 47
102 80 45
104 82 47
100 80 43
104 82 48
97 76 47
104 83 45
94 73 45
100 79 44
101 79 46
101 80 44
107 84 47
108 85 50
107 86 44
108 86 46
109 87 47
103 81 46
102 80 46
103 82 45
106 83 51
109 86 48
107 85 47
106 83 51
109 86 47
105 84 43
102 80 47
103 82 45
101 79 45
113 90 47
105 82 49
107 83 51
114 91 48
108 86 47
109 87 47
108 86 47
107 84 47
109 87 46
110 87 47
109 85 50
107 85 47
109 86 49
111 88 47
112 90 48
114 90 52
104 81 50
108 85 51
114 89 53
109 86 48
111 89 48
104 81 49
113 91 47
110 88 45
106 83 51
110 88 46
111 89 48
113 90 48
113 90 47
112 89 49
115 91 49
111 88 49
115 93 47
111 88 50
117 92 51
116 93 48
112 88 51
113 90 48
117 95 45
115 92 49
113 89 50
123 100 48
116 92 52
118 95 48
107 83 53
115 92 48
113 89 53
113 89 52
114 90 51
114 90 50
109 86 50
115 91 52
106 82 53
117 92 53
115 91 51
116 91 53
113 90 47
118 94 53
115 92 50
115 91 51
114 90 50
121 98 49
115 91 51
115 91 51
119 95 50
117 93 50
113 90 49
118 94 52
117 92 54
117 93 52
121 98 48
123 99 48
116 91 53
119 94 53
118 93 52
122 98 50
115 91 50
115 91 53
119 96 49
120 95 52
116 91 52
115 91 54
119 94 52
114 91 50
117 94 50
123 99 50
117 93 52
121 97 50
119 95 50
119 94 55
118 94 50
119 95 51
116 92 50
118 94 50
117 94 48
121 97 50
117 93 50
115 90 52
121 97 52
115 92 50
118 93 53
118 93 52
115 92 49
116 91 55
116 91 53
112 89 49
119 95 49
115 90 54
117 93 52
114 89 52
117 93 52
116 92 53
112 88 52
117 93 52
116 92 49
118 94 51
117 93 49
114 91 49
116 93 50
112 87 53
111 87 52
115 90 52
116 93 49
116 93 50
114 91 49
116 92 52
113 89 52
112 87 53
110 87 50
122 97 51
112 89 49
113 89 51
120 96 50
116 92 51
117 94 50
116 92 51
108 86 46
113 89 51
115 90 53
117 93 51
112 88 51
112 88 50
109 86 51
111 86 53
114 91 48
116 93 46
111 88 48
110 88 47
115 93 47
112 90 48
110 87 49
113 89 51
112 89 48
107 85 46
112 89 49
112 89 50
113 90 48
108 85 49
113 91 45
109 87 47
114 90 50
114 91 48
110 86 51
110 86 51
110 86 52
108 86 46
105 82 48
112 89 50
106 84 48
112 90 48
106 84 47
106 83 48
105 82 48
103 81 49
108 86 47
106 84 46
107 85 48
107 85 46
107 84 50
102 81 46
101 79 48
103 81 46
107 85 48
102 82 42
101 80 45
104 82 47
108 86 48
107 85 48
102 80 48
104 82 48
102 79 49
111 88 50
108 85 50
105 82 49
99 76 49
99 79 44
88 69 41
99 78 47
94 73 46
108 84 51
100 79 45
101 80 44
102 80 48
101 79 48
99 77 46
97 75 48
102 80 47
99 77 47
103 81 50
100 78 49
94 74 43
96 75 45
101 80 45
99 79 43
97 75 48
88 68 42
91 72 40
96 75 45
90 70 44
96 76 41
98 76 47
93 73 45
90 70 44
96 75 45
92 73 40
95 75 43
82 64 38
92 72 42
85 66 42
92 72 42
89 69 44
90 70 43
82 65 36
88 69 42
92 72 45
80 62 39
93 74 41
92 71 46
94 73 47
90 71 41
80 62 39
86 68 40
89 68 48
93 73 45
81 63 39
85 66 42
83 64 44
88 67 46
84 65 42
96 75 43
71 54 37
80 61 41
82 64 39
83 65 38
83 65 40
85 65 43
83 64 42
84 64 43
79 61 39
74 58 35
80 62 39
82 63 41
72 56 36
84 65 41
84 65 42
72 55 38
87 68 40
80 62 39
73 56 37
72 56 35
80 62 39
70 54 35
75 57 39
81 62 43
79 60 40
77 59 38
76 58 39
85 64 46
68 52 36
76 59 38
70 54 36
89 69 44
78 59 43
67 50 37
74 57 37
64 48 35
76 59 38
74 57 38
69 53 35
81 61 44
72 54 41
83 63 43
66 50 36
75 58 36
77 59 38
72 55 38
70 52 40
80 61 41
82 63 41
75 58 40
74 56 39
73 56 37
80 62 39
77 59 40
70 53 39
73 56 39
76 58 39
70 52 39
75 57 40
73 56 38
75 58 39
82 63 43
77 59 39
78 59 42
81 62 41
77 59 38
79 61 40
78 59 41
80 63 38
79 60 41
73 55 39
75 57 40
83 64 41
93 72 46
82 64 40
74 58 36
87 66 45
86 66 42
73 56 36
83 64 41
88 70 40
76 59 38
81 64 38
87 68 41
78 61 38
81 64 38
87 68 43
88 68 43
89 70 42
83 65 40
83 65 37
81 62 44
86 66 42
88 68 42
94 73 46
91 71 43
91 72 43
93 72 46
94 74 42
88 69 39
82 64 39
86 67 41
98 77 44
93 73 42
89 69 42
94 73 46
92 72 43
92 72 43
93 74 40
98 76 46
95 74 45
90 70 45
98 77 44
86 67 41
101 79 46
103 81 47
99 79 43
101 81 44
96 75 44
93 73 42
97 76 45
96 76 44
101 79 46
103 82 43
100 78 46
92 72 44
107 83 51
99 77 48
100 79 46
101 80 44
104 81 50
105 82 48
101 79 46
102 80 47
107 85 47
102 80 49
104 83 44
109 86 48
103 81 48
101 79 47
102 81 45
110 87 51
103 82 45
105 82 50
101 80 46
97 76 47
102 81 46
105 84 45
110 87 48
107 85 47
107 83 50
103 83 42
110 89 45
106 82 50
106 84 46
110 87 48
106 85 44
105 83 48
106 83 49
104 82 46
106 84 47
114 90 50
106 84 46
106 85 45
106 83 49
113 90 48
112 89 48
112 90 48
111 88 48
102 80 48
113 91 47
111 88 49
112 89 47
116 91 52
107 84 50
110 88 48
112 89 49
112 89 49
118 94 51
112 90 46
111 88 48
116 91 54
113 89 51
108 85 50
112 89 49
110 86 51
116 92 49
108 86 46
109 86 50
114 91 48
111 88 48
119 95 50
113 89 53
116 92 49
111 88 49
115 93 47
117 94 49
114 90 49
116 93 48
113 89 51
116 92 51
117 94 51
116 91 54
117 94 48
115 91 51
115 90 52
117 94 48
113 89 50
118 93 54
116 91 53
117 93 50
120 96 48
117 93 51
118 93 53
113 89 51
118 94 51
115 92 48
118 93 53
114 90 52
117 93 49
116 92 52
121 97 49
121 97 49
118 93 54
120 95 51
118 95 49
118 94 52
119 95 52
119 95 51
115 90 52
119 94 52
117 93 48
116 91 53
120 96 48
118 94 53
119 95 49
119 95 50
119 95 51
118 94 52
118 94 50
113 87 57
116 92 49
119 95 51
120 95 53
118 95 50
115 92 49
118 93 52
119 96 47
116 91 54
117 93 50
120 97 48
119 94 53
121 97 52
115 90 54
119 96 47
114 89 54
111 86 54
117 92 52
117 92 52
113 89 50
119 94 52
115 91 50
111 88 48
114 89 53
113 89 52
117 92 55
116 93 50
117 93 50
117 93 53
115 90 52
112 87 54
112 89 49
113 89 52
113 90 49
116 94 47
115 92 50
116 93 48
117 93 51
118 94 50
117 93 51
115 91 51
113 91 47
117 93 49
115 91 51
117 94 48
116 92 50
116 93 50
112 89 51
115 91 52
111 88 48
115 92 48
114 91 48
117 92 51
110 85 55
111 88 49
113 89 51
116 92 50
111 89 48
115 91 52
114 89 54
109 85 51
108 86 48
115 92 49
116 93 48
108 85 50
116 92 51
115 91 51
109 86 50
112 88 51
108 84 52
109 85 51
107 84 49
107 83 51
112 89 49
112 89 50
108 87 46
113 91 45
115 92 50
107 83 52
108 86 47
109 86 47
107 86 45
107 85 46
110 87 49
97 76 46
106 84 46
106 83 51
112 88 50
104 81 49
111 88 47
110 86 54
101 79 48
109 86 48
98 76 47
109 86 49
103 81 48
106 84 44
105 82 50
104 82 45
104 83 44
100 79 46
96 74 47
106 83 50
105 84 44
102 81 45
107 86 43
105 82 48
102 81 44
101 80 47
110 88 47
98 77 46
102 81 44
103 82 44
98 77 45
102 80 48
103 82 46
98 77 44
99 79 44
100 79 45
99 77 47
99 77 46
97 77 43
94 72 47
99 78 46
91 70 45
93 73 44
102 79 50
94 73 45
98 78 42
93 73 42
90 71 43
94 73 44
85 66 40
95 75 44
97 76 44
92 72 45
89 69 44
94 74 42
95 74 45
95 74 45
86 66 42
87 66 44
89 69 42
95 75 44
90 69 45
84 65 41
99 77 46
84 65 43
85 65 45
79 60 42
81 63 39
86 67 42
88 68 44
92 71 44
81 63 39
82 63 42
86 68 38
84 64 44
85 65 43
82 63 41
82 63 42
84 65 42
88 68 41
81 63 38
83 64 40
84 65 42
75 57 41
74 57 37
75 58 36
77 60 37
79 61 38
83 64 42
87 67 45
86 66 42
76 58 40
82 63 42
79 60 40
84 66 39
69 53 36
81 63 39
82 62 44
78 60 40
76 58 41
86 67 41
78 60 40
73 56 37
72 56 35
82 63 43
80 61 42
85 66 42
72 55 37
77 59 41
81 63 39
74 57 37
78 59 41
75 59 33
76 59 39
75 57 39
79 61 40
72 55 40
81 62 42
73 56 36
73 56 38
75 57 40
78 59 42
80 61 42
82 63 41
76 59 37
78 61 37
78 59 42
76 58 38
78 59 41
82 63 42
77 59 40
73 55 39
81 62 41
82 62 43
80 62 39
83 66 37
75 58 37
74 58 36
75 57 40
72 56 36
77 59 40
77 59 39
79 59 45
86 67 43
79 61 39
87 67 46
87 66 47
82 62 44
82 63 41
77 59 39
87 67 43
82 64 38
93 72 45
82 63 43
85 65 45
79 61 40
81 63 41
84 66 38
94 73 47
92 72 44
75 58 39
93 71 48
91 71 42
96 77 39
94 73 45
90 70 43
83 65 39
80 62 39
95 74 46
89 70 40
89 70 41
101 78 49
81 63 39
80 62 39
97 75 46
81 63 39
88 68 44
96 75 44
94 74 44
86 67 41
98 77 46
89 67 48
92 72 43
93 72 45
97 77 42
92 70 49
101 80 45
102 80 47
97 75 46
100 78 47
88 69 41
95 74 46
105 82 48
97 76 46
95 75 45
91 73 40
97 77 42
103 81 46
101 80 43
102 79 50
98 76 47
103 82 45
95 74 43
101 79 49
102 80 45
106 84 46
105 83 45
110 88 47
102 80 46
103 80 49
103 83 41
109 88 45
104 83 45
102 80 48
104 83 44
101 79 46
98 77 46
103 81 47
105 82 50
104 83 47
105 83 46
103 81 46
110 87 47
110 86 51
107 84 49
105 84 45
109 88 45
109 86 49
108 85 48
106 84 47
105 83 47
112 88 51
109 85 50
104 81 50
108 86 47
109 86 49
117 92 53
109 86 50
110 88 46
105 82 49
108 85 50
111 88 49
110 87 49
109 84 53
108 84 52
108 86 48
110 88 45
111 89 47
113 90 49
114 92 44
115 92 48
116 93 48
114 90 50
109 86 49
109 87 47
110 87 50
119 95 53
114 92 45
109 87 46
112 88 52
113 90 48
117 93 52
110 86 50
107 86 43
112 89 49
114 90 49
115 92 47
114 91 48
114 90 52
113 89 51
114 90 52
116 92 51
116 93 50
111 88 50
112 88 52
115 92 50
115 90 54
111 87 52
118 93 51
115 92 50
114 89 53
117 93 49
117 93 49
113 89 50
120 96 50
118 93 53
120 94 53
117 93 50
117 91 57
117 94 50
113 89 50
118 95 47
115 91 50
114 90 53
118 94 49
112 88 51
117 92 54
122 99 48
114 90 51
117 93 50
117 93 50
117 94 47
117 94 50
119 93 56
121 98 48
119 95 52
115 90 53
121 96 52
121 97 50
118 93 52
114 90 53
117 92 53
117 93 49
115 90 53
112 89 50
117 93 50
115 91 51
116 91 53
121 97 50
118 93 53
113 88 54
116 92 52
115 91 51
118 93 52
117 93 50
114 90 51
118 94 50
121 98 49
115 93 47
119 95 50
117 93 52
116 93 48
115 91 50
116 92 53
115 90 54
116 92 51
117 94 49
113 89 51
118 93 53
112 88 53
115 90 55
113 89 51
118 93 54
116 92 51
117 93 52
116 92 53
113 89 51
116 92 51
117 93 49
117 93 52
113 90 49
118 95 49
106 83 48
113 89 50
114 89 54
119 96 49
112 87 55
117 93 51
115 90 55
120 96 51
117 93 51
114 90 51
113 89 50
115 90 52
110 87 50
111 89 48
113 90 48
118 94 51
112 90 47
114 92 46
110 86 51
111 88 47
113 90 49
112 89 48
118 95 49
113 90 50
107 85 46
110 86 52
110 88 46
111 88 50
114 90 49
114 91 50
111 88 49
105 84 44
106 82 52
113 90 49
115 91 51
108 86 48
110 86 50
110 87 48
108 86 47
110 88 47
117 95 44
111 88 51
105 83 46
109 86 49
107 85 45
111 87 50
113 90 46
112 88 50
109 87 47
103 80 50
109 86 50
101 81 43
109 85 51
107 85 48
110 88 48
99 78 46
98 78 42
111 88 49
107 85 47
108 86 47
109 86 50
104 83 46
104 83 44
106 83 48
103 82 43
106 84 47
100 78 47
105 83 48
102 81 47
104 81 49
101 79 47
96 74 47
100 78 46
103 80 50
103 81 49
102 80 46
99 78 46
101 79 45
100 79 45
102 80 47
96 75 45
91 72 40
99 77 46
96 76 42
99 76 49
94 74 43
96 75 46
98 79 39
93 73 43
93 72 44
91 70 48
94 73 47
94 73 46
96 74 50
91 71 42
85 66 43
95 74 46
97 77 42
87 68 42
95 74 46
95 74 48
102 81 46
96 76 42
95 74 46
91 71 44
90 70 43
94 73 46
88 69 40
92 71 45
86 66 44
86 68 39
93 73 43
84 65 40
89 69 44
80 62 39
87 68 41
95 74 44
84 66 39
86 67 40
85 66 41
89 69 44
93 72 46
84 66 40
81 63 41
78 60 40
86 67 42
87 68 41
87 68 41
85 66 41
83 65 39
84 65 42
76 58 41
90 70 44
79 61 41
84 64 44
81 62 43
81 63 40
83 65 40
83 63 44
75 58 37
91 72 42
84 65 44
70 52 42
76 57 41
82 64 40
85 67 40
81 63 39
71 54 36
76 58 37
71 54 37
75 58 35
69 52 37
73 56 37
75 58 36
80 61 41
76 60 35
75 58 38
79 61 39
78 59 42
79 59 43
82 63 43
70 53 37
70 52 41
71 54 40
73 55 40
82 63 42
81 63 40
78 59 42
73 56 37
84 65 41
86 66 43
79 61 39
81 62 41
68 52 35
85 66 42
74 57 37
78 60 39
82 64 41
77 59 41
81 63 40
79 60 42
76 58 40
78 60 39
79 60 42
85 66 42
81 63 41
78 60 40
85 65 43
81 62 40
72 56 36
88 68 43
84 64 46
79 62 38
85 65 44
88 69 40
92 71 46
77 58 44
79 60 42
81 62 41
84 66 41
82 62 45
89 68 47
81 63 41
87 68 42
85 66 42
91 70 47
81 63 38
83 63 45
89 70 42
82 63 44
82 63 44
87 67 45
78 59 40
83 66 36
80 62 38
89 68 46
92 71 45
84 66 40
93 71 47
98 77 44
96 74 49
81 62 41
96 75 45
91 71 43
92 73 41
93 72 44
96 76 44
96 76 43
100 79 44
97 76 45
91 71 43
98 76 46
100 80 43
95 75 44
95 75 44
100 78 48
93 74 41
105 83 49
97 77 42
99 78 46
104 82 46
93 73 44
96 74 46
86 66 43
103 82 44
95 76 41
99 79 42
103 81 48
95 75 43
95 73 48
97 75 48
105 83 48
92 72 44
99 78 44
103 82 46
96 74 48
93 72 46
101 79 47
99 77 48
101 79 48
103 83 41
97 76 44
98 77 44
105 84 45
106 85 44
103 81 47
105 83 46
106 83 50
106 84 47
107 84 49
100 77 49
109 87 46
106 84 47
103 82 44
106 84 49
100 79 46
106 84 47
106 83 48
111 89 45
107 85 47
106 84 46
111 88 48
106 83 48
114 90 49
106 84 47
107 85 47
105 82 50
99 77 48
113 90 47
103 81 48
110 86 51
106 82 51
112 89 47
108 85 49
109 87 47
104 81 50
109 85 51
109 87 47
112 88 51
111 88 51
107 85 48
108 84 52
109 87 47
113 90 49
112 89 47
111 87 53
116 91 52
115 92 47
115 91 50
111 87 52
111 88 50
114 91 49
116 93 48
106 83 49
112 89 46
114 90 50
105 83 48
114 90 50
114 91 49
113 91 48
112 90 46
115 91 52
110 87 48
114 91 49
121 96 52
112 88 51
115 91 51
117 92 53
115 91 52
116 93 49
117 93 50
113 90 50
112 89 50
115 92 48
115 91 51
114 89 52
115 91 51
118 94 49
116 92 49
119 96 48
120 96 49
118 94 52
121 97 50
115 90 54
118 94 52
121 97 52
114 91 49
118 94 48
117 92 54
116 91 52
115 90 53
119 95 49
119 95 49
120 95 53
119 96 48
113 89 50
117 93 49
120 97 47
118 94 52
120 96 51
118 94 51
117 93 50
116 92 51
116 92 51
121 96 52
117 93 52
121 96 53
119 95 51
120 96 49
119 95 51
114 90 53
117 94 50
118 92 55
114 90 49
117 93 50
114 90 50
115 91 52
120 95 53
117 94 49
115 91 51
118 93 55
117 92 54
112 90 47
116 93 50
116 92 53
118 94 52
121 96 51
115 91 51
111 86 52
114 92 47
119 94 51
119 94 51
117 94 49
118 95 48
114 91 49
119 94 52
120 96 51
115 92 49
112 88 52
113 89 49
114 90 52
118 95 48
116 92 50
115 89 54
118 95 49
114 90 50
116 92 53
113 89 52
116 91 52
111 88 49
110 87 50
116 91 52
116 91 52
113 89 50
111 89 45
115 91 51
112 88 52
112 89 49
112 88 53
104 81 51
115 91 51
111 88 49
113 90 47
110 87 50
114 92 48
110 88 47
114 91 49
113 90 49
107 84 50
112 89 50
111 88 49
110 86 51
111 87 51
111 89 45
110 86 50
109 86 49
109 87 46
113 89 52
110 86 50
109 86 48
109 86 49
112 89 48
111 89 47
105 83 46
105 83 47
112 89 48
108 86 48
105 83 46
106 84 46
111 88 49
104 81 49
109 86 50
106 84 45
106 84 49
100 78 47
101 79 46
109 85 52
101 80 45
111 89 47
100 79 44
101 79 48
106 84 45
100 79 47
111 89 45
104 83 45
106 83 49
93 72 46
101 80 45
99 78 44
91 70 46
105 83 47
104 83 45
100 78 48
99 78 45
97 76 47
98 78 43
97 77 42
102 80 48
101 80 46
102 80 46
101 80 46
99 78 43
93 73 43
104 82 46
99 77 47
89 70 42
90 71 41
99 77 47
102 81 46
94 74 44
93 72 44
102 80 46
89 68 46
95 74 48
91 70 45
99 78 46
94 73 47
95 74 45
89 69 43
93 73 44
92 71 47
92 73 40
97 76 46
93 74 41
90 69 45
92 71 49
94 74 45
86 67 42
97 75 48
92 71 48
90 70 44
91 71 44
86 67 40
96 74 48
95 75 43
85 67 40
87 67 46
87 68 41
90 69 47
90 69 46
90 70 44
84 65 42
81 64 38
84 65 42
73 55 39
80 62 39
92 71 45
84 65 43
76 59 36
81 62 40
88 69 41
87 68 41
85 66 41
80 61 41
83 64 42
88 69 41
83 64 40
81 62 41
73 57 35
81 60 46
82 63 41
80 61 43
82 63 41
83 63 42
81 62 43
80 62 39
78 58 45
71 55 34
81 61 43
78 60 38
79 61 39
77 60 36
77 58 40
76 59 38
72 56 36
79 61 40
85 65 46
73 56 37
81 62 42
84 64 45
68 51 36
82 63 42
71 55 36
77 60 37
78 60 39
80 62 40
79 61 38
80 61 41
72 55 38
82 63 42
74 56 41
71 55 35
86 67 43
75 58 39
77 59 40
75 58 37
75 59 36
73 55 41
78 60 40
83 63 42
83 63 44
78 59 42
77 59 39
82 63 42
79 61 39
79 61 40
80 62 38
83 63 43
78 59 41
88 69 42
82 63 42
82 63 42
76 60 36
73 55 42
82 63 43
86 66 44
77 60 39
77 59 38
84 65 43
90 70 46
86 67 42
87 67 43
88 69 41
83 63 43
90 71 41
85 66 41
89 69 45
87 68 43
91 71 43
86 67 41
88 69 41
87 68 42
92 71 44
82 65 38
83 64 41
90 70 42
93 73 44
93 73 45
87 67 46
97 76 45
93 71 47
94 73 46
88 68 44
90 70 43
92 71 45
84 65 42
101 78 50
91 69 48
95 73 48
92 72 44
94 73 45
94 73 46
97 76 46
99 78 46
96 75 45
100 79 45
99 78 45
103 82 46
93 72 46
95 76 41
102 80 45
102 81 45
101 79 47
99 79 43
95 74 46
100 78 50
94 75 41
97 76 46
103 81 47
101 79 47
104 82 46
98 76 48
91 72 40
99 77 46
100 80 42
109 85 52
103 82 44
101 79 46
105 82 50
94 72 48
99 76 52
102 81 46
105 83 47
108 87 45
107 85 48
108 86 48
104 83 45
108 86 47
106 84 46
107 84 50
107 84 49
110 87 50
108 86 46
104 82 47
103 81 48
108 86 47
109 86 49
105 83 47
102 80 46
107 85 48
104 82 46
109 86 47
107 85 48
108 87 45
108 87 46
106 83 48
108 86 47
108 85 49
104 83 43
110 87 49
107 85 48
115 92 49
111 89 46
99 78 45
116 92 51
110 87 48
108 85 48
113 89 52
112 89 47
115 92 47
113 89 52
115 92 49
114 89 52
113 89 50
110 87 50
113 90 48
110 88 46
115 92 49
112 88 51
113 90 48
117 93 52
112 89 47
114 92 48
113 90 50
113 90 50
110 86 52
110 86 52
117 94 49
115 91 52
114 91 48
110 86 52
116 93 48
111 88 50
116 91 54
115 92 50
115 91 50
118 95 49
116 93 48
117 93 52
112 88 53
118 93 52
115 92 47
118 95 49
115 91 52
112 87 54
115 91 51
115 92 49
114 89 54
108 87 44
116 92 51
115 91 51
110 86 51
119 96 48
114 91 49
114 90 51
117 94 48
119 95 51
115 92 51
120 95 51
117 93 51
120 96 49
116 90 54
119 95 51
118 93 53
117 93 51
121 97 48
122 98 50
112 88 51
116 92 52
123 98 53
119 95 51
122 97 52
116 91 56
116 93 50
117 93 51
117 93 53
116 92 51
114 89 54
119 96 50
112 88 51
114 91 50
113 88 52
118 93 54
117 94 49
110 86 50
118 93 52
120 96 51
115 90 52
116 93 49
120 96 51
115 91 51
116 92 52
117 91 56
115 91 53
115 91 49
121 98 47
116 93 49
113 89 51
113 90 48
120 96 51
116 92 49
119 95 50
119 94 51
118 95 47
113 90 50
112 87 53
112 89 51
112 89 49
111 86 53
113 90 50
114 89 52
115 91 51
113 90 50
115 91 51
117 94 50
115 91 50
111 88 49
112 89 49
113 89 50
116 93 47
116 92 50
113 89 50
108 85 48
115 90 54
116 93 48
117 94 49
109 86 49
112 90 47
113 91 46
108 85 50
108 84 51
113 90 49
112 88 51
109 86 48
115 91 50
114 90 51
115 90 52
112 89 51
111 89 46
110 87 48
114 91 48
115 92 47
110 88 45
108 85 50
100 79 47
110 87 48
114 91 48
110 87 50
110 88 48
114 89 53
106 84 45
106 84 46
108 86 47
105 83 47
106 85 46
111 89 48
109 86 49
109 86 49
108 84 50
110 87 48
106 84 46
106 83 49
108 86 48
109 87 44
109 86 48
105 82 51
99 79 42
102 81 45
101 79 48
114 91 47
103 81 48
104 83 45
106 84 45
109 86 47
100 79 46
101 79 47
106 84 48
101 80 45
103 82 45
101 79 49
100 80 42
100 81 40
101 80 45
93 73 45
104 82 47
103 82 43
101 80 45
110 88 47
104 81 49
99 78 46
100 79 46
96 76 43
99 79 43
102 80 48
95 74 47
105 83 46
99 77 48
99 77 47
95 74 47
97 76 45
99 77 48
99 78 45
95 74 45
101 79 46
97 77 42
97 77 42
87 68 41
94 73 45
91 70 47
97 75 47
91 70 46
87 68 41
94 73 46
98 76 47
94 73 47
96 75 44
97 76 47
90 70 43
84 65 40
84 65 40
89 68 46
85 65 44
88 68 45
90 70 43
85 65 44
91 71 42
88 68 43
86 66 44
85 66 41
83 66 37
85 67 40
90 71 41
80 62 39
92 71 45
94 74 44
80 61 42
88 67 45
87 67 42
85 65 43
85 65 44
85 66 40
81 62 41
81 64 37
81 62 42
84 64 44
81 61 43
87 66 45
90 70 44
76 58 40
87 67 43
80 61 40
81 64 38
83 63 42
78 60 40
88 69 42
79 61 39
80 61 40
68 52 36
73 56 37
89 70 42
81 61 46
79 61 39
86 67 40
84 65 42
80 62 40
73 57 36
79 61 40
88 68 44
83 63 43
79 61 39
70 54 35
85 66 43
82 63 44
84 64 46
84 64 45
75 56 42
81 62 42
76 58 37
84 65 42
83 63 44
77 58 41
82 63 39
81 62 41
85 65 45
81 61 43
78 60 41
75 58 35
82 63 44
79 61 41
83 65 41
72 56 35
76 59 36
86 66 44
75 59 34
84 65 43
78 60 39
88 68 43
87 66 44
83 64 40
90 69 44
86 67 41
88 69 41
76 57 41
91 70 47
81 63 40
87 67 44
83 63 45
80 62 40
83 62 47
91 70 48
86 68 40
92 72 42
83 64 41
80 62 38
88 68 45
88 68 43
94 73 45
88 68 44
91 71 44
93 72 44
75 58 37
82 64 40
93 72 45
97 75 50
85 65 45
84 65 41
91 72 42
90 71 42
94 74 44
91 71 44
91 70 46
92 72 42
95 75 43
98 77 44
94 74 45
85 66 40
94 73 45
98 77 45
89 69 44
88 68 43
95 75 43
94 74 42
95 74 44
99 78 44
100 78 48
89 69 42
94 72 50
95 74 45
90 71 42
103 81 46
98 76 48
89 70 42
101 80 45
97 76 45
97 76 46
101 80 46
103 81 46
98 77 43
94 73 45
103 82 45
90 69 45
105 83 46
109 86 50
103 82 45
103 82 44
93 73 43
103 81 47
97 76 43
99 77 47
103 81 47
102 81 44
105 82 50
105 83 47
105 83 47
109 86 48
101 80 44
106 84 48
108 86 46
101 81 43
105 83 46
104 82 47
109 87 48
108 86 46
114 91 48
102 79 49
104 83 46
103 82 47
106 83 48
114 91 48
110 87 49
104 82 48
111 88 49
110 88 46
104 83 44
104 81 50
111 88 49
108 85 50
108 85 49
109 86 49
111 88 49
107 85 47
105 82 52
109 85 52
112 88 50
114 91 49
110 88 48
108 86 48
110 86 52
117 94 47
110 87 51
113 90 48
107 84 49
111 88 49
108 84 50
111 88 50
117 94 46
108 85 48
112 89 48
117 93 50
114 91 47
114 90 51
111 89 45
110 86 50
111 89 46
116 93 47
118 94 51
117 94 48
113 89 51
114 89 52
120 95 52
112 88 51
117 95 46
114 91 50
115 91 51
118 93 53
121 97 50
116 92 52
115 91 50
116 92 49
116 93 48
116 92 51
116 92 53
116 93 50
116 94 47
117 94 51
115 92 49
116 92 50
114 88 55
113 90 50
118 94 51
117 93 53
116 92 51
118 93 53
118 93 52
117 93 50
114 91 48
114 90 51
120 97 47
115 89 56
115 91 52
116 92 51
114 90 49
116 91 56
118 93 52
115 91 53
114 89 54
118 94 52
117 94 47
115 91 52
119 95 48
119 95 51
115 92 50
120 95 52
116 91 55
119 95 51
121 97 52
117 93 49
116 93 48
116 92 50
115 92 49
117 93 51
116 91 54
117 93 52
113 90 51
118 93 53
119 95 49
119 95 50
113 89 52
115 90 54
123 99 49
117 93 51
114 90 51
120 95 54
114 91 48
116 91 52
117 93 50
114 90 50
118 94 50
116 92 51
113 91 48
119 95 51
117 94 48
110 88 46
115 91 52
114 90 50
110 86 53
119 96 50
116 91 55
116 92 53
113 89 50
121 96 51
114 91 50
114 90 52
117 94 47
114 90 50
115 92 47
118 95 48
119 95 52
110 87 48
109 85 51
118 95 49
112 90 46
112 88 53
110 87 50
112 88 51
115 91 51
114 91 49
108 86 48
107 84 50
115 92 48
107 84 48
115 92 47
115 91 51
105 84 42
109 86 49
111 89 48
113 91 48
107 85 46
106 84 47
107 85 47
115 91 50
110 87 48
107 85 48
117 94 48
109 86 50
110 88 45
112 90 47
110 87 48
108 86 46
99 78 47
115 92 49
107 84 49
104 83 43
102 78 51
113 91 47
105 84 45
109 87 47
107 85 48
105 82 49
109 86 48
103 81 48
113 90 51
109 86 50
107 84 49
106 84 47
106 84 47
111 86 52
107 85 48
104 81 48
104 82 48
104 81 49
105 82 49
104 81 51
103 82 45
114 91 48
104 81 48
101 79 48
103 82 44
100 80 42
101 81 44
106 83 49
98 77 45
97 76 44
97 76 44
102 80 48
109 85 49
105 84 45
92 73 41
107 84 50
105 83 46
95 76 41
103 81 47
93 72 45
92 73 42
103 80 50
97 77 43
94 73 44
102 80 45
99 76 50
93 73 44
94 74 43
102 82 43
98 77 44
87 71 34
95 73 47
92 73 41
92 72 41
97 76 46
97 76 47
95 74 44
95 74 46
95 74 44
94 75 42
90 69 48
92 71 44
89 69 42
93 73 44
88 69 42
91 70 47
97 75 47
91 71 44
89 69 42
85 66 42
80 61 42
89 71 38
92 73 40
88 70 38
85 65 44
92 72 43
87 66 47
91 71 45
85 66 40
84 64 44
90 70 44
92 70 47
90 70 45
85 66 43
84 65 39
81 63 38
88 68 43
80 62 39
89 69 44
85 65 42
81 63 38
92 72 44
84 65 42
91 71 43
87 66 45
76 59 38
85 67 39
85 66 41
78 60 39
84 66 39
80 61 42
85 65 45
86 65 45
84 66 39
81 62 43
85 64 45
91 70 45
80 62 40
74 57 37
80 60 44
81 61 42
78 60 40
84 64 44
81 62 41
72 55 38
86 66 44
86 66 44
78 61 37
83 64 40
84 64 43
83 63 44
80 61 44
82 64 40
84 65 41
84 65 40
72 55 37
77 59 39
82 63 41
89 68 46
75 57 40
86 67 41
81 63 40
88 67 45
81 63 39
81 62 41
76 58 39
79 61 39
79 61 40
75 57 39
83 65 39
77 60 37
87 67 44
83 64 43
84 65 42
84 65 42
76 58 38
85 65 44
88 67 47
75 56 41
83 63 43
84 66 40
87 67 42
84 66 40
74 57 36
86 66 43
84 66 39
85 66 42
96 75 45
83 64 43
97 76 46
80 62 39
88 69 41
87 66 46
99 77 47
90 71 40
89 69 44
89 69 44
92 71 48
90 70 42
88 68 43
95 74 45
88 69 42
82 65 38
79 60 42
95 75 42
87 68 42
97 76 45
91 72 42
97 77 41
87 66 46
87 69 40
93 72 45
87 66 47
99 78 45
90 69 45
101 78 51
98 77 44
100 80 43
96 76 42
93 73 43
95 75 42
98 78 42
99 78 44
96 75 48
86 67 39
94 74 43
93 72 44
107 86 45
103 82 42
102 79 51
97 77 42
104 81 49
98 78 43
97 77 42
100 79 44
97 75 48
102 81 46
95 75 41
96 74 49
99 78 44
111 87 51
102 81 45
105 82 50
110 87 49
95 74 45
102 80 47
97 76 46
103 82 45
112 88 50
91 71 43
104 82 48
103 82 43
109 87 45
107 84 51
107 86 45
106 83 48
98 76 48
101 80 44
102 80 48
106 84 47
110 87 49
104 83 45
100 79 45
113 89 50
107 84 48
105 83 46
112 90 46
107 85 45
105 83 48
113 89 54
110 88 45
107 83 50
101 79 46
107 83 51
112 91 44
106 84 49
101 79 49
106 83 50
113 90 51
108 85 50
109 86 48
107 84 47
115 93 47
112 90 45
107 85 47
108 84 52
112 90 46
112 87 54
104 81 50
108 86 47
107 83 52
116 92 51
117 93 51
108 86 48
109 86 49
115 92 49
116 93 49
115 91 51
118 94 50
114 89 54
116 91 54
110 85 53
111 88 49
118 94 52
119 94 52
113 89 52
113 91 48
111 87 51
119 96 48
114 90 50
114 92 46
110 87 49
113 90 50
113 89 52
112 90 47
115 91 49
113 89 52
110 85 54
113 89 50
111 88 49
113 89 51
118 93 54
110 86 53
117 92 55
120 97 49
117 93 52
116 93 49
122 97 53
114 91 48
113 89 51
118 93 54
117 93 52
111 87 52
118 94 50
118 94 52
118 94 50
117 94 49
119 96 49
115 91 52
117 94 48
116 92 49
119 95 53
118 94 52
115 90 52
117 92 53
118 94 51
114 90 52
113 89 49
122 98 50
119 94 52
121 97 50
122 97 51
119 96 47
116 92 50
113 89 51
116 93 50
115 91 51
123 98 52
121 96 52
115 90 52
118 94 50
120 97 47
117 92 53
115 93 46
116 92 51
112 88 53
117 92 53
118 95 48
112 89 49
118 94 50
114 90 50
113 90 51
118 93 54
117 94 50
121 97 50
119 94 51
119 95 50
115 91 52
115 90 52
116 92 49
116 92 50
118 94 52
114 90 50
113 88 52
117 94 47
120 97 47
115 91 52
117 93 49
114 90 49
115 91 52
115 91 50
112 88 51
118 94 51
108 85 51
117 94 48
113 90 49
114 90 50
115 91 50
113 90 48
108 85 50
110 88 46
114 91 48
106 82 51
113 90 48
118 94 49
110 87 49
107 84 49
111 88 50
106 85 46
114 90 51
107 85 48
115 91 52
115 91 51
108 85 50
111 89 46
113 90 49
104 83 46
110 87 48
108 86 45
107 85 46
108 86 46
112 89 50
107 83 50
112 91 44
112 89 50
111 90 43
109 85 52
107 85 46
102 79 50
110 88 45
104 82 48
103 81 45
108 86 48
104 82 47
105 84 45
106 84 47
109 85 50
103 81 49
105 85 43
106 84 47
105 83 49
108 84 52
104 82 49
109 86 47
109 86 49
104 82 48
104 82 47
109 87 46
102 81 45
102 81 46
104 82 46
99 79 43
106 85 44
100 79 46
113 90 47
95 75 43
98 78 42
104 83 44
98 77 45
104 81 48
98 77 44
109 86 48
103 82 44
100 77 49
106 84 47
97 76 44
101 79 48
101 80 43
102 80 48
98 75 52
98 77 45
104 82 45
96 76 42
87 67 45
89 69 42
94 74 43
103 81 46
100 79 44
99 76 50
98 76 46
94 74 44
97 77 44
98 77 47
99 78 44
99 79 43
95 75 43
88 67 45
95 74 45
89 68 44
94 73 45
100 79 46
91 71 44
85 66 41
91 71 43
93 73 43
87 68 43
93 72 45
88 68 42
90 69 46
89 69 42
90 71 41
85 66 43
89 69 44
89 70 40
97 74 49
88 67 48
87 67 43
88 69 40
85 65 42
84 64 43
86 66 44
90 70 43
92 72 43
85 67 39
87 68 42
91 71 43
93 73 44
80 62 38
80 61 42
77 59 38
79 61 39
83 64 42
88 68 44
85 65 43
80 61 42
82 65 38
86 66 45
85 67 39
91 70 47
85 65 45
86 68 41
88 68 44
85 65 45
89 69 44
86 66 44
79 63 36
80 62 39
89 68 45
72 54 39
75 57 40
93 72 43
78 61 38
76 58 39
82 63 42
82 63 40
84 65 42
79 60 41
86 68 39
70 53 40
83 65 39
79 62 38
80 62 41
89 68 44
88 68 41
77 60 38
77 60 38
72 57 34
85 66 41
77 59 40
89 68 47
72 56 35
82 63 41
85 65 43
83 64 41
76 59 37
77 60 38
67 51 34
78 60 39
80 62 41
83 64 41
81 63 41
87 67 43
87 68 42
84 65 41
88 68 44
89 68 45
82 63 42
93 72 43
85 66 42
81 62 41
88 68 43
85 66 42
90 70 42
80 62 40
75 57 40
87 67 44
94 74 44
84 66 40
86 67 42
80 62 41
85 67 39
88 71 37
86 67 41
88 68 43
89 70 41
82 64 38
85 67 37
95 74 45
92 73 38
90 70 43
86 67 42
88 68 43
88 69 42
86 66 43
90 72 38
98 78 44
89 69 42
91 70 44
97 76 46
92 72 44
91 70 45
91 70 48
91 70 44
91 71 41
99 77 48
94 74 43
93 72 46
92 72 45
93 73 40
98 78 43
95 75 44
85 66 41
87 69 40
102 79 48
101 81 43
106 85 44
99 78 45
95 74 47
105 83 47
89 71 40
91 71 42
101 80 46
104 83 45
94 73 44
106 84 46
99 79 43
96 76 43
98 78 43
97 76 46
99 78 45
100 79 43
104 82 45
108 86 47
98 76 49
103 80 50
100 79 44
104 82 46
104 82 49
92 72 43
105 83 47
107 84 49
103 82 45
103 81 47
103 81 47
106 83 49
105 84 44
109 87 46
104 83 44
107 85 47
102 80 47
105 83 46
109 86 49
110 88 45
111 87 52
108 86 46
113 89 52
109 86 50
113 91 48
107 84 49
106 83 50
110 87 48
106 84 47
111 89 47
109 85 51
105 82 50
111 88 50
112 89 47
109 86 50
110 87 49
113 90 48
108 87 44
113 89 49
109 86 48
111 87 51
108 86 47
109 86 49
109 87 46
112 89 48
115 91 51
109 85 51
109 86 49
107 84 50
110 88 45
114 90 50
106 84 48
110 87 49
104 81 49
115 92 48
111 88 49
111 89 44
115 92 51
107 85 46
115 91 53
114 90 52
112 90 48
116 92 52
112 90 46
111 87 51
114 91 48
109 85 52
116 92 52
112 89 49
112 88 51
111 88 48
117 93 48
116 93 50
116 92 50
118 95 50
116 92 49
113 88 53
116 93 49
117 93 51
114 90 50
117 93 51
117 94 50
116 93 49
112 88 52
123 98 52
114 91 51
118 93 53
121 97 50
111 88 51
112 88 52
114 90 52
114 89 54
114 89 55
115 91 51
111 89 48
119 95 50
117 93 50
113 90 49
119 95 51
119 95 50
118 95 48
119 95 52
118 94 51
119 94 52
117 93 51
120 94 55
121 97 48
121 96 53
115 90 54
114 91 49
118 94 49
115 90 53
119 96 49
109 86 49
116 91 53
115 91 51
117 94 49
113 90 47
107 84 51
116 91 52
112 88 52
116 91 54
116 93 50
116 92 53
115 92 49
114 91 49
115 92 49
112 88 51
117 93 51
116 93 50
117 93 50
117 93 51
119 94 53
113 88 52
117 94 49
111 88 50
110 87 50
116 93 48
114 90 51
115 91 51
115 91 51
113 88 52
110 87 51
116 93 48
112 88 51
119 96 49
116 92 51
113 89 52
114 90 51
115 91 49
109 86 49
113 89 51
114 91 49
118 94 50
116 91 55
113 90 49
110 86 51
111 88 50
113 89 49
115 90 54
114 92 46
114 90 51
107 84 48
108 87 45
108 84 51
109 86 48
107 83 51
111 89 45
111 88 49
117 94 50
110 87 50
113 89 50
110 87 49
113 90 49
113 89 51
107 86 45
108 85 49
110 87 49
112 90 47
109 87 48
113 91 45
109 86 48
105 84 44
104 82 47
105 84 46
105 83 46
107 84 50
110 88 46
104 82 48
112 90 46
108 85 49
112 91 44
112 89 49
101 79 47
111 88 50
109 87 48
100 79 45
102 80 47
110 87 48
105 83 47
110 87 48
108 86 47
106 82 50
104 83 44
102 79 50
103 81 46
101 79 48
103 81 47
103 81 48
102 79 50
100 79 46
102 79 48
101 80 46
99 78 45
108 87 44
107 84 52
95 74 44
97 77 44
99 78 47
100 79 47
99 78 45
99 77 46
104 82 46
95 74 47
96 75 47
98 77 44
102 81 45
100 79 43
103 81 47
94 74 42
96 75 44
95 75 44
94 74 42
98 77 44
94 73 44
97 76 47
100 80 43
102 79 49
89 69 42
98 77 46
98 75 49
93 73 42
97 76 44
87 69 40
93 73 42
93 73 42
96 75 45
88 68 43
94 75 40
84 65 42
95 74 45
92 71 46
89 70 43
91 70 45
82 64 39
90 70 44
87 68 43
88 69 43
90 69 47
81 63 41
88 67 45
86 66 43
92 72 44
98 77 45
90 70 41
92 72 43
84 65 41
88 69 41
79 62 39
88 67 45
82 64 41
85 66 41
89 69 44
85 66 42
87 68 41
77 60 38
83 63 43
81 61 44
77 59 38
78 59 42
84 65 44
99 78 45
85 66 44
86 67 41
86 67 42
89 70 40
85 66 44
88 68 44
84 65 41
85 66 41
83 64 41
80 61 40
76 59 39
79 60 42
82 63 41
79 61 39
80 62 40
79 60 43
81 63 39
88 68 45
79 61 38
78 59 41
83 64 41
82 64 38
81 63 41
85 66 41
82 62 43
80 62 39
76 59 38
82 63 40
77 59 39
81 63 38
85 67 39
84 66 39
86 67 40
83 64 39
83 64 42
83 64 42
82 63 42
88 69 41
91 69 47
71 53 40
80 62 40
84 64 43
78 60 39
81 63 40
78 60 41
82 63 40
91 71 42
88 68 45
86 66 42
87 68 43
74 58 36
85 66 41
83 65 39
84 66 41
81 62 40
82 64 38
81 61 45
86 67 43
75 59 35
89 69 42
78 60 37
83 65 40
91 71 45
85 65 44
80 62 40
87 67 43
93 73 45
96 75 46
85 66 42
82 63 43
93 72 44
95 74 46
88 68 42
94 74 43
86 66 43
90 70 42
92 72 45
94 74 44
92 71 46
92 72 41
88 69 40
86 66 43
93 72 45
94 73 46
87 67 45
94 74 45
85 66 42
89 70 42
97 74 49
95 74 45
95 74 45
89 69 43
90 72 38
94 75 42
98 77 47
95 75 42
90 70 43
96 74 47
96 77 41
97 76 46
99 78 45
100 79 45
96 76 44
98 77 45
91 71 42
97 76 45
107 83 51
104 82 47
104 82 47
102 80 46
100 78 48
91 71 44
97 76 45
101 80 46
105 82 50
102 81 45
107 85 47
102 81 45
101 79 48
98 78 43
104 83 43
98 78 42
109 87 46
106 84 48
99 77 46
107 85 46
101 78 49
103 80 48
105 82 50
107 86 45
99 78 45
103 81 48
106 83 50
107 85 46
106 83 48
104 83 45
102 81 45
110 88 47
106 83 49
107 85 45
111 89 46
108 84 50
109 87 45
108 87 46
111 88 48
113 90 51
108 86 47
108 86 47
106 85 46
109 86 50
109 86 51
111 87 51
108 86 47
114 90 52
111 88 48
109 87 48
112 89 48
113 91 46
115 92 48
109 87 48
111 89 47
107 85 46
106 83 50
111 89 46
111 88 48
112 89 49
107 87 42
107 85 48
112 89 49
110 88 47
108 86 47
117 93 50
116 93 47
116 93 48
111 88 49
108 85 50
115 92 47
115 91 50
109 87 47
113 90 49
116 92 51
114 92 45
112 87 52
109 86 49
115 91 50
116 93 49
114 90 51
116 92 52
115 91 51
107 84 51
118 94 50
115 92 48
116 94 47
112 89 49
117 92 52
118 94 51
117 93 54
122 98 49
113 90 48
111 87 51
118 94 49
113 88 53
116 92 50
116 93 48
119 96 48
114 91 51
116 93 48
117 93 49
121 98 47
116 93 50
117 92 52
119 95 50
118 94 50
118 94 52
117 93 51
112 88 51
119 95 51
122 98 49
121 96 54
118 94 51
114 90 51
118 94 51
117 93 51
117 93 52
114 90 51
120 97 48
116 91 53
113 90 51
111 88 48
117 92 53
112 87 54
114 90 53
116 92 51
112 89 49
112 88 51
120 96 52
111 88 49
116 92 51
117 94 47
117 93 51
115 92 49
118 93 53
114 90 51
121 98 46
114 91 49
113 90 47
115 91 51
114 91 48
115 92 49
117 92 53
117 93 50
117 95 45
113 90 51
117 93 51
117 93 51
118 94 49
114 89 53
114 91 50
110 88 46
115 91 51
119 95 51
113 91 47
113 90 48
105 82 50
112 88 52
119 96 47
114 89 52
115 91 52
114 90 53
115 93 47
113 89 50
110 86 53
115 91 52
116 93 48
109 86 48
107 83 51
115 91 52
113 90 48
114 89 53
114 91 50
112 89 47
113 90 50
107 84 50
113 90 48
105 84 46
111 87 52
114 91 48
109 87 48
113 90 47
114 91 48
108 85 50
108 85 50
110 87 48
112 90 46
112 88 50
103 81 47
112 90 45
105 83 47
107 84 50
104 82 46
108 85 49
108 85 50
107 84 50
109 86 49
107 83 50
107 85 47
106 84 46
110 88 47
111 88 47
106 83 49
106 83 48
108 86 45
97 77 44
105 82 48
107 85 47
105 85 43
106 84 47
106 85 43
110 87 48
102 80 48
104 82 47
106 84 46
102 80 48
99 78 46
106 83 48
105 82 50
107 84 49
97 76 45
102 80 48
96 76 43
100 79 44
101 79 47
97 76 46
91 70 45
99 79 43
101 79 46
93 74 40
94 73 46
102 81 46
98 78 44
104 82 47
100 79 43
104 82 49
92 72 43
90 71 41
96 75 43
98 78 42
94 73 44
94 73 47
103 81 49
103 81 47
96 75 44
93 73 43
95 74 45
95 75 44
105 81 51
90 70 44
103 80 49
90 70 44
97 75 47
92 72 44
100 78 48
94 74 43
98 77 43
100 80 41
103 81 47
91 70 46
94 74 44
88 69 39
96 75 44
93 72 45
86 67 42
94 74 44
89 70 41
97 76 47
93 72 47
91 71 45
86 66 43
88 70 40
89 69 42
86 67 42
87 68 41
90 71 42
88 69 42
88 67 45
92 73 41
94 74 44
88 69 41
85 65 43
82 65 37
91 72 41
96 74 47
83 65 40
85 67 38
89 69 44
84 66 41
84 65 40
87 67 44
90 70 43
82 64 39
92 71 44
91 71 43
82 63 42
85 67 38
86 66 44
71 55 35
89 70 42
87 68 43
80 62 40
80 61 41
86 66 44
88 69 43
82 64 40
85 66 43
83 64 40
78 61 38
86 66 43
79 62 37
80 62 39
82 63 42
79 61 39
84 65 41
75 58 37
84 64 44
79 60 41
86 66 45
82 63 41
78 59 41
76 59 39
78 60 40
75 56 43
85 65 44
82 64 38
85 66 42
88 68 44
81 62 42
79 62 38
82 63 41
85 66 41
75 58 38
75 58 39
76 59 38
81 63 38
90 69 46
88 69 41
79 59 43
76 58 41
85 66 40
85 66 42
84 65 40
85 65 43
88 69 43
91 71 44
83 64 42
82 64 41
84 65 43
98 76 46
97 75 47
88 68 43
94 74 42
93 74 40
85 65 43
92 72 43
91 72 41
80 61 43
82 63 42
86 66 42
92 71 45
89 68 46
85 66 42
85 65 43
87 66 45
91 70 44
93 72 44
92 72 42
87 68 41
85 66 42
93 73 42
94 75 40
93 72 45
94 73 44
88 68 42
103 81 45
95 74 46
89 69 44
90 70 43
100 78 47
98 76 46
93 73 45
93 73 41
99 78 46
96 75 45
91 72 41
95 75 42
103 80 50
99 77 46
90 71 41
97 77 43
98 77 47
90 70 44
104 82 47
98 76 47
102 82 43
101 80 47
99 78 46
98 78 44
95 74 46
98 75 52
98 76 48
105 83 49
92 71 47
103 82 45
101 78 50
100 79 46
103 81 49
97 76 46
103 81 45
107 85 48
99 78 45
96 76 43
97 77 43
95 74 47
107 85 48
105 82 48
107 84 48
108 85 49
104 82 45
106 84 46
101 79 46
105 83 46
103 81 47
101 81 44
107 86 45
104 83 44
110 89 42
106 84 47
109 85 50
110 87 49
105 82 52
106 85 45
99 76 49
114 91 51
108 85 49
109 85 52
108 84 52
100 79 43
109 87 46
106 84 47
110 88 46
109 87 46
103 80 49
109 86 48
111 88 47
111 88 49
105 83 48
109 86 49
109 87 46
112 89 49
110 87 48
112 90 47
111 87 51
114 91 48
101 79 47
111 89 47
112 88 50
110 87 48
116 91 52
115 92 48
111 89 46
113 90 50
110 87 49
110 85 54
114 92 46
114 90 50
112 89 48
110 88 48
109 87 46
114 91 49
111 87 51
114 90 49
116 93 51
118 94 52
112 89 50
113 89 50
118 94 50
110 87 49
114 91 50
111 86 53
116 92 50
114 90 51
115 90 52
113 90 51
116 92 50
114 90 52
115 91 52
117 93 50
117 93 49
114 90 50
115 92 48
116 92 51
114 91 49
112 89 47
119 94 53
119 94 52
118 94 52
116 93 48
113 88 53
117 93 51
119 94 52
117 94 49
117 93 51
118 95 48
119 96 47
113 89 51
117 92 53
116 92 51
113 89 51
117 92 52
118 94 50
117 92 54
117 93 49
112 89 48
113 90 50
116 93 46
117 93 52
116 91 54
118 95 49
118 94 50
121 97 51
116 92 51
120 96 50
119 95 50
117 92 53
118 93 52
117 92 53
119 95 51
119 95 51
120 95 53
114 90 51
118 94 52
121 96 51
114 89 54
118 93 52
112 89 49
115 90 53
114 91 46
118 93 52
115 91 52
112 89 50
113 90 49
115 92 50
116 92 51
115 93 48
122 97 53
114 90 52
115 91 52
112 89 49
113 90 50
116 92 48
115 93 46
115 91 51
116 92 52
117 93 52
112 89 49
116 93 47
114 91 49
116 91 52
115 92 50
113 90 49
119 97 47
107 85 48
108 85 51
114 90 50
114 90 53
118 95 48
117 93 51
115 91 49
110 86 51
110 88 47
110 87 50
113 90 49
107 85 49
116 92 51
114 92 48
110 87 51
107 84 50
110 87 48
116 92 51
111 89 45
118 94 51
111 87 51
109 87 46
115 92 47
108 85 48
108 85 49
110 88 44
107 85 46
106 84 48
106 85 43
111 87 53
111 87 51
107 84 48
102 80 47
107 85 46
107 85 46
108 86 47
105 84 44
106 85 44
106 85 45
108 86 48
102 81 43
112 91 44
109 86 50
108 85 49
109 86 49
112 90 45
101 78 50
106 84 48
98 76 46
102 80 45
105 83 46
100 79 44
113 89 51
101 78 49
95 75 42
99 78 43
107 82 54
100 79 44
102 81 46
104 81 49
106 84 46
108 85 47
107 84 51
101 80 45
103 82 44
103 81 47
102 81 46
102 81 46
104 83 43
99 78 45
99 77 46
100 78 48
101 81 42
98 76 48
100 80 42
102 80 45
103 81 46
100 78 47
97 74 49
97 76 43
99 78 46
104 82 46
102 80 49
98 78 43
92 73 40
101 79 47
101 80 46
92 72 43
92 72 43
100 78 49
95 75 43
90 71 43
98 76 46
92 72 43
97 75 49
93 73 42
78 61 38
92 72 43
92 71 46
94 74 40
94 73 46
92 72 44
91 71 44
105 82 50
95 75 43
87 67 42
85 65 44
89 69 45
89 68 46
86 68 36
85 67 38
89 70 42
92 72 45
88 68 43
88 67 47
95 75 43
86 67 41
88 68 44
79 61 37
84 64 43
86 66 43
80 62 41
91 72 42
81 62 41
81 63 40
86 66 44
88 68 45
71 54 37
88 68 43
90 70 43
86 67 42
77 60 39
72 56 35
78 61 37
82 62 42
91 69 50
84 65 41
81 62 41
83 64 43
85 66 42
80 62 39
85 66 42
86 65 46
85 66 43
81 62 40
85 67 39
82 65 37
80 62 39
89 69 41
86 67 41
75 57 39
89 69 41
86 67 41
82 64 39
77 59 38
86 66 43
91 72 41
86 66 44
88 69 40
79 60 41
88 68 43
78 59 41
78 60 39
91 70 45
92 72 43
84 66 39
85 65 44
80 61 41
90 70 43
82 62 45
87 67 43
82 64 39
84 66 40
87 67 44
75 57 40
90 70 41
84 65 42
81 63 39
89 69 42
83 65 38
83 64 42
87 66 45
80 61 41
84 65 42
85 67 40
81 62 40
94 75 41
95 76 41
96 76 43
83 64 42
86 66 43
94 73 45
84 65 41
91 70 44
94 74 44
90 69 47
88 68 44
93 73 43
82 63 43
87 67 45
94 74 42
90 70 42
80 62 39
95 74 46
92 72 43
92 74 38
86 68 39
94 73 44
81 62 42
88 68 43
87 68 43
86 66 43
92 72 42
92 72 43
97 76 46
87 68 40
95 75 44
92 72 41
93 73 44
98 77 47
100 78 46
96 73 49
100 78 48
99 78 44
95 74 44
99 78 44
100 78 48
92 73 41
98 76 47
94 74 44
103 81 47
94 73 44
95 74 46
100 80 40
102 80 46
102 81 45
96 74 48
99 78 46
97 76 45
105 84 43
100 79 45
101 80 45
100 78 47
97 76 45
101 80 43
99 77 47
102 80 47
103 81 45
101 80 44
105 82 48
98 78 42
109 86 48
101 80 46
100 80 43
98 77 45
99 78 45
101 79 47
103 82 45
103 81 49
105 81 52
108 85 49
105 82 47
110 87 49
114 90 50
103 80 51
107 85 47
100 77 48
106 83 49
101 79 48
108 86 47
110 87 49
111 88 50
109 85 51
115 91 52
110 88 46
110 88 47
107 85 49
114 91 50
114 91 50
104 82 48
113 90 49
107 86 45
105 80 54
113 90 48
109 86 51
108 85 49
112 89 50
110 87 48
109 87 47
115 93 45
115 92 49
98 77 44
108 86 49
114 91 48
105 82 50
115 90 53
114 90 50
112 88 49
112 90 46
115 91 53
113 91 46
110 87 49
113 88 53
111 88 48
112 89 49
110 88 46
106 84 48
116 92 51
111 89 48
109 88 44
115 90 53
110 87 51
116 90 56
113 89 52
113 89 53
110 88 48
113 91 46
115 93 47
112 88 51
117 93 52
115 92 51
114 89 53
119 97 46
114 91 49
117 93 50
113 89 51
117 93 50
113 90 51
112 89 50
110 86 51
118 94 51
120 95 52
114 90 50
119 94 53
116 92 52
118 95 48
114 90 50
119 95 51
118 92 55
118 94 51
120 96 50
119 94 52
118 94 52
114 89 53
116 92 51
117 94 49
120 97 48
111 87 52
113 89 50
115 92 48
117 92 53
113 89 52
114 91 48
121 96 54
120 96 52
117 93 48
118 94 50
116 92 50
115 92 47
114 89 54
117 94 50
120 96 50
114 90 50
115 91 51
113 90 48
119 94 51
117 93 51
113 88 53
116 93 48
111 87 51
111 88 50
115 91 50
114 90 50
110 86 53
117 93 51
119 96 48
118 95 49
117 93 48
123 99 49
114 91 49
113 89 53
114 91 49
115 90 52
119 95 49
118 95 48
109 86 49
108 85 49
111 87 52
115 91 52
112 87 53
115 91 51
116 92 50
116 92 52
113 89 50
117 93 50
115 91 48
108 84 51
113 88 53
119 95 49
110 87 50
114 90 51
111 88 49
112 89 51
116 92 50
115 92 49
114 91 48
104 81 48
115 92 49
109 87 47
108 85 51
110 87 49
109 86 49
113 89 50
111 88 51
117 93 50
107 85 46
108 85 49
110 86 50
109 85 51
110 86 53
113 90 49
115 92 48
108 86 45
109 87 46
111 88 48
115 91 50
109 87 48
107 84 50
115 91 50
110 86 50
107 84 50
105 82 50
98 77 47
114 91 48
105 83 46
111 87 50
109 86 47
115 91 50
112 89 49
109 86 47
107 84 49
109 84 54
108 84 52
112 90 46
107 84 48
101 79 46
108 85 47
103 80 48
104 82 47
101 80 45
104 82 47
104 82 47
98 78 42
108 86 47
97 76 46
107 86 44
108 85 49
100 77 52
106 84 45
103 83 42
95 75 41
107 84 48
100 80 43
96 75 45
96 74 48
103 82 45
96 76 44
110 86 52
102 80 45
98 77 44
102 81 46
104 82 47
89 70 41
99 78 46
100 78 48
97 77 43
102 81 46
105 83 47
96 76 42
98 77 44
103 81 45
99 79 42
94 73 46
89 69 43
103 82 44
95 74 45
95 73 47
100 78 46
92 72 41
99 77 47
96 75 43
85 65 43
94 72 47
94 74 44
100 80 43
94 74 42
94 73 46
95 74 44
89 71 40
87 67 43
92 71 47
96 74 49
87 69 38
88 68 43
93 72 46
91 70 45
91 70 46
97 76 45
93 72 44
83 65 40
99 77 46
94 73 45
94 73 47
96 74 47
82 64 38
89 69 44
82 64 38
89 69 43
84 66 40
79 60 43
87 67 45
88 68 43
86 67 41
93 73 42
94 72 48
83 64 40
83 65 40
83 63 44
85 66 41
94 74 43
87 68 42
86 66 44
87 68 42
90 69 44
83 63 42
90 70 43
81 62 40
85 65 44
91 72 40
84 65 41
87 68 42
93 72 45
89 69 43
76 58 38
81 62 41
90 70 43
82 64 39
82 63 41
82 65 38
79 61 40
84 65 40
81 62 40
85 65 43
86 67 41
88 69 39
77 59 41
91 70 46
80 62 39
83 64 40
81 63 38
82 62 43
87 68 43
87 67 45
85 66 42
88 68 45
77 59 40
91 70 46
82 64 40
85 66 42
83 64 41
83 63 43
86 67 41
83 66 37
84 64 43
88 70 40
89 69 42
91 71 44
79 61 39
84 65 40
81 63 39
84 65 43
94 73 45
79 61 39
89 70 41
87 68 40
85 66 40
86 66 41
89 70 43
84 65 41
91 71 43
93 73 42
86 67 42
81 64 38
89 69 45
90 70 43
85 65 43
89 70 43
90 70 42
90 70 43
80 62 40
89 69 44
93 73 44
96 75 47
88 68 42
93 74 41
87 67 43
92 72 43
91 72 41
90 70 45
96 74 48
87 69 40
91 71 44
96 75 44
84 64 44
95 74 46
97 76 45
95 75 43
100 78 47
99 77 47
95 75 42
103 81 46
97 76 43
90 70 41
92 72 43
96 76 45
95 74 45
99 78 46
94 73 45
100 79 45
94 73 46
104 82 47
98 78 43
102 81 46
96 74 47
100 79 44
96 75 46
96 77 41
93 74 41
97 75 46
108 85 49
95 75 43
97 77 42
100 79 45
104 83 45
101 81 44
101 80 43
101 79 47
101 79 47
96 76 43
112 89 48
96 75 46
106 85 43
100 78 47
101 78 49
97 77 42
101 81 44
102 81 44
104 82 48
99 78 44
98 77 46
104 81 48
106 85 45
112 90 46
112 89 49
109 87 46
102 79 48
106 84 48
106 84 47
105 82 49
106 83 50
106 84 48
107 84 48
111 89 47
109 86 48
108 85 48
106 84 47
108 86 47
102 80 46
101 80 44
102 81 45
111 88 48
102 81 45
111 88 48
111 89 46
107 85 46
110 85 53
113 89 51
113 88 52
108 85 48
110 87 49
113 90 48
114 90 51
107 84 50
111 88 48
109 86 47
113 90 47
107 84 50
111 87 52
114 89 53
111 88 50
104 83 46
109 85 52
107 84 51
117 92 52
110 87 50
113 90 49
116 93 49
116 92 50
118 93 52
115 91 51
113 89 49
116 92 51
109 86 51
116 93 49
116 91 52
112 89 49
110 85 55
113 90 47
113 88 54
112 89 49
113 90 50
113 90 48
112 88 52
110 88 47
113 88 55
114 90 51
116 92 51
114 91 49
110 87 50
111 89 46
119 95 53
115 92 48
110 87 50
115 92 49
119 96 50
112 88 51
118 95 49
119 94 53
113 89 50
118 92 57
115 91 50
115 91 52
115 91 53
119 94 51
115 91 49
116 92 50
116 93 49
107 84 51
118 95 49
119 93 57
117 92 54
117 93 50
118 94 51
119 94 51
120 95 51
119 95 51
115 91 51
118 93 53
114 90 52
116 92 51
115 90 56
115 91 50
117 93 49
121 96 53
121 96 51
120 95 52
116 92 51
117 93 52
119 95 50
114 90 50
113 90 48
111 88 49
112 87 54
116 93 50
112 88 50
117 93 50
118 94 50
117 93 50
115 89 56
112 88 52
117 92 53
122 99 46
119 96 48
115 92 49
113 90 50
116 93 47
109 86 49
108 86 46
112 88 50
117 93 51
109 86 49
114 90 52
116 92 50
116 92 50
117 93 50
117 94 48
114 91 49
118 94 50
114 92 46
110 86 49
109 86 51
116 93 48
118 95 48
115 90 53
114 90 51
110 87 49
112 89 50
110 85 54
120 97 47
111 88 50
110 87 49
113 90 49
113 91 47
115 91 51
106 83 49
117 93 50
110 87 49
114 91 48
108 85 49
106 82 52
112 87 56
104 82 45
117 94 48
109 87 45
110 87 50
107 85 46
106 84 46
106 84 48
117 94 49
108 85 47
109 87 47
109 87 47
109 86 51
101 79 47
107 84 49
100 79 44
109 86 50
115 91 50
109 86 49
114 91 48
109 85 52
100 78 47
108 84 52
105 84 46
105 83 47
109 87 45
103 81 47
107 84 48
110 89 45
106 83 50
110 87 48
104 81 48
112 88 49
109 87 46
98 76 48
100 80 43
99 77 45
105 84 44
98 76 49
99 78 44
106 83 48
105 83 48
95 75 42
108 87 44
96 75 48
104 82 45
101 79 46
98 77 44
96 74 47
105 83 48
105 83 47
100 78 48
102 82 44
101 79 47
107 85 47
106 84 46
98 76 49
99 78 45
103 83 42
95 76 39
95 75 45
90 69 46
92 72 44
93 72 47
100 79 47
105 84 45
102 80 48
98 77 45
92 72 44
91 72 42
103 82 45
94 74 43
100 78 47
95 75 43
94 73 46
94 73 46
98 77 45
93 73 44
93 72 47
95 74 44
92 71 45
93 73 43
89 70 42
92 70 47
88 69 40
90 70 43
90 70 42
84 65 40
101 79 46
94 73 45
91 70 45
90 71 41
94 74 44
89 69 44
82 63 41
92 71 46
91 70 45
83 64 42
83 65 39
93 72 44
86 67 44
89 70 42
88 68 45
90 69 46
89 69 43
86 67 42
92 73 40
91 71 45
93 72 44
86 66 43
80 62 41
90 71 42
86 66 45
84 64 44
85 66 42
87 67 43
84 64 42
86 66 45
85 67 39
84 66 40
94 73 44
76 58 39
90 70 43
84 66 39
85 66 43
96 75 45
80 63 37
93 72 46
88 68 43
84 63 45
88 69 42
84 64 43
94 73 46
87 68 41
87 68 41
90 70 43
82 63 42
85 66 42
80 62 37
80 62 40
82 63 41
87 67 42
84 66 40
88 68 44
82 63 42
91 71 43
86 67 40
84 65 40
82 63 42
92 72 44
88 68 44
96 75 45
84 65 41
91 71 44
86 67 43
92 70 47
82 64 38
82 64 40
89 68 46
83 63 42
84 65 40
84 65 41
84 64 43
78 60 40
91 70 46
89 70 40
89 69 44
82 62 45
84 65 42
88 69 42
89 69 45
91 70 47
85 67 40
89 70 39
88 70 39
95 75 42
84 64 42
88 69 41
90 69 44
94 74 43
101 78 50
90 71 42
93 72 47
95 74 43
89 70 40
92 71 46
92 72 45
89 69 43
89 69 43
101 79 47
90 70 43
93 73 43
89 71 38
93 72 46
100 79 45
90 69 46
90 71 39
95 75 42
92 73 42
90 70 44
100 79 44
98 77 44
96 75 46
93 72 44
89 69 44
97 75 47
104 81 49
100 80 43
93 72 45
102 81 45
100 79 45
98 76 47
100 79 46
98 78 43
90 70 44
102 81 46
100 79 46
104 83 45
92 71 46
101 80 45
109 86 50
94 75 41
101 79 48
106 83 49
103 82 44
97 76 46
101 79 46
101 80 45
106 82 51
103 82 47
97 78 40
99 77 47
101 79 48
112 89 48
100 77 49
109 86 49
97 76 44
112 89 48
103 81 47
103 80 50
111 89 46
107 85 46
100 80 43
105 83 48
96 76 42
110 88 46
106 83 49
108 87 45
104 83 45
102 81 45
105 83 48
106 85 45
110 88 45
109 87 46
103 81 48
108 86 46
106 84 48
105 83 45
110 88 47
118 95 48
112 89 49
110 86 50
114 91 49
109 86 47
116 93 48
112 90 47
108 85 49
112 88 53
109 86 49
111 89 46
110 88 48
107 85 48
113 89 52
115 91 50
109 85 51
111 87 50
117 93 50
114 92 46
110 87 47
113 90 46
109 86 51
110 88 45
114 90 51
112 90 47
108 86 47
111 88 49
116 91 52
110 87 51
109 87 46
115 92 49
119 96 49
114 91 48
109 85 50
116 93 47
114 90 50
116 93 50
114 90 51
112 89 50
114 91 50
119 95 52
112 90 47
108 85 48
115 91 53
113 88 55
108 85 49
114 90 49
119 96 48
118 94 50
113 89 50
119 95 50
116 92 50
108 85 49
114 90 51
113 88 56
112 88 52
119 95 51
112 89 50
116 92 51
113 89 52
117 94 47
117 92 54
115 91 51
115 92 49
114 89 53
116 93 49
113 89 51
116 91 54
114 90 52
117 93 52
115 90 52
115 92 49
118 94 50
119 95 50
119 94 53
117 93 50
119 95 50
116 91 55
115 92 49
120 95 53
117 94 50
115 92 48
116 91 54
116 92 53
119 96 48
119 97 46
112 89 50
116 92 52
116 91 54
119 96 49
121 97 50
112 88 53
119 95 49
115 90 52
115 91 52
118 94 49
118 94 52
112 89 49
110 87 50
114 91 48
114 92 47
112 89 50
111 88 51
118 94 52
113 89 50
112 90 47
114 89 53
113 89 50
117 92 52
114 92 47
110 87 51
110 87 50
117 94 46
114 91 50
112 88 51
115 91 51
115 91 50
117 93 48
113 90 48
110 87 50
113 89 49
114 90 51
112 88 50
114 91 48
112 89 48
115 91 52
111 89 47
115 90 54
113 89 50
111 88 47
106 83 48
111 87 51
114 91 48
112 90 45
109 86 49
114 90 50
112 89 50
107 85 49
111 87 52
109 86 49
113 89 49
109 86 49
108 86 46
107 84 48
109 87 45
112 89 51
106 83 49
105 83 47
103 81 48
110 87 49
107 84 51
114 90 50
106 83 50
106 84 47
106 84 47
112 87 54
112 90 48
111 87 51
111 88 49
92 72 43
102 80 49
111 88 50
106 84 48
103 81 46
106 84 47
113 90 48
104 82 49
109 86 50
105 83 46
108 87 43
109 85 52
111 87 51
106 83 50
105 83 46
108 84 50
103 79 53
107 84 48
100 78 47
104 83 45
100 79 46
98 76 47
101 79 47
104 82 47
108 86 47
102 80 46
98 77 45
103 81 48
102 80 47
110 87 49
97 76 44
102 80 48
104 82 46
101 80 46
101 80 45
102 80 46
101 79 46
93 72 46
100 78 49
92 72 41
102 80 46
88 69 38
104 82 45
91 72 42
94 75 40
97 75 48
89 70 41
100 80 43
92 71 45
95 74 45
100 80 44
88 69 42
99 78 46
98 77 44
93 72 46
93 72 48
96 75 43
94 74 44
92 73 42
97 77 44
94 74 43
100 78 46
89 70 42
95 74 45
97 75 48
86 66 43
96 75 45
95 73 48
90 70 44
95 74 45
90 71 41
95 74 45
89 68 44
90 70 43
96 75 47
93 73 42
83 63 43
94 73 46
92 73 41
89 69 42
88 69 42
86 66 42
86 65 46
92 73 40
91 71 41
86 66 43
90 70 44
83 63 43
90 70 42
89 68 44
86 66 44
95 74 44
95 74 47
84 66 39
83 65 40
84 65 42
84 64 42
84 64 44
95 75 43
83 64 43
88 68 42
85 66 43
96 75 45
91 71 43
76 59 37
88 69 41
84 65 42
92 71 44
90 70 43
84 66 38
83 65 38
87 68 42
88 68 43
85 66 41
85 66 42
87 69 40
91 70 46
74 56 40
88 68 45
89 69 43
89 68 45
95 73 48
91 69 48
86 68 39
89 70 43
90 69 47
78 60 40
85 65 45
84 66 38
83 65 39
81 63 40
82 63 41
89 68 46
83 64 41
82 64 40
88 68 43
90 71 43
91 70 45
90 69 46
88 68 45
81 62 43
87 68 40
83 66 38
88 68 43
81 63 40
85 65 43
87 68 42
89 69 44
88 68 42
82 65 37
94 74 44
82 62 45
94 73 45
89 70 42
89 69 44
91 72 41
89 70 43
86 66 43
88 68 42
89 70 42
86 67 41
88 68 43
86 67 42
96 75 44
96 76 43
102 80 47
92 72 44
97 75 49
88 68 43
93 73 45
101 80 45
87 69 38
92 72 44
101 79 46
90 70 44
103 79 51
95 75 43
96 75 46
96 76 43
106 84 47
96 76 42
94 74 42
95 75 42
100 78 45
94 74 43
89 70 42
101 81 44
94 73 47
98 77 46
96 75 44
91 72 39
101 79 46
105 83 49
99 77 47
102 82 41
99 78 47
99 78 46
98 77 46
101 80 45
96 76 42
102 80 47
109 86 46
95 75 44
94 73 44
96 75 46
105 82 48
101 80 43
101 79 48
103 80 49
106 84 46
96 76 43
98 78 43
101 79 48
99 78 47
105 82 50
108 85 50
93 74 40
102 81 44
101 80 44
107 84 48
104 81 49
104 81 50
102 81 45
99 79 43
109 86 49
107 85 47
101 80 43
108 86 47
106 84 47
110 88 49
108 86 46
102 80 46
103 81 47
112 88 51
108 85 49
107 85 48
108 86 47
113 90 47
106 83 49
107 84 49
113 90 47
104 82 47
115 91 52
111 88 48
109 86 49
111 88 50
106 83 49
113 90 49
108 86 47
106 83 51
116 92 53
116 93 46
105 83 45
112 89 48
115 91 52
116 93 48
111 87 51
107 85 47
110 88 47
110 87 47
109 87 46
107 85 49
107 84 49
118 95 49
114 90 51
110 88 46
107 84 48
112 88 53
115 90 52
112 89 50
109 86 49
111 89 47
117 92 52
117 93 51
112 89 48
113 89 51
114 90 53
108 86 47
114 91 49
112 88 51
114 91 49
114 90 51
118 94 51
111 89 46
115 92 49
111 88 51
117 93 51
116 93 47
114 90 51
119 94 51
113 90 48
115 91 49
116 93 49
117 93 51
112 88 52
113 89 51
110 85 54
119 95 51
117 92 55
113 89 50
120 96 50
115 92 49
120 95 52
114 91 48
120 96 51
114 90 51
117 92 52
113 89 49
117 93 51
123 99 48
116 91 53
117 94 49
118 92 55
120 96 51
118 94 51
121 96 54
115 90 54
118 94 50
116 92 51
112 88 51
115 92 48
117 93 53
109 86 48
116 93 49
112 89 49
117 92 53
118 93 53
115 90 54
116 92 51
115 91 50
112 89 49
120 96 49
113 90 50
113 89 51
116 92 50
114 89 53
112 89 48
117 92 54
119 96 48
113 89 52
115 91 51
113 90 46
112 90 47
116 92 49
116 93 48
109 85 52
120 97 49
110 87 50
116 92 51
116 91 52
114 90 51
115 91 51
112 89 49
112 89 50
118 94 50
110 87 49
115 91 51
112 87 53
114 91 50
114 90 50
115 92 48
117 92 53
115 92 48
111 87 50
115 91 50
114 90 50
115 92 48
116 93 48
111 88 49
111 87 52
115 92 49
109 85 50
107 84 50
106 83 49
112 88 51
112 90 45
111 87 52
114 90 51
105 83 46
113 89 49
110 87 48
112 89 50
113 90 48
110 88 45
113 90 48
107 85 48
112 89 49
108 85 49
113 90 48
114 90 50
113 89 53
107 85 46
115 92 49
110 87 48
113 91 46
107 84 51
108 85 50
102 80 47
103 81 48
113 89 52
109 87 48
100 78 46
111 87 50
103 82 45
108 86 46
101 79 48
108 85 49
105 84 45
111 87 50
108 87 44
111 88 49
98 77 48
103 81 46
108 85 48
107 84 47
99 78 44
107 85 47
99 78 45
95 74 44
97 77 43
108 85 49
106 84 47
107 84 48
98 76 47
100 80 43
106 84 48
97 77 42
101 80 46
107 85 45
106 84 48
99 79 44
111 90 44
89 69 44
103 82 45
99 77 46
96 75 47
92 72 42
100 79 44
107 85 46
102 80 46
107 85 47
92 72 45
96 75 44
100 79 45
103 82 46
98 77 45
94 75 41
95 75 44
94 74 42
95 73 48
102 81 47
101 80 45
91 71 44
90 70 44
95 75 44
89 69 44
96 74 47
104 81 49
101 80 45
96 75 47
89 70 41
92 72 43
92 73 41
93 73 41
90 71 42
99 78 44
91 70 46
95 74 46
95 74 44
92 72 42
93 73 43
101 79 48
91 72 41
88 69 42
92 73 41
95 73 46
87 68 41
90 70 44
85 66 43
89 70 42
88 68 42
90 70 44
97 76 45
97 76 45
96 75 44
90 70 43
85 66 39
84 65 43
84 66 40
86 68 39
87 68 43
88 69 41
89 70 41
80 62 41
84 65 41
89 68 46
87 69 37
83 65 39
90 71 42
87 67 42
87 68 41
86 67 40
88 68 44
88 69 41
86 67 42
83 64 42
87 67 44
82 65 37
82 64 40
90 70 45
86 67 41
90 69 45
89 70 41
91 69 47
83 65 39
79 62 37
89 69 43
83 64 42
88 67 47
89 70 42
86 65 45
83 65 40
84 66 39
88 69 41
93 73 43
74 56 38
80 62 39
87 66 45
92 70 48
88 69 41
85 65 44
86 66 44
89 69 44
94 73 46
83 65 38
88 68 43
83 64 42
93 72 46
84 66 40
86 67 41
93 71 47
82 63 43
90 70 42
88 69 43
91 71 42
87 69 39
87 68 42
87 68 41
86 66 44
84 66 39
86 68 40
98 76 48
101 80 46
84 66 39
98 79 41
88 67 45
89 69 44
93 72 46
91 70 48
87 67 44
94 73 45
87 67 44
91 72 41
90 70 42
90 70 42
93 73 46
90 70 43
94 74 45
91 72 41
90 69 45
94 73 45
95 74 45
98 77 45
83 65 38
96 75 43
104 83 45
89 69 43
99 77 49
97 76 45
92 72 44
95 75 44
93 73 44
89 70 42
105 82 50
95 74 46
92 72 44
90 69 44
104 81 48
100 80 44
100 78 48
102 81 46
105 83 47
99 78 44
106 84 46
95 74 46
101 79 46
100 79 44
96 76 41
99 79 42
103 81 46
107 84 50
102 81 44
107 85 48
97 77 41
105 82 51
102 80 47
95 74 44
105 83 45
104 82 45
103 81 46
105 82 48
105 83 47
91 71 43
102 81 45
102 79 51
104 84 44
108 86 46
106 84 46
99 77 47
102 80 47
94 73 47
104 81 49
106 83 49
106 84 47
109 86 48
107 85 45
112 88 50
107 85 47
102 80 49
109 87 46
112 89 48
103 80 49
104 82 47
108 85 50
108 86 49
106 85 45
105 82 49
112 89 49
107 84 49
107 84 49
112 90 45
110 87 49
106 83 49
115 91 51
105 83 48
110 87 51
112 89 49
117 93 51
113 90 48
110 87 48
107 85 46
116 93 49
110 87 50
105 82 49
113 89 50
111 86 53
110 86 51
118 94 52
112 89 50
113 90 48
107 84 49
103 81 48
108 86 46
108 86 47
115 90 53
116 92 50
113 90 47
118 94 50
114 91 48
111 87 51
112 88 51
111 89 47
109 86 48
110 87 48
118 94 51
117 93 50
111 88 48
112 89 49
112 88 52
113 90 47
111 88 48
117 93 50
110 87 47
111 88 48
111 88 50
110 86 51
116 93 49
117 95 47
111 88 51
111 88 47
119 96 48
115 91 52
116 91 54
116 92 51
116 92 50
113 89 51
110 88 48
118 94 51
116 91 52
114 92 48
118 93 52
118 94 48
115 90 53
113 89 54
114 89 53
118 95 48
121 96 52
115 91 51
112 87 53
123 99 50
121 97 49
116 92 51
118 94 50
114 90 52
117 94 48
120 96 52
115 91 51
119 94 53
118 94 52
114 90 51
121 96 52
116 91 52
114 90 51
115 91 52
116 93 48
116 93 50
117 93 51
113 89 51
116 92 49
117 93 51
115 92 50
115 90 52
117 94 49
116 92 51
113 89 52
113 90 50
118 95 45
115 93 46
119 95 49
116 92 52
114 90 52
114 89 53
114 89 54
114 91 48
118 94 50
113 90 49
115 92 47
114 90 52
113 90 48
114 90 52
110 87 49
117 93 51
116 93 47
110 87 51
118 94 51
119 95 50
114 91 50
116 92 52
117 94 48
115 90 52
107 84 48
109 86 49
112 88 53
116 91 53
118 95 47
116 92 52
111 87 51
111 87 52
113 90 49
112 89 49
111 87 52
107 84 50
114 92 48
112 90 47
110 88 48
106 84 48
115 91 51
111 89 48
107 84 49
113 90 48
109 85 51
108 85 49
113 90 50
108 86 46
110 87 49
108 85 49
110 88 47
110 85 54
107 82 53
106 84 47
114 92 46
108 85 50
103 82 44
105 82 51
111 87 51
108 86 46
108 87 43
110 87 48
104 81 50
110 87 49
112 89 49
111 88 49
109 88 44
109 88 45
111 88 50
111 88 48
103 81 47
109 87 45
106 83 49
110 87 50
108 87 45
110 89 44
96 75 46
105 83 46
105 83 47
103 81 48
107 86 45
106 81 53
109 86 48
97 77 42
107 85 47
100 79 45
105 83 46
104 83 44
96 76 42
109 86 48
101 80 46
105 82 50
108 87 45
100 79 44
103 80 49
98 78 43
102 81 47
100 78 49
97 77 42
100 79 43
93 72 47
91 71 43
96 76 43
106 83 50
93 74 42
98 77 46
94 74 41
96 74 48
99 78 46
89 69 42
97 77 43
86 66 44
93 72 45
100 80 44
98 77 44
91 71 45
97 78 40
94 74 43
99 76 51
92 71 45
97 75 48
98 77 45
95 73 46
96 75 44
94 74 43
94 75 41
99 77 46
94 75 42
94 73 44
92 72 44
91 72 41
91 70 44
85 65 43
97 76 45
91 71 44
94 75 40
91 71 44
90 71 42
95 74 47
90 71 42
93 72 46
85 66 40
90 70 42
86 67 41
91 71 45
91 71 45
93 73 41
90 70 41
83 63 44
84 65 40
89 69 44
93 72 45
91 72 41
86 68 37
88 69 41
76 58 39
83 63 43
81 62 41
88 69 41
84 64 43
88 68 45
82 64 37
93 73 44
81 64 37
81 63 39
90 70 45
86 67 42
88 69 41
88 69 40
91 71 45
87 68 42
88 69 41
77 59 40
81 63 40
84 66 38
93 72 46
86 66 42
90 71 40
90 70 43
87 67 42
79 62 38
82 63 42
82 62 44
93 73 45
81 63 39
77 60 38
85 66 43
87 67 44
81 63 40
91 71 43
75 58 38
88 68 43
94 73 46
85 65 42
91 71 43
85 66 41
85 66 41
85 67 39
89 68 46
94 74 41
84 65 42
86 67 41
85 67 38
87 68 40
104 82 48
89 70 42
92 72 42
90 71 43
85 66 42
90 70 44
91 71 44
83 65 39
86 67 43
91 70 45
84 65 42
93 73 42
95 75 43
87 68 43
93 72 46
84 65 42
99 78 44
85 66 42
87 68 41
93 72 44
91 70 44
91 71 41
96 74 48
96 75 46
99 78 45
88 69 41
100 78 48
89 69 42
101 79 47
93 73 40
92 72 42
93 72 47
91 71 44
93 73 41
93 71 49
97 76 45
96 76 42
94 73 46
90 69 45
97 77 43
104 82 47
99 77 46
87 67 45
97 76 44
97 76 44
93 72 45
103 80 52
99 78 47
97 75 47
89 70 40
93 73 42
99 78 44
89 68 46
106 83 50
93 73 42
100 79 45
96 76 44
97 75 46
102 80 47
99 77 47
98 76 47
100 79 44
99 79 43
96 75 46
102 80 47
106 83 50
102 81 44
103 80 49
108 86 46
102 79 49
104 82 47
103 81 47
108 86 47
105 83 47
109 87 47
105 84 46
110 87 49
102 80 46
104 82 49
101 79 45
111 88 48
105 83 48
98 77 45
96 76 43
97 77 44
109 86 48
104 82 47
104 82 47
99 78 45
106 83 48
104 83 45
104 80 52
101 79 49
107 84 48
105 83 47
110 88 47
112 89 47
107 87 42
107 85 46
103 80 52
100 79 45
106 84 48
96 74 48
105 84 45
110 87 51
100 78 48
104 80 51
111 88 48
111 87 51
104 82 46
111 89 47
110 87 47
113 89 50
110 88 46
109 86 49
117 93 51
113 89 53
111 88 47
115 92 50
109 86 48
113 89 49
107 84 50
115 91 51
106 83 48
114 90 50
113 89 52
114 91 49
113 90 51
114 91 48
113 90 49
111 88 49
118 94 51
115 91 50
110 88 46
117 93 50
112 89 49
111 88 50
119 95 49
113 90 48
110 87 49
111 88 49
114 92 46
114 89 52
113 90 47
113 90 47
116 92 50
115 91 52
116 91 54
114 90 50
115 92 50
116 92 52
115 92 49
113 90 50
115 92 49
111 88 50
117 93 50
114 91 49
118 93 54
114 91 49
114 90 51
114 90 51
116 92 52
119 95 52
118 94 48
113 89 51
117 93 52
112 88 51
114 90 51
113 91 46
119 94 54
117 94 50
118 94 50
118 93 51
117 93 52
117 94 49
116 92 52
118 93 51
119 95 52
113 90 49
117 93 52
112 88 51
113 90 51
116 91 52
118 93 53
111 88 49
114 88 56
111 87 50
116 91 51
115 91 51
112 87 54
111 87 53
114 89 53
115 92 50
114 90 51
117 93 50
114 90 51
114 90 52
115 92 47
115 91 50
118 95 49
114 91 48
117 93 51
117 94 49
117 94 48
112 88 52
111 88 50
109 87 46
117 92 52
115 91 51
113 90 49
114 90 51
115 92 48
118 94 50
109 87 46
108 86 46
113 90 47
111 89 45
111 89 44
112 89 50
113 89 49
111 87 54
117 94 48
109 87 47
110 87 48
107 85 45
115 93 47
109 87 46
113 89 51
116 93 48
113 91 47
115 91 50
113 89 50
111 88 50
111 88 50
113 90 49
108 86 46
115 93 47
107 85 47
114 91 47
112 90 46
111 87 53
113 90 50
110 88 45
116 92 51
113 91 47
112 88 51
114 91 49
111 89 48
119 97 46
104 81 50
107 85 48
107 85 48
113 90 49
110 87 49
106 83 47
109 87 47
106 83 50
107 85 48
109 86 51
106 84 49
106 83 48
107 84 50
105 83 47
109 88 45
111 89 46
107 84 49
105 83 47
107 84 50
106 85 46
110 87 50
106 84 45
105 83 45
106 85 44
105 83 45
108 86 47
108 86 46
107 84 51
100 79 45
98 77 45
103 81 46
101 79 46
114 91 47
106 83 49
97 76 45
100 79 47
97 76 46
101 80 45
100 77 50
105 84 46
102 82 43
104 82 46
92 72 45
101 78 50
100 79 45
101 79 48
97 75 47
100 77 48
95 73 47
102 79 51
98 76 48
103 80 48
93 74 42
99 76 50
96 75 47
105 83 45
96 76 43
95 75 45
100 78 46
93 73 42
96 75 45
95 74 46
96 75 44
96 75 46
92 72 42
99 77 47
98 78 43
98 77 45
93 74 42
90 71 42
105 82 50
93 72 45
93 74 40
99 77 48
82 64 40
98 78 43
97 77 43
84 65 43
95 76 42
96 75 45
91 71 43
98 77 44
94 74 43
100 78 46
100 79 44
90 71 41
91 71 42
93 72 46
94 73 46
90 70 42
97 76 44
95 75 45
94 73 44
91 72 41
90 69 46
93 72 47
84 64 43
85 66 41
84 65 41
84 65 41
80 62 40
87 67 44
86 67 40
88 68 42
93 73 42
87 67 43
83 64 41
92 72 44
79 61 39
87 68 42
87 68 42
95 76 41
98 77 45
94 75 42
90 71 41
95 74 46
92 72 43
86 67 39
82 63 41
95 74 46
95 74 45
91 71 44
80 62 38
94 73 44
91 71 43
91 71 43
87 68 43
88 68 43
86 67 43
91 72 41
86 68 39
82 63 39
83 65 40
88 67 45
88 69 41
90 69 45
84 65 41
82 63 42
88 67 46
83 63 44
94 73 46
82 62 44
93 72 46
85 66 42
86 67 41
98 77 45
87 68 41
88 68 44
91 71 45
85 66 43
83 65 38
92 71 45
90 69 46
94 74 44
88 69 40
92 71 44
88 69 40
83 64 41
93 73 44
90 69 47
88 69 43
92 72 43
95 74 46
83 65 40
91 71 44
87 68 40
90 70 44
92 72 44
92 71 47
96 75 46
83 65 39
95 74 48
95 75 43
90 70 44
96 75 47
89 69 44
88 69 43
96 75 46
95 74 46
88 68 44
85 65 43
101 80 45
96 75 45
100 79 47
89 70 42
98 77 45
99 79 41
98 78 42
99 77 46
97 76 46
92 72 43
92 71 45
96 75 47
97 76 45
92 71 46
101 80 45
93 72 47
98 78 44
99 77 46
107 86 44
100 80 44
95 74 44
100 80 44
98 77 45
102 80 47
103 81 48
102 81 43
101 79 47
101 79 47
104 82 46
102 80 46
98 77 47
108 84 52
103 81 46
95 74 44
99 78 45
103 82 45
105 83 47
100 78 46
100 79 44
90 70 43
104 82 47
104 83 46
106 84 46
103 80 49
97 76 44
100 80 43
102 80 47
102 81 44
106 83 49
105 82 49
102 81 46
112 89 47
103 81 47
104 82 46
106 84 48
105 83 48
107 85 48
107 84 49
104 82 46
100 78 45
107 84 50
105 82 49
110 88 46
107 85 47
114 91 49
105 82 51
104 82 47
105 83 46
109 87 47
104 83 45
113 90 47
104 83 45
111 87 52
109 86 50
107 85 48
99 79 44
113 90 49
109 85 52
108 84 49
100 79 45
114 92 45
108 85 51
108 85 49
116 93 46
110 86 51
109 86 48
107 86 44
111 88 50
115 92 49
111 89 48
113 90 48
113 90 47
114 91 49
112 88 51
102 81 46
115 92 49
118 94 49
110 86 51
112 90 47
106 84 47
109 85 52
110 87 49
110 87 50
113 91 46
114 91 50
115 91 51
109 85 53
108 85 49
108 85 51
115 92 47
115 91 52
116 92 51
114 91 49
108 86 47
118 93 53
110 88 48
117 94 48
115 91 51
110 87 50
113 90 51
115 91 51
116 92 51
115 91 50
109 87 45
118 95 47
113 89 50
114 90 51
116 92 51
114 90 49
116 92 52
113 90 47
117 92 56
116 91 52
116 92 51
113 89 52
116 92 50
120 95 53
112 87 55
115 91 51
118 95 48
115 92 49
119 94 53
117 92 52
114 90 52
118 95 50
115 91 51
115 92 48
115 91 53
118 93 53
114 90 50
117 92 52
116 92 51
115 90 55
117 94 50
109 86 50
119 94 52
114 90 52
113 91 48
117 92 54
114 91 50
115 91 49
112 89 50
117 92 54
115 91 49
120 96 49
113 89 51
114 89 54
116 92 52
116 92 51
115 91 50
112 89 50
111 87 53
115 92 48
112 89 46
113 89 51
120 96 51
112 89 48
113 89 51
112 88 50
114 89 53
111 86 52
110 86 50
116 92 51
116 92 52
114 91 48
121 97 50
111 88 50
116 93 50
104 81 50
114 90 52
117 94 48
115 90 53
107 85 48
116 92 50
110 88 45
114 92 47
104 82 48
112 89 49
115 91 50
109 86 50
106 85 45
109 86 48
115 91 51
112 90 44
111 87 51
116 91 54
110 88 48
112 87 53
113 91 48
104 84 44
114 92 45
106 84 48
116 94 45
113 89 51
107 86 45
110 87 48
107 83 51
113 89 53
103 80 49
112 89 49
108 83 53
108 87 44
108 84 51
113 90 50
107 84 49
112 89 47
111 87 52
104 81 50
111 88 50
112 89 47
108 85 50
108 86 49
108 85 50
112 89 48
108 85 50
106 84 46
111 87 50
101 80 46
109 86 49
109 87 47
106 83 48
107 85 46
109 87 46
105 84 45
93 72 45
102 80 48
108 85 50
106 84 45
100 79 47
106 83 48
107 84 50
106 86 43
100 79 46
104 81 49
105 82 50
98 76 47
93 74 41
98 78 44
102 80 46
101 78 48
100 78 47
100 78 47
103 80 50
99 79 43
105 82 49
104 81 50
103 81 47
97 75 46
99 78 46
100 79 44
103 81 47
97 75 49
100 78 46
98 76 48
101 80 44
101 80 46
96 75 44
103 82 46
95 74 44
94 73 47
98 78 43
100 78 46
91 69 47
93 72 44
99 77 48
96 76 42
95 75 45
97 77 43
95 75 43
96 75 48
97 77 44
88 69 42
100 79 46
92 73 42
96 76 43
90 69 46
95 73 47
98 76 47
93 73 43
91 69 49
91 72 42
93 74 41
94 73 45
101 79 45
92 72 44
90 71 42
95 75 43
94 73 46
94 73 47
95 75 43
89 70 40
86 66 44
93 73 45
86 67 40
95 74 44
90 70 43
90 69 47
88 67 44
84 65 41
89 69 44
89 69 44
87 68 41
87 66 46
95 74 45
90 70 41
92 72 44
84 65 41
87 68 40
92 71 46
92 72 42
88 69 40
84 64 46
90 69 45
86 66 44
88 69 42
91 71 42
89 70 43
86 66 44
92 72 44
87 67 43
91 72 40
81 63 39
78 61 38
94 72 47
92 71 44
87 69 39
93 73 44
80 63 36
91 71 43
91 70 45
90 70 42
89 70 43
91 70 45
88 69 41
90 70 43
75 58 38
87 68 40
100 79 45
91 71 44
89 69 43
87 67 44
84 65 42
95 75 43
90 70 44
90 71 41
87 67 44
92 73 40
96 76 42
90 70 42
90 70 45
92 71 44
91 71 43
92 72 44
87 69 38
87 67 43
91 71 43
93 72 48
97 76 46
81 63 39
88 68 44
85 66 41
96 75 44
88 69 41
88 69 41
91 71 44
90 70 44
97 75 48
90 70 42
97 76 48
97 75 46
96 76 43
87 67 42
102 81 45
87 68 41
87 68 40
97 77 44
96 76 42
89 70 42
92 72 45
87 68 39
95 74 46
93 72 46
91 71 44
95 74 44
100 79 44
91 72 41
104 82 47
93 71 48
98 77 43
90 70 45
92 72 44
98 77 43
95 74 44
96 75 46
101 79 45
92 74 39
96 75 44
92 72 43
94 73 45
95 74 46
99 79 44
92 72 43
95 75 44
102 81 46
97 77 41
97 77 44
103 81 48
99 77 48
101 78 51
103 82 45
98 76 47
98 78 42
108 87 44
99 77 47
100 78 46
96 75 46
105 82 48
101 80 45
105 82 48
106 83 51
109 86 47
107 84 50
106 85 44
99 77 47
105 84 45
106 84 48
104 83 46
96 74 50
103 81 46
103 81 47
100 78 46
108 86 45
104 81 49
102 79 49
110 88 47
105 84 45
106 84 46
110 88 48
110 88 47
105 84 43
106 84 46
102 80 49
105 82 49
106 84 47
107 85 48
100 78 47
109 86 49
115 92 50
108 85 49
103 81 47
106 85 44
109 86 49
106 82 50
104 82 47
114 90 51
104 83 44
108 85 50
111 88 48
112 89 49
108 86 45
111 88 47
108 86 48
108 86 48
117 92 52
108 85 49
108 86 47
112 88 51
114 91 46
104 83 46
112 90 48
113 90 48
112 89 48
108 85 49
106 83 49
112 89 50
116 93 48
109 87 46
112 88 50
116 94 47
108 85 49
116 93 47
110 87 50
114 91 46
112 89 51
109 86 50
117 94 45
113 90 51
112 89 49
114 90 51
106 84 49
119 95 51
107 85 48
118 94 49
114 89 54
110 87 50
113 91 48
109 87 48
114 92 47
118 95 48
113 90 50
119 95 51
110 88 46
118 94 53
113 89 52
115 92 48
115 91 51
115 92 49
119 95 51
118 93 54
115 91 49
114 88 55
117 94 48
115 91 51
114 91 49
118 93 53
118 96 46
120 97 49
114 89 53
117 93 51
116 92 51
114 90 51
112 89 50
118 93 52
116 92 52
117 92 51
116 92 52
117 92 53
116 92 49
113 88 54
120 95 52
113 89 52
117 92 55
109 86 50
116 90 56
117 92 52
121 97 51
119 95 51
114 92 48
118 94 49
114 90 51
114 90 53
115 91 52
111 87 52
115 92 48
115 90 54
115 91 50
114 91 50
115 90 53
117 94 47
114 90 52
120 96 51
109 86 48
116 92 49
116 91 53
114 91 49
111 89 47
112 88 52
115 90 54
109 86 47
114 91 48
112 89 48
115 91 51
112 89 48
117 94 48
113 88 52
113 91 48
114 91 50
115 92 49
114 89 52
113 90 49
115 91 50
115 92 50
114 91 48
116 94 45
116 94 47
115 91 52
106 81 55
112 90 45
107 84 50
111 87 49
108 86 46
115 92 50
111 88 48
103 80 50
106 84 48
112 89 49
115 92 49
111 88 48
107 84 50
114 90 50
112 89 48
114 91 50
105 83 46
115 91 52
108 85 47
108 85 48
111 88 49
104 82 49
111 88 49
105 83 48
105 83 49
107 85 47
110 86 52
108 85 48
103 81 45
109 86 50
102 80 47
117 91 54
104 83 45
110 86 51
102 80 48
100 79 45
107 84 49
107 85 47
109 88 44
101 80 43
107 84 48
110 88 47
99 78 45
116 93 49
102 81 45
98 76 46
105 84 45
107 84 48
99 80 41
100 79 46
103 81 47
105 84 46
115 91 52
101 80 45
110 86 51
105 83 47
104 83 44
104 81 49
106 84 47
100 78 47
105 84 44
108 84 50
105 83 47
107 84 49
109 86 49
98 76 47
97 74 49
101 81 43
107 84 48
100 78 47
98 78 43
96 75 46
89 70 40
103 82 45
93 71 49
100 78 47
92 72 43
105 83 48
95 73 48
101 80 45
99 78 47
98 77 43
89 69 44
99 78 46
103 81 47
99 79 42
95 74 45
92 71 46
93 71 48
90 70 44
99 78 45
101 79 46
96 76 43
100 79 45
96 76 42
96 75 47
97 76 44
103 81 47
94 74 42
92 72 44
95 74 44
89 70 42
98 76 47
96 75 45
93 73 43
97 76 46
99 78 44
91 70 44
93 72 45
89 69 43
94 73 45
96 75 45
90 71 40
96 76 41
96 75 47
94 74 43
86 66 43
90 70 44
90 70 44
88 69 42
90 71 41
95 75 41
86 66 43
90 70 43
92 72 43
91 71 43
90 70 43
90 70 44
83 65 38
95 75 42
85 66 41
82 62 43
86 66 44
97 77 42
90 70 44
90 69 45
83 64 42
97 76 45
85 66 40
90 70 43
92 70 47
95 75 44
88 69 40
90 70 44
89 69 45
89 69 42
81 62 42
89 70 40
87 67 43
86 67 39
87 68 41
90 70 44
85 66 41
93 74 42
90 69 46
81 62 43
88 67 44
84 65 41
86 67 40
81 61 44
85 65 42
91 70 45
83 64 40
88 68 44
92 71 46
86 67 40
80 62 41
88 67 45
87 67 42
88 67 46
86 67 43
78 61 38
85 66 41
84 65 40
86 67 43
85 66 42
85 65 43
93 74 40
93 71 46
92 73 41
93 72 45
91 72 42
88 69 41
89 69 45
91 71 42
93 72 46
93 72 47
92 71 45
97 75 50
77 60 39
87 66 45
96 76 44
94 74 42
92 71 47
94 73 46
92 71 45
94 74 43
102 81 45
85 65 44
89 70 39
98 78 43
90 70 44
92 72 43
96 75 45
91 71 44
92 71 45
91 70 44
98 77 46
90 69 44
99 78 45
94 74 44
99 78 46
99 78 44
105 83 48
98 77 43
101 80 44
100 78 48
91 71 42
96 76 43
88 69 41
99 79 45
99 78 45
100 79 47
100 79 44
98 78 44
95 75 44
101 79 48
95 74 44
99 79 44
95 74 47
98 77 47
97 76 44
98 77 45
99 76 50
97 75 48
102 81 45
101 79 47
101 78 50
92 72 45
101 78 49
100 79 47
100 79 47
102 81 46
102 79 51
102 80 47
105 83 47
103 82 45
96 76 43
107 85 47
105 83 45
102 80 46
110 87 48
110 87 47
103 80 50
109 87 46
108 85 48
110 87 51
105 81 51
103 79 52
108 84 51
109 87 46
103 81 46
105 82 49
114 91 49
99 76 50
107 85 46
104 82 47
110 88 46
101 80 43
112 89 47
108 86 48
103 80 48
105 81 50
104 82 47
104 83 43
104 82 49
110 88 46
108 85 50
107 85 48
110 86 50
105 83 47
111 87 53
107 84 50
113 90 48
109 86 49
109 86 50
109 86 50
109 85 52
108 85 48
107 83 51
113 89 52
108 85 49
108 84 51
100 77 49
110 87 48
112 88 50
109 87 47
112 89 50
111 87 53
115 91 51
110 86 51
107 84 50
116 93 47
107 84 49
112 89 50
114 90 51
106 83 50
112 87 54
109 88 46
111 88 51
109 87 47
116 94 47
117 93 51
111 88 49
110 87 47
113 88 54
108 84 52
117 94 48
117 94 49
111 88 49
112 89 49
116 93 49
115 92 48
115 91 51
117 92 53
114 90 51
118 95 48
117 92 54
114 90 53
113 90 49
116 91 53
116 93 49
115 92 47
118 93 53
113 89 50
114 90 50
118 94 51
116 92 50
110 88 48
120 96 50
116 94 48
117 93 52
118 94 49
114 89 53
115 91 51
117 94 48
114 91 49
114 89 53
114 89 54
116 91 52
117 92 54
118 94 50
